(1001)
(Round 001 - Slot Clearing 3mm)
(Machine)
(  vendor: SainSmart)
(  model: Genmitsu 3018)
(  description: SainSmart 3018 Original)
(T2  D=0.1181 CR=0 - ZMIN=-0.421 - flat end mill)
G90 G94
G17
G20
(When using Fusion 360 for Personal Use, the feedrate of)
(rapid moves is reduced to match the feedrate of cutting)
(moves, which can increase machining time. Unrestricted rapid)
(moves are available with a Fusion 360 Subscription.)
G28 G91 Z0
G90

(3mm Slot Clear)
T2
S10000 M3
G54
G0 X2.1628 Y1.6486
Z0.6
G1 Z0.1947 F4.72
Z0.0947
G2 X2.5628 Y0.7486 Z0.055 I-0.1375 J-0.6 F3.94
G3 X2.1628 Y1.6486 Z0.0153 I-0.5375 J0.3
G2 X2.5628 Y0.7486 Z-0.0243 I-0.1375 J-0.6
G3 X2.1628 Y1.6486 Z-0.064 I-0.5375 J0.3
G2 X2.5628 Y0.7486 Z-0.1037 I-0.1375 J-0.6
G3 X2.1628 Y1.6486 Z-0.1433 I-0.5375 J0.3
G2 X2.5628 Y0.7486 Z-0.183 I-0.1375 J-0.6
G3 X2.1628 Y1.6486 Z-0.2227 I-0.5375 J0.3
G2 X2.5628 Y0.7486 Z-0.2623 I-0.1375 J-0.6
G3 X2.1628 Y1.6486 Z-0.302 I-0.5375 J0.3
G2 X2.5628 Y0.7486 Z-0.3417 I-0.1375 J-0.6
G3 X2.1628 Y1.6486 Z-0.3813 I-0.5375 J0.3
G2 X2.5628 Y0.7486 Z-0.421 I-0.1375 J-0.6
G3 X2.1628 Y1.6486 I-0.5375 J0.3 F4.72
G1 Z0.2
X0.925 Y1.575
Z0.1947
Z0.0947
G2 X1.375 Y1.575 Z0.0723 I0.225 J-0.025 F3.94
G3 X0.925 Y1.575 Z0.0498 I-0.225 J-0.025
G2 X1.375 Y1.575 Z0.0274 I0.225 J-0.025
G3 X0.925 Y1.575 Z0.005 I-0.225 J-0.025
G2 X1.375 Y1.575 Z-0.0174 I0.225 J-0.025
G3 X0.925 Y1.575 Z-0.0398 I-0.225 J-0.025
G2 X1.375 Y1.575 Z-0.0623 I0.225 J-0.025
G3 X0.925 Y1.575 Z-0.0847 I-0.225 J-0.025
G2 X1.375 Y1.575 Z-0.1071 I0.225 J-0.025
G3 X0.925 Y1.575 Z-0.1295 I-0.225 J-0.025
G2 X1.375 Y1.575 Z-0.1519 I0.225 J-0.025
G3 X0.925 Y1.575 Z-0.1744 I-0.225 J-0.025
G2 X1.375 Y1.575 Z-0.1968 I0.225 J-0.025
G3 X0.925 Y1.575 Z-0.2192 I-0.225 J-0.025
G2 X1.375 Y1.575 Z-0.2416 I0.225 J-0.025
G3 X0.925 Y1.575 Z-0.2641 I-0.225 J-0.025
G2 X1.375 Y1.575 Z-0.2865 I0.225 J-0.025
G3 X0.925 Y1.575 Z-0.3089 I-0.225 J-0.025
G2 X1.375 Y1.575 Z-0.3313 I0.225 J-0.025
G3 X0.925 Y1.575 Z-0.3537 I-0.225 J-0.025
G2 X1.375 Y1.575 Z-0.3762 I0.225 J-0.025
G3 X0.925 Y1.575 Z-0.3986 I-0.225 J-0.025
G2 X1.375 Y1.575 Z-0.421 I0.225 J-0.025
G3 X0.925 Y1.575 I-0.225 J-0.025 F4.72
G1 Z0.2
X0.5042 Y1.1538
Z0.1947
Z0.0947
Y0.9038 Z0.0861 F3.94
Y1.1538 Z0.0775
Y0.9038 Z0.0689
Y1.1538 Z0.0603
Y0.9038 Z0.0517
Y1.1538 Z0.0431
Y0.9038 Z0.0345
Y1.1538 Z0.0259
Y0.9038 Z0.0173
Y1.1538 Z0.0087
Y0.9038 Z0.0001
Y1.1538 Z-0.0085
Y0.9038 Z-0.017
Y1.1538 Z-0.0256
Y0.9038 Z-0.0342
Y1.1538 Z-0.0428
Y0.9038 Z-0.0514
Y1.1538 Z-0.06
Y0.9038 Z-0.0686
Y1.1538 Z-0.0772
Y0.9038 Z-0.0858
Y1.1538 Z-0.0944
Y0.9038 Z-0.103
Y1.1538 Z-0.1116
Y0.9038 Z-0.1202
Y1.1538 Z-0.1288
Y0.9038 Z-0.1374
Y1.1538 Z-0.146
Y0.9038 Z-0.1546
Y1.1538 Z-0.1632
Y0.9038 Z-0.1718
Y1.1538 Z-0.1803
Y0.9038 Z-0.1889
Y1.1538 Z-0.1975
Y0.9038 Z-0.2061
Y1.1538 Z-0.2147
Y0.9038 Z-0.2233
Y1.1538 Z-0.2319
Y0.9038 Z-0.2405
Y1.1538 Z-0.2491
Y0.9038 Z-0.2577
Y1.1538 Z-0.2663
Y0.9038 Z-0.2749
Y1.1538 Z-0.2835
Y0.9038 Z-0.2921
Y1.1538 Z-0.3007
Y0.9038 Z-0.3093
Y1.1538 Z-0.3179
Y0.9038 Z-0.3265
Y1.1538 Z-0.3351
Y0.9038 Z-0.3436
Y1.1538 Z-0.3522
Y0.9038 Z-0.3608
Y1.1538 Z-0.3694
Y0.9038 Z-0.378
Y1.1538 Z-0.3866
Y0.9038 Z-0.3952
Y1.1538 Z-0.4038
Y0.9038 Z-0.4124
Y1.1538 Z-0.421
Y0.9038 F4.72
Z0.2
X0.4942 Y0.4058
Z0.1947
Z0.0947
X0.9942 Z0.0775 F3.94
X0.4942 Z0.0603
X0.9942 Z0.0431
X0.4942 Z0.0259
X0.9942 Z0.0087
X0.4942 Z-0.0085
X0.9942 Z-0.0256
X0.4942 Z-0.0428
X0.9942 Z-0.06
X0.4942 Z-0.0772
X0.9942 Z-0.0944
X0.4942 Z-0.1116
X0.9942 Z-0.1288
X0.4942 Z-0.146
X0.9942 Z-0.1632
X0.4942 Z-0.1803
X0.9942 Z-0.1975
X0.4942 Z-0.2147
X0.9942 Z-0.2319
X0.4942 Z-0.2491
X0.9942 Z-0.2663
X0.4942 Z-0.2835
X0.9942 Z-0.3007
X0.4942 Z-0.3179
X0.9942 Z-0.3351
X0.4942 Z-0.3522
X0.9942 Z-0.3694
X0.4942 Z-0.3866
X0.9942 Z-0.4038
X0.4942 Z-0.421
X0.9942 F4.72
Z0.2
X1.2689 Y0.636
Z0.1947
Z0.0947
X1.3305 Y0.5744 Z0.0917 F3.94
X1.2689 Y0.636 Z0.0886
X1.3305 Y0.5744 Z0.0856
X1.2689 Y0.636 Z0.0826
X1.3305 Y0.5744 Z0.0795
X1.2689 Y0.636 Z0.0765
X1.3305 Y0.5744 Z0.0735
X1.2689 Y0.636 Z0.0704
X1.3305 Y0.5744 Z0.0674
X1.2689 Y0.636 Z0.0644
X1.3305 Y0.5744 Z0.0613
X1.2689 Y0.636 Z0.0583
X1.3305 Y0.5744 Z0.0553
X1.2689 Y0.636 Z0.0522
X1.3305 Y0.5744 Z0.0492
X1.2689 Y0.636 Z0.0461
X1.3305 Y0.5744 Z0.0431
X1.2689 Y0.636 Z0.0401
X1.3305 Y0.5744 Z0.037
X1.2689 Y0.636 Z0.034
X1.3305 Y0.5744 Z0.031
X1.2689 Y0.636 Z0.0279
X1.3305 Y0.5744 Z0.0249
X1.2689 Y0.636 Z0.0219
X1.3305 Y0.5744 Z0.0188
X1.2689 Y0.636 Z0.0158
X1.3305 Y0.5744 Z0.0128
X1.2689 Y0.636 Z0.0097
X1.3305 Y0.5744 Z0.0067
X1.2689 Y0.636 Z0.0037
X1.3305 Y0.5744 Z0.0006
X1.2689 Y0.636 Z-0.0024
X1.3305 Y0.5744 Z-0.0054
X1.2689 Y0.636 Z-0.0085
X1.3305 Y0.5744 Z-0.0115
X1.2689 Y0.636 Z-0.0145
X1.3305 Y0.5744 Z-0.0176
X1.2689 Y0.636 Z-0.0206
X1.3305 Y0.5744 Z-0.0236
X1.2689 Y0.636 Z-0.0267
X1.3305 Y0.5744 Z-0.0297
X1.2689 Y0.636 Z-0.0327
X1.3305 Y0.5744 Z-0.0358
X1.2689 Y0.636 Z-0.0388
X1.3305 Y0.5744 Z-0.0418
X1.2689 Y0.636 Z-0.0449
X1.3305 Y0.5744 Z-0.0479
X1.2689 Y0.636 Z-0.0509
X1.3305 Y0.5744 Z-0.054
X1.2689 Y0.636 Z-0.057
X1.3305 Y0.5744 Z-0.06
X1.2689 Y0.636 Z-0.0631
X1.3305 Y0.5744 Z-0.0661
X1.2689 Y0.636 Z-0.0691
X1.3305 Y0.5744 Z-0.0722
X1.2689 Y0.636 Z-0.0752
X1.3305 Y0.5744 Z-0.0782
X1.2689 Y0.636 Z-0.0813
X1.3305 Y0.5744 Z-0.0843
X1.2689 Y0.636 Z-0.0873
X1.3305 Y0.5744 Z-0.0904
X1.2689 Y0.636 Z-0.0934
X1.3305 Y0.5744 Z-0.0964
X1.2689 Y0.636 Z-0.0995
X1.3305 Y0.5744 Z-0.1025
X1.2689 Y0.636 Z-0.1055
X1.3305 Y0.5744 Z-0.1086
X1.2689 Y0.636 Z-0.1116
X1.3305 Y0.5744 Z-0.1146
X1.2689 Y0.636 Z-0.1177
X1.3305 Y0.5744 Z-0.1207
X1.2689 Y0.636 Z-0.1237
X1.3305 Y0.5744 Z-0.1268
X1.2689 Y0.636 Z-0.1298
X1.3305 Y0.5744 Z-0.1328
X1.2689 Y0.636 Z-0.1359
X1.3305 Y0.5744 Z-0.1389
X1.2689 Y0.636 Z-0.1419
X1.3305 Y0.5744 Z-0.145
X1.2689 Y0.636 Z-0.148
X1.3305 Y0.5744 Z-0.151
X1.2689 Y0.636 Z-0.1541
X1.3305 Y0.5744 Z-0.1571
X1.2689 Y0.636 Z-0.1601
X1.3305 Y0.5744 Z-0.1632
X1.2689 Y0.636 Z-0.1662
X1.3305 Y0.5744 Z-0.1692
X1.2689 Y0.636 Z-0.1723
X1.3305 Y0.5744 Z-0.1753
X1.2689 Y0.636 Z-0.1783
X1.3305 Y0.5744 Z-0.1814
X1.2689 Y0.636 Z-0.1844
X1.3305 Y0.5744 Z-0.1874
X1.2689 Y0.636 Z-0.1905
X1.3305 Y0.5744 Z-0.1935
X1.2689 Y0.636 Z-0.1965
X1.3305 Y0.5744 Z-0.1996
X1.2689 Y0.636 Z-0.2026
X1.3305 Y0.5744 Z-0.2056
X1.2689 Y0.636 Z-0.2087
X1.3305 Y0.5744 Z-0.2117
X1.2689 Y0.636 Z-0.2147
X1.3305 Y0.5744 Z-0.2178
X1.2689 Y0.636 Z-0.2208
X1.3305 Y0.5744 Z-0.2238
X1.2689 Y0.636 Z-0.2269
X1.3305 Y0.5744 Z-0.2299
X1.2689 Y0.636 Z-0.2329
X1.3305 Y0.5744 Z-0.236
X1.2689 Y0.636 Z-0.239
X1.3305 Y0.5744 Z-0.242
X1.2689 Y0.636 Z-0.2451
X1.3305 Y0.5744 Z-0.2481
X1.2689 Y0.636 Z-0.2511
X1.3305 Y0.5744 Z-0.2542
X1.2689 Y0.636 Z-0.2572
X1.3305 Y0.5744 Z-0.2602
X1.2689 Y0.636 Z-0.2633
X1.3305 Y0.5744 Z-0.2663
X1.2689 Y0.636 Z-0.2693
X1.3305 Y0.5744 Z-0.2724
X1.2689 Y0.636 Z-0.2754
X1.3305 Y0.5744 Z-0.2784
X1.2689 Y0.636 Z-0.2815
X1.3305 Y0.5744 Z-0.2845
X1.2689 Y0.636 Z-0.2875
X1.3305 Y0.5744 Z-0.2906
X1.2689 Y0.636 Z-0.2936
X1.3305 Y0.5744 Z-0.2966
X1.2689 Y0.636 Z-0.2997
X1.3305 Y0.5744 Z-0.3027
X1.2689 Y0.636 Z-0.3057
X1.3305 Y0.5744 Z-0.3088
X1.2689 Y0.636 Z-0.3118
X1.3305 Y0.5744 Z-0.3148
X1.2689 Y0.636 Z-0.3179
X1.3305 Y0.5744 Z-0.3209
X1.2689 Y0.636 Z-0.3239
X1.3305 Y0.5744 Z-0.327
X1.2689 Y0.636 Z-0.33
X1.3305 Y0.5744 Z-0.333
X1.2689 Y0.636 Z-0.3361
X1.3305 Y0.5744 Z-0.3391
X1.2689 Y0.636 Z-0.3421
X1.3305 Y0.5744 Z-0.3452
X1.2689 Y0.636 Z-0.3482
X1.3305 Y0.5744 Z-0.3512
X1.2689 Y0.636 Z-0.3543
X1.3305 Y0.5744 Z-0.3573
X1.2689 Y0.636 Z-0.3603
X1.3305 Y0.5744 Z-0.3634
X1.2689 Y0.636 Z-0.3664
X1.3305 Y0.5744 Z-0.3694
X1.2689 Y0.636 Z-0.3725
X1.3305 Y0.5744 Z-0.3755
X1.2689 Y0.636 Z-0.3785
X1.3305 Y0.5744 Z-0.3816
X1.2689 Y0.636 Z-0.3846
X1.3305 Y0.5744 Z-0.3876
X1.2689 Y0.636 Z-0.3907
X1.3305 Y0.5744 Z-0.3937
X1.2689 Y0.636 Z-0.3967
X1.3305 Y0.5744 Z-0.3998
X1.2689 Y0.636 Z-0.4028
X1.3305 Y0.5744 Z-0.4058
X1.2689 Y0.636 Z-0.4089
X1.3305 Y0.5744 Z-0.4119
X1.2689 Y0.636 Z-0.4149
X1.3305 Y0.5744 Z-0.418
X1.2689 Y0.636 Z-0.421
X1.3305 Y0.5744 F4.72
Z0.6
G28 G91 Z0
G90
G28 G91 X0 Y0
G90
M5
M30
