(1001)
(Round 001 - Pocket Finish 0.8mm)
(Machine)
(  vendor: SainSmart)
(  model: Genmitsu 3018)
(  description: SainSmart 3018 Original)
(T7  D=0.0315 CR=0 - ZMIN=-0.075 - flat end mill)
G90 G94
G17
G20
(When using Fusion 360 for Personal Use, the feedrate of)
(rapid moves is reduced to match the feedrate of cutting)
(moves, which can increase machining time. Unrestricted rapid)
(moves are available with a Fusion 360 Subscription.)
G28 G91 Z0
G90

(0.8mm Pocket Finish)
T7
S10000 M3
G54
G0 X0.183 Y0.2162
Z0.6
G1 Z0.1947 F4.33
Z0.0978
X0.1821 Y0.216 Z0.0956 F3.94
X0.18 Y0.2154 Z0.0947
G3 X0.1905 Y0.1874 Z0.093 I0.0053 J-0.014
X0.18 Y0.2154 Z0.0914 I-0.0053 J0.014
X0.1905 Y0.1874 Z0.0898 I0.0053 J-0.014
X0.18 Y0.2154 Z0.0881 I-0.0053 J0.014
X0.1905 Y0.1874 Z0.0865 I0.0053 J-0.014
X0.18 Y0.2154 Z0.0848 I-0.0053 J0.014
X0.1905 Y0.1874 Z0.0832 I0.0053 J-0.014
X0.18 Y0.2154 Z0.0816 I-0.0053 J0.014
X0.1905 Y0.1874 Z0.0799 I0.0053 J-0.014
X0.18 Y0.2154 Z0.0783 I-0.0053 J0.014
X0.1905 Y0.1874 Z0.0766 I0.0053 J-0.014
X0.18 Y0.2154 Z0.075 I-0.0053 J0.014
X0.1905 Y0.1874 Z0.0733 I0.0053 J-0.014
X0.18 Y0.2154 Z0.0717 I-0.0053 J0.014
X0.1905 Y0.1874 Z0.0701 I0.0053 J-0.014
X0.18 Y0.2154 Z0.0684 I-0.0053 J0.014
X0.1905 Y0.1874 Z0.0668 I0.0053 J-0.014
X0.18 Y0.2154 Z0.0651 I-0.0053 J0.014
X0.1905 Y0.1874 Z0.0635 I0.0053 J-0.014
X0.18 Y0.2154 Z0.0619 I-0.0053 J0.014
X0.1905 Y0.1874 Z0.0602 I0.0053 J-0.014
X0.18 Y0.2154 Z0.0586 I-0.0053 J0.014
X0.1905 Y0.1874 Z0.0569 I0.0053 J-0.014
X0.18 Y0.2154 Z0.0553 I-0.0053 J0.014
X0.1905 Y0.1874 Z0.0537 I0.0053 J-0.014
X0.18 Y0.2154 Z0.052 I-0.0053 J0.014
X0.1905 Y0.1874 Z0.0504 I0.0053 J-0.014
X0.18 Y0.2154 Z0.0487 I-0.0053 J0.014
X0.1905 Y0.1874 Z0.0471 I0.0053 J-0.014
X0.18 Y0.2154 Z0.0454 I-0.0053 J0.014
X0.1905 Y0.1874 Z0.0438 I0.0053 J-0.014
X0.18 Y0.2154 Z0.0422 I-0.0053 J0.014
X0.1905 Y0.1874 Z0.0405 I0.0053 J-0.014
X0.18 Y0.2154 Z0.0389 I-0.0053 J0.014
X0.1905 Y0.1874 Z0.0372 I0.0053 J-0.014
X0.18 Y0.2154 Z0.0356 I-0.0053 J0.014
X0.1905 Y0.1874 Z0.034 I0.0053 J-0.014
X0.18 Y0.2154 Z0.0323 I-0.0053 J0.014
X0.1905 Y0.1874 Z0.0307 I0.0053 J-0.014
X0.18 Y0.2154 Z0.029 I-0.0053 J0.014
X0.1905 Y0.1874 Z0.0274 I0.0053 J-0.014
X0.18 Y0.2154 Z0.0258 I-0.0053 J0.014
X0.1905 Y0.1874 Z0.0241 I0.0053 J-0.014
X0.18 Y0.2154 Z0.0225 I-0.0053 J0.014
X0.1905 Y0.1874 Z0.0208 I0.0053 J-0.014
X0.18 Y0.2154 Z0.0192 I-0.0053 J0.014
X0.1905 Y0.1874 Z0.0175 I0.0053 J-0.014
X0.18 Y0.2154 Z0.0159 I-0.0053 J0.014
X0.1905 Y0.1874 Z0.0143 I0.0053 J-0.014
X0.18 Y0.2154 Z0.0126 I-0.0053 J0.014
X0.1905 Y0.1874 Z0.011 I0.0053 J-0.014
X0.18 Y0.2154 Z0.0093 I-0.0053 J0.014
X0.1905 Y0.1874 Z0.0077 I0.0053 J-0.014
X0.18 Y0.2154 Z0.0061 I-0.0053 J0.014
X0.1905 Y0.1874 Z0.0044 I0.0053 J-0.014
X0.18 Y0.2154 Z0.0028 I-0.0053 J0.014
X0.1905 Y0.1874 Z0.0011 I0.0053 J-0.014
X0.18 Y0.2154 Z-0.0005 I-0.0053 J0.014
X0.1905 Y0.1874 Z-0.0022 I0.0053 J-0.014
X0.18 Y0.2154 Z-0.0038 I-0.0053 J0.014
X0.1905 Y0.1874 Z-0.0054 I0.0053 J-0.014
X0.18 Y0.2154 Z-0.0071 I-0.0053 J0.014
X0.1905 Y0.1874 Z-0.0087 I0.0053 J-0.014
X0.18 Y0.2154 Z-0.0104 I-0.0053 J0.014
X0.1905 Y0.1874 Z-0.012 I0.0053 J-0.014
X0.18 Y0.2154 Z-0.0136 I-0.0053 J0.014
X0.1905 Y0.1874 Z-0.0153 I0.0053 J-0.014
X0.18 Y0.2154 Z-0.0169 I-0.0053 J0.014
X0.1905 Y0.1874 Z-0.0186 I0.0053 J-0.014
X0.18 Y0.2154 Z-0.0202 I-0.0053 J0.014
X0.1905 Y0.1874 Z-0.0218 I0.0053 J-0.014
X0.18 Y0.2154 Z-0.0235 I-0.0053 J0.014
X0.1905 Y0.1874 Z-0.0251 I0.0053 J-0.014
X0.18 Y0.2154 Z-0.0268 I-0.0053 J0.014
X0.1905 Y0.1874 Z-0.0284 I0.0053 J-0.014
X0.18 Y0.2154 Z-0.0301 I-0.0053 J0.014
X0.1905 Y0.1874 Z-0.0317 I0.0053 J-0.014
X0.18 Y0.2154 Z-0.0333 I-0.0053 J0.014
X0.1905 Y0.1874 Z-0.035 I0.0053 J-0.014
X0.18 Y0.2154 Z-0.0366 I-0.0053 J0.014
X0.1905 Y0.1874 Z-0.0383 I0.0053 J-0.014
X0.18 Y0.2154 Z-0.0399 I-0.0053 J0.014
X0.1905 Y0.1874 Z-0.0415 I0.0053 J-0.014
X0.18 Y0.2154 Z-0.0432 I-0.0053 J0.014
X0.1905 Y0.1874 Z-0.0448 I0.0053 J-0.014
X0.18 Y0.2154 Z-0.0465 I-0.0053 J0.014
X0.1905 Y0.1874 Z-0.0481 I0.0053 J-0.014
X0.18 Y0.2154 Z-0.0497 I-0.0053 J0.014
X0.1905 Y0.1874 Z-0.0514 I0.0053 J-0.014
X0.18 Y0.2154 Z-0.053 I-0.0053 J0.014
X0.1905 Y0.1874 Z-0.0547 I0.0053 J-0.014
X0.18 Y0.2154 Z-0.0563 I-0.0053 J0.014
X0.1905 Y0.1874 Z-0.058 I0.0053 J-0.014
X0.18 Y0.2154 Z-0.0596 I-0.0053 J0.014
X0.1905 Y0.1874 Z-0.0612 I0.0053 J-0.014
X0.18 Y0.2154 Z-0.0629 I-0.0053 J0.014
X0.1905 Y0.1874 Z-0.0645 I0.0053 J-0.014
X0.18 Y0.2154 Z-0.0662 I-0.0053 J0.014
X0.1905 Y0.1874 Z-0.0678 I0.0053 J-0.014
X0.18 Y0.2154 Z-0.0694 I-0.0053 J0.014
X0.1905 Y0.1874 Z-0.0711 I0.0053 J-0.014
X0.18 Y0.2154 Z-0.0727 I-0.0053 J0.014
X0.1905 Y0.1874 Z-0.0744 I0.0053 J-0.014
X0.2002 Y0.2014 Z-0.075 I-0.0053 J0.014
G1 X0.2 Y0.2021 F4.33
X0.1994 Y0.2025
X0.1987
X0.1981 Y0.2021
X0.1979 Y0.2014
G3 X0.2302 Y0.2014 I0.0161 J0
X0.168 Y0.2014 I-0.0311 J0
X0.2333 Y0.2014 I0.0327 J0
X0.1648 Y0.2014 I-0.0343 J0
X0.2333 Y0.2014 I0.0343 J0
X0.1648 Y0.2014 I-0.0343 J0
X0.2333 Y0.2014 I0.0343 J0
G1 X0.2331 Y0.2025 Z-0.0745
X0.2326 Y0.2035 Z-0.0741
X0.2319 Y0.2041 Z-0.0719
Z0.6
G28 G91 Z0
G90
G28 G91 X0 Y0
G90
M5
M30
