%
(1001)
(Round 001)
(Machine)
(  vendor: SainSmart)
(  model: Genmitsu 3018)
(  description: SainSmart 3018 Original)
(T2  D=0.1181 CR=0 - ZMIN=-0.421 - flat end mill)
G90 G94
G17
G20
(When using Fusion 360 for Personal Use, the feedrate of)
(rapid moves is reduced to match the feedrate of cutting)
(moves, which can increase machining time. Unrestricted rapid)
(moves are available with a Fusion 360 Subscription.)
G0 Z0.5

(3mm Slot Clear)
M9
T2
S10000 M3
G54
M9
G0 X2.1628 Y1.6486
Z0.175
G1 Z0.075 F4.72
G2 X2.5628 Y0.7486 Z0.0368 I-0.1375 J-0.6 F3.94
G3 X2.1628 Y1.6486 Z-0.0013 I-0.5375 J0.3
G2 X2.5628 Y0.7486 Z-0.0395 I-0.1375 J-0.6
G3 X2.1628 Y1.6486 Z-0.0776 I-0.5375 J0.3
G2 X2.5628 Y0.7486 Z-0.1158 I-0.1375 J-0.6
G3 X2.1628 Y1.6486 Z-0.1539 I-0.5375 J0.3
G2 X2.5628 Y0.7486 Z-0.1921 I-0.1375 J-0.6
G3 X2.1628 Y1.6486 Z-0.2302 I-0.5375 J0.3
G2 X2.5628 Y0.7486 Z-0.2684 I-0.1375 J-0.6
G3 X2.1628 Y1.6486 Z-0.3065 I-0.5375 J0.3
G2 X2.5628 Y0.7486 Z-0.3447 I-0.1375 J-0.6
G3 X2.1628 Y1.6486 Z-0.3828 I-0.5375 J0.3
G2 X2.5628 Y0.7486 Z-0.421 I-0.1375 J-0.6
G3 X2.1628 Y1.6486 I-0.5375 J0.3 F4.72
G1 Z0.125
X0.925 Y1.575
Z0.075
G2 X1.375 Z0.0525 I0.225 J-0.025 F3.94
G3 X0.925 Z0.0299 I-0.225 J-0.025
G2 X1.375 Z0.0074 I0.225 J-0.025
G3 X0.925 Z-0.0152 I-0.225 J-0.025
G2 X1.375 Z-0.0377 I0.225 J-0.025
G3 X0.925 Z-0.0603 I-0.225 J-0.025
G2 X1.375 Z-0.0828 I0.225 J-0.025
G3 X0.925 Z-0.1054 I-0.225 J-0.025
G2 X1.375 Z-0.1279 I0.225 J-0.025
G3 X0.925 Z-0.1505 I-0.225 J-0.025
G2 X1.375 Z-0.173 I0.225 J-0.025
G3 X0.925 Z-0.1955 I-0.225 J-0.025
G2 X1.375 Z-0.2181 I0.225 J-0.025
G3 X0.925 Z-0.2406 I-0.225 J-0.025
G2 X1.375 Z-0.2632 I0.225 J-0.025
G3 X0.925 Z-0.2857 I-0.225 J-0.025
G2 X1.375 Z-0.3083 I0.225 J-0.025
G3 X0.925 Z-0.3308 I-0.225 J-0.025
G2 X1.375 Z-0.3534 I0.225 J-0.025
G3 X0.925 Z-0.3759 I-0.225 J-0.025
G2 X1.375 Z-0.3985 I0.225 J-0.025
G3 X0.925 Z-0.421 I-0.225 J-0.025
G2 X1.375 I0.225 J-0.025 F4.72
G1 Z0.125
X1.2689 Y0.636
Z0.075
X1.3305 Y0.5744 Z0.072 F3.94
X1.2689 Y0.636 Z0.069
X1.3305 Y0.5744 Z0.0659
X1.2689 Y0.636 Z0.0629
X1.3305 Y0.5744 Z0.0599
X1.2689 Y0.636 Z0.0569
X1.3305 Y0.5744 Z0.0538
X1.2689 Y0.636 Z0.0508
X1.3305 Y0.5744 Z0.0478
X1.2689 Y0.636 Z0.0448
X1.3305 Y0.5744 Z0.0417
X1.2689 Y0.636 Z0.0387
X1.3305 Y0.5744 Z0.0357
X1.2689 Y0.636 Z0.0327
X1.3305 Y0.5744 Z0.0296
X1.2689 Y0.636 Z0.0266
X1.3305 Y0.5744 Z0.0236
X1.2689 Y0.636 Z0.0206
X1.3305 Y0.5744 Z0.0175
X1.2689 Y0.636 Z0.0145
X1.3305 Y0.5744 Z0.0115
X1.2689 Y0.636 Z0.0085
X1.3305 Y0.5744 Z0.0054
X1.2689 Y0.636 Z0.0024
X1.3305 Y0.5744 Z-0.0006
X1.2689 Y0.636 Z-0.0036
X1.3305 Y0.5744 Z-0.0067
X1.2689 Y0.636 Z-0.0097
X1.3305 Y0.5744 Z-0.0127
X1.2689 Y0.636 Z-0.0157
X1.3305 Y0.5744 Z-0.0188
X1.2689 Y0.636 Z-0.0218
X1.3305 Y0.5744 Z-0.0248
X1.2689 Y0.636 Z-0.0278
X1.3305 Y0.5744 Z-0.0309
X1.2689 Y0.636 Z-0.0339
X1.3305 Y0.5744 Z-0.0369
X1.2689 Y0.636 Z-0.0399
X1.3305 Y0.5744 Z-0.043
X1.2689 Y0.636 Z-0.046
X1.3305 Y0.5744 Z-0.049
X1.2689 Y0.636 Z-0.052
X1.3305 Y0.5744 Z-0.055
X1.2689 Y0.636 Z-0.0581
X1.3305 Y0.5744 Z-0.0611
X1.2689 Y0.636 Z-0.0641
X1.3305 Y0.5744 Z-0.0671
X1.2689 Y0.636 Z-0.0702
X1.3305 Y0.5744 Z-0.0732
X1.2689 Y0.636 Z-0.0762
X1.3305 Y0.5744 Z-0.0792
X1.2689 Y0.636 Z-0.0823
X1.3305 Y0.5744 Z-0.0853
X1.2689 Y0.636 Z-0.0883
X1.3305 Y0.5744 Z-0.0913
X1.2689 Y0.636 Z-0.0944
X1.3305 Y0.5744 Z-0.0974
X1.2689 Y0.636 Z-0.1004
X1.3305 Y0.5744 Z-0.1034
X1.2689 Y0.636 Z-0.1065
X1.3305 Y0.5744 Z-0.1095
X1.2689 Y0.636 Z-0.1125
X1.3305 Y0.5744 Z-0.1155
X1.2689 Y0.636 Z-0.1186
X1.3305 Y0.5744 Z-0.1216
X1.2689 Y0.636 Z-0.1246
X1.3305 Y0.5744 Z-0.1276
X1.2689 Y0.636 Z-0.1307
X1.3305 Y0.5744 Z-0.1337
X1.2689 Y0.636 Z-0.1367
X1.3305 Y0.5744 Z-0.1397
X1.2689 Y0.636 Z-0.1428
X1.3305 Y0.5744 Z-0.1458
X1.2689 Y0.636 Z-0.1488
X1.3305 Y0.5744 Z-0.1518
X1.2689 Y0.636 Z-0.1549
X1.3305 Y0.5744 Z-0.1579
X1.2689 Y0.636 Z-0.1609
X1.3305 Y0.5744 Z-0.1639
X1.2689 Y0.636 Z-0.167
X1.3305 Y0.5744 Z-0.17
X1.2689 Y0.636 Z-0.173
X1.3305 Y0.5744 Z-0.176
X1.2689 Y0.636 Z-0.179
X1.3305 Y0.5744 Z-0.1821
X1.2689 Y0.636 Z-0.1851
X1.3305 Y0.5744 Z-0.1881
X1.2689 Y0.636 Z-0.1911
X1.3305 Y0.5744 Z-0.1942
X1.2689 Y0.636 Z-0.1972
X1.3305 Y0.5744 Z-0.2002
X1.2689 Y0.636 Z-0.2032
X1.3305 Y0.5744 Z-0.2063
X1.2689 Y0.636 Z-0.2093
X1.3305 Y0.5744 Z-0.2123
X1.2689 Y0.636 Z-0.2153
X1.3305 Y0.5744 Z-0.2184
X1.2689 Y0.636 Z-0.2214
X1.3305 Y0.5744 Z-0.2244
X1.2689 Y0.636 Z-0.2274
X1.3305 Y0.5744 Z-0.2305
X1.2689 Y0.636 Z-0.2335
X1.3305 Y0.5744 Z-0.2365
X1.2689 Y0.636 Z-0.2395
X1.3305 Y0.5744 Z-0.2426
X1.2689 Y0.636 Z-0.2456
X1.3305 Y0.5744 Z-0.2486
X1.2689 Y0.636 Z-0.2516
X1.3305 Y0.5744 Z-0.2547
X1.2689 Y0.636 Z-0.2577
X1.3305 Y0.5744 Z-0.2607
X1.2689 Y0.636 Z-0.2637
X1.3305 Y0.5744 Z-0.2668
X1.2689 Y0.636 Z-0.2698
X1.3305 Y0.5744 Z-0.2728
X1.2689 Y0.636 Z-0.2758
X1.3305 Y0.5744 Z-0.2789
X1.2689 Y0.636 Z-0.2819
X1.3305 Y0.5744 Z-0.2849
X1.2689 Y0.636 Z-0.2879
X1.3305 Y0.5744 Z-0.291
X1.2689 Y0.636 Z-0.294
X1.3305 Y0.5744 Z-0.297
X1.2689 Y0.636 Z-0.3
X1.3305 Y0.5744 Z-0.303
X1.2689 Y0.636 Z-0.3061
X1.3305 Y0.5744 Z-0.3091
X1.2689 Y0.636 Z-0.3121
X1.3305 Y0.5744 Z-0.3151
X1.2689 Y0.636 Z-0.3182
X1.3305 Y0.5744 Z-0.3212
X1.2689 Y0.636 Z-0.3242
X1.3305 Y0.5744 Z-0.3272
X1.2689 Y0.636 Z-0.3303
X1.3305 Y0.5744 Z-0.3333
X1.2689 Y0.636 Z-0.3363
X1.3305 Y0.5744 Z-0.3393
X1.2689 Y0.636 Z-0.3424
X1.3305 Y0.5744 Z-0.3454
X1.2689 Y0.636 Z-0.3484
X1.3305 Y0.5744 Z-0.3514
X1.2689 Y0.636 Z-0.3545
X1.3305 Y0.5744 Z-0.3575
X1.2689 Y0.636 Z-0.3605
X1.3305 Y0.5744 Z-0.3635
X1.2689 Y0.636 Z-0.3666
X1.3305 Y0.5744 Z-0.3696
X1.2689 Y0.636 Z-0.3726
X1.3305 Y0.5744 Z-0.3756
X1.2689 Y0.636 Z-0.3787
X1.3305 Y0.5744 Z-0.3817
X1.2689 Y0.636 Z-0.3847
X1.3305 Y0.5744 Z-0.3877
X1.2689 Y0.636 Z-0.3908
X1.3305 Y0.5744 Z-0.3938
X1.2689 Y0.636 Z-0.3968
X1.3305 Y0.5744 Z-0.3998
X1.2689 Y0.636 Z-0.4029
X1.3305 Y0.5744 Z-0.4059
X1.2689 Y0.636 Z-0.4089
X1.3305 Y0.5744 Z-0.4119
X1.2689 Y0.636 Z-0.415
X1.3305 Y0.5744 Z-0.418
X1.2689 Y0.636 Z-0.421
X1.3305 Y0.5744 F4.72
Z0.125
X0.4942 Y0.4058
Z0.075
X0.9942 Z0.0579 F3.94
X0.4942 Z0.0408
X0.9942 Z0.0237
X0.4942 Z0.0066
X0.9942 Z-0.0105
X0.4942 Z-0.0276
X0.9942 Z-0.0447
X0.4942 Z-0.0618
X0.9942 Z-0.0789
X0.4942 Z-0.096
X0.9942 Z-0.1131
X0.4942 Z-0.1302
X0.9942 Z-0.1473
X0.4942 Z-0.1644
X0.9942 Z-0.1816
X0.4942 Z-0.1987
X0.9942 Z-0.2158
X0.4942 Z-0.2329
X0.9942 Z-0.25
X0.4942 Z-0.2671
X0.9942 Z-0.2842
X0.4942 Z-0.3013
X0.9942 Z-0.3184
X0.4942 Z-0.3355
X0.9942 Z-0.3526
X0.4942 Z-0.3697
X0.9942 Z-0.3868
X0.4942 Z-0.4039
X0.9942 Z-0.421
X0.4942 F4.72
Z0.125
X0.5042 Y1.1538
Z0.075
Y0.9038 Z0.0663 F3.94
Y1.1538 Z0.0576
Y0.9038 Z0.0489
Y1.1538 Z0.0402
Y0.9038 Z0.0315
Y1.1538 Z0.0228
Y0.9038 Z0.0141
Y1.1538 Z0.0054
Y0.9038 Z-0.0033
Y1.1538 Z-0.012
Y0.9038 Z-0.0207
Y1.1538 Z-0.0294
Y0.9038 Z-0.0381
Y1.1538 Z-0.0468
Y0.9038 Z-0.0555
Y1.1538 Z-0.0642
Y0.9038 Z-0.0729
Y1.1538 Z-0.0816
Y0.9038 Z-0.0903
Y1.1538 Z-0.099
Y0.9038 Z-0.1077
Y1.1538 Z-0.1164
Y0.9038 Z-0.1251
Y1.1538 Z-0.1338
Y0.9038 Z-0.1425
Y1.1538 Z-0.1512
Y0.9038 Z-0.1599
Y1.1538 Z-0.1686
Y0.9038 Z-0.1774
Y1.1538 Z-0.1861
Y0.9038 Z-0.1948
Y1.1538 Z-0.2035
Y0.9038 Z-0.2122
Y1.1538 Z-0.2209
Y0.9038 Z-0.2296
Y1.1538 Z-0.2383
Y0.9038 Z-0.247
Y1.1538 Z-0.2557
Y0.9038 Z-0.2644
Y1.1538 Z-0.2731
Y0.9038 Z-0.2818
Y1.1538 Z-0.2905
Y0.9038 Z-0.2992
Y1.1538 Z-0.3079
Y0.9038 Z-0.3166
Y1.1538 Z-0.3253
Y0.9038 Z-0.334
Y1.1538 Z-0.3427
Y0.9038 Z-0.3514
Y1.1538 Z-0.3601
Y0.9038 Z-0.3688
Y1.1538 Z-0.3775
Y0.9038 Z-0.3862
Y1.1538 Z-0.3949
Y0.9038 Z-0.4036
Y1.1538 Z-0.4123
Y0.9038 Z-0.421
Y1.1538 F4.72
Z0.175
M9
G0 Z0.5
M30
%
