(1001)
(Round 001 - Pocket Clearing 2mm)
(Machine)
(  vendor: SainSmart)
(  model: Genmitsu 3018)
(  description: SainSmart 3018 Original)
(T3  D=0.0787 CR=0 - ZMIN=-0.425 - flat end mill)
G90 G94
G17
G20
(When using Fusion 360 for Personal Use, the feedrate of)
(rapid moves is reduced to match the feedrate of cutting)
(moves, which can increase machining time. Unrestricted rapid)
(moves are available with a Fusion 360 Subscription.)
G28 G91 Z0
G90

(2mm Pocket Finish)
T3
S10000 M3
G54
G0 X0.9689 Y1.7062
Z0.6
G1 Z0.1947 F4.72
Z0.1026
X0.9683 Y1.7054 Z0.0987 F4.33
X0.9665 Y1.7033 Z0.0958
X0.9641 Y1.7004 Z0.0947
G3 X0.9123 Y1.5764 Z0.0899 I0.1859 J-0.1504
X0.9377 Y1.5736 Z0.0885 I0.0127 J-0.0014
G1 X0.9379 Y1.5753
G2 X1.3623 Y1.5736 Z0.0667 I0.2121 J-0.0253
G3 X1.3877 Y1.5764 Z0.0653 I0.0127 J0.0014
X0.9123 Y1.5764 Z0.041 I-0.2377 J-0.0264
X0.9377 Y1.5736 Z0.0396 I0.0127 J-0.0014
G1 X0.9379 Y1.5753 Z0.0395
G2 X1.3623 Y1.5736 Z0.0178 I0.2121 J-0.0253
G3 X1.3877 Y1.5764 Z0.0164 I0.0127 J0.0014
X0.9123 Y1.5764 Z-0.008 I-0.2377 J-0.0264
X0.9377 Y1.5736 Z-0.0094 I0.0127 J-0.0014
G1 X0.9379 Y1.5753 Z-0.0095
G2 X1.3623 Y1.5736 Z-0.0312 I0.2121 J-0.0253
G3 X1.3877 Y1.5764 Z-0.0326 I0.0127 J0.0014
X0.9123 Y1.5764 Z-0.057 I-0.2377 J-0.0264
X0.9377 Y1.5736 Z-0.0584 I0.0127 J-0.0014
G1 X0.9379 Y1.5753
G2 X1.3623 Y1.5736 Z-0.0802 I0.2121 J-0.0253
G3 X1.3877 Y1.5764 Z-0.0816 I0.0127 J0.0014
X0.9123 Y1.5764 Z-0.106 I-0.2377 J-0.0264
X0.9377 Y1.5736 Z-0.1074 I0.0127 J-0.0014
G1 X0.9379 Y1.5753
G2 X1.3623 Y1.5736 Z-0.1291 I0.2121 J-0.0253
G3 X1.3877 Y1.5764 Z-0.1305 I0.0127 J0.0014
X0.9123 Y1.5764 Z-0.1549 I-0.2377 J-0.0264
X0.9377 Y1.5736 Z-0.1563 I0.0127 J-0.0014
G1 X0.9379 Y1.5753 Z-0.1564
G2 X1.3623 Y1.5736 Z-0.1781 I0.2121 J-0.0253
G3 X1.3877 Y1.5764 Z-0.1795 I0.0127 J0.0014
X0.9123 Y1.5764 Z-0.2039 I-0.2377 J-0.0264
X0.9377 Y1.5736 Z-0.2053 I0.0127 J-0.0014
G1 X0.9379 Y1.5753 Z-0.2054
G2 X1.3623 Y1.5736 Z-0.2271 I0.2121 J-0.0253
G3 X1.3877 Y1.5764 Z-0.2285 I0.0127 J0.0014
X0.9123 Y1.5764 Z-0.2529 I-0.2377 J-0.0264
X0.9377 Y1.5736 Z-0.2543 I0.0127 J-0.0014
G1 X0.9379 Y1.5753
G2 X1.3623 Y1.5736 Z-0.2761 I0.2121 J-0.0253
G3 X1.3877 Y1.5764 Z-0.2775 I0.0127 J0.0014
X1.385 Y1.5942 Z-0.2781 I-0.2377 J-0.0264
X0.9123 Y1.5764 Z-0.3018 I-0.235 J-0.0442
X0.9377 Y1.5736 Z-0.3032 I0.0127 J-0.0014
G1 X0.9379 Y1.5753 Z-0.3033
G2 X1.3623 Y1.5736 Z-0.325 I0.2121 J-0.0253
G3 X1.3877 Y1.5764 Z-0.3264 I0.0127 J0.0014
X0.9123 Y1.5764 Z-0.3508 I-0.2377 J-0.0264
X0.9377 Y1.5736 Z-0.3522 I0.0127 J-0.0014
G1 X0.9379 Y1.5753 Z-0.3523
G2 X1.3623 Y1.5736 Z-0.374 I0.2121 J-0.0253
G3 X1.3877 Y1.5764 Z-0.3754 I0.0127 J0.0014
X0.9123 Y1.5764 Z-0.3998 I-0.2377 J-0.0264
X0.9377 Y1.5736 Z-0.4012 I0.0127 J-0.0014
G1 X0.9379 Y1.5753
G2 X1.3623 Y1.5736 Z-0.423 I0.2121 J-0.0253
G3 X1.3877 Y1.5764 Z-0.4244 I0.0127 J0.0014
X1.385 Y1.5942 Z-0.425 I-0.2377 J-0.0264
X0.9123 Y1.5764 I-0.235 J-0.0442 F4.72
X0.9377 Y1.5736 I0.0127 J-0.0014
G1 X0.9379 Y1.5753
G2 X1.3623 Y1.5736 I0.2121 J-0.0253
G3 X1.3877 Y1.5764 I0.0127 J0.0014
X1.385 Y1.5942 I-0.2377 J-0.0264
G1 X1.3849 Y1.5961
X1.3854 Y1.5979
X1.3864 Y1.5994
X1.3877 Y1.6007
X1.3891 Y1.6019
X1.39 Y1.6035
X1.3905 Y1.6054
X1.3903 Y1.6072
G3 X0.9045 Y1.5773 I-0.2403 J-0.0572
X0.9455 Y1.5727 I0.0205 J-0.0023
G1 X0.9456 Y1.5733
G2 X1.3545 Y1.5727 I0.2044 J-0.0233
G3 X1.3955 Y1.5773 I0.0205 J0.0023
X1.3903 Y1.6072 I-0.2455 J-0.0273
G1 X1.3896 Y1.6091 Z-0.4245
X1.3885 Y1.6107 Z-0.4239
X1.3874 Y1.6116 Z-0.4225
X1.3862 Y1.6124 Z-0.4211
X1.3852 Y1.6128 Z-0.4171
Z0.6
X1.2592 Y0.6478
Z0.1947
Z0.1026
X1.2581 Y0.6468 Z0.098 F4.33
X1.2564 Y0.6448 Z0.0956
X1.2555 Y0.6433 Z0.0952
X1.2547 Y0.6417 Z0.0947
G3 X1.2581 Y0.6252 Z0.0941 I0.0142 J-0.0057
G1 X1.3197 Y0.5636 Z0.091
G3 X1.3413 Y0.5852 Z0.0893 I0.0108 J0.0108
G1 X1.2797 Y0.6468 Z0.0863
G3 X1.2581 Y0.6468 Z0.0855 I-0.0108 J-0.0108
X1.2581 Y0.6252 Z0.0846 I0.0108 J-0.0108
G1 X1.3197 Y0.5636 Z0.0816
G3 X1.3413 Y0.5852 Z0.0799 I0.0108 J0.0108
G1 X1.2797 Y0.6468 Z0.0769
G3 X1.2581 Y0.6468 Z0.076 I-0.0108 J-0.0108
X1.2581 Y0.6252 Z0.0752 I0.0108 J-0.0108
G1 X1.3197 Y0.5636 Z0.0722
G3 X1.3413 Y0.5852 Z0.0705 I0.0108 J0.0108
G1 X1.2797 Y0.6468 Z0.0674
G3 X1.2581 Y0.6468 Z0.0666 I-0.0108 J-0.0108
X1.2581 Y0.6252 Z0.0658 I0.0108 J-0.0108
G1 X1.3197 Y0.5636 Z0.0627
G3 X1.3413 Y0.5852 Z0.061 I0.0108 J0.0108
G1 X1.2797 Y0.6468 Z0.058
G3 X1.2581 Y0.6468 Z0.0572 I-0.0108 J-0.0108
X1.2581 Y0.6252 Z0.0563 I0.0108 J-0.0108
G1 X1.3197 Y0.5636 Z0.0533
G3 X1.3413 Y0.5852 Z0.0516 I0.0108 J0.0108
G1 X1.2797 Y0.6468 Z0.0486
G3 X1.2581 Y0.6468 Z0.0477 I-0.0108 J-0.0108
X1.2581 Y0.6252 Z0.0469 I0.0108 J-0.0108
G1 X1.3197 Y0.5636 Z0.0439
G3 X1.3413 Y0.5852 Z0.0422 I0.0108 J0.0108
G1 X1.2797 Y0.6468 Z0.0391
G3 X1.2581 Y0.6468 Z0.0383 I-0.0108 J-0.0108
X1.2581 Y0.6252 Z0.0375 I0.0108 J-0.0108
G1 X1.3197 Y0.5636 Z0.0344
G3 X1.3413 Y0.5852 Z0.0328 I0.0108 J0.0108
G1 X1.2797 Y0.6468 Z0.0297
G3 X1.2581 Y0.6468 Z0.0289 I-0.0108 J-0.0108
X1.2581 Y0.6252 Z0.028 I0.0108 J-0.0108
G1 X1.3197 Y0.5636 Z0.025
G3 X1.3413 Y0.5852 Z0.0233 I0.0108 J0.0108
G1 X1.2797 Y0.6468 Z0.0203
G3 X1.2581 Y0.6468 Z0.0194 I-0.0108 J-0.0108
X1.2581 Y0.6252 Z0.0186 I0.0108 J-0.0108
G1 X1.3197 Y0.5636 Z0.0156
G3 X1.3413 Y0.5852 Z0.0139 I0.0108 J0.0108
G1 X1.2797 Y0.6468 Z0.0108
G3 X1.2581 Y0.6468 Z0.01 I-0.0108 J-0.0108
X1.2581 Y0.6252 Z0.0092 I0.0108 J-0.0108
G1 X1.3197 Y0.5636 Z0.0061
G3 X1.3413 Y0.5852 Z0.0045 I0.0108 J0.0108
G1 X1.2797 Y0.6468 Z0.0014
G3 X1.2581 Y0.6468 Z0.0006 I-0.0108 J-0.0108
X1.2581 Y0.6252 Z-0.0003 I0.0108 J-0.0108
G1 X1.3197 Y0.5636 Z-0.0033
G3 X1.3413 Y0.5852 Z-0.005 I0.0108 J0.0108
G1 X1.2797 Y0.6468 Z-0.008
G3 X1.2581 Y0.6468 Z-0.0089 I-0.0108 J-0.0108
X1.2581 Y0.6252 Z-0.0097 I0.0108 J-0.0108
G1 X1.3197 Y0.5636 Z-0.0127
G3 X1.3413 Y0.5852 Z-0.0144 I0.0108 J0.0108
G1 X1.2797 Y0.6468 Z-0.0175
G3 X1.2581 Y0.6468 Z-0.0183 I-0.0108 J-0.0108
X1.2581 Y0.6252 Z-0.0191 I0.0108 J-0.0108
G1 X1.3197 Y0.5636 Z-0.0222
G3 X1.3413 Y0.5852 Z-0.0238 I0.0108 J0.0108
G1 X1.2797 Y0.6468 Z-0.0269
G3 X1.2581 Y0.6468 Z-0.0277 I-0.0108 J-0.0108
X1.2581 Y0.6252 Z-0.0286 I0.0108 J-0.0108
G1 X1.3197 Y0.5636 Z-0.0316
G3 X1.3413 Y0.5852 Z-0.0333 I0.0108 J0.0108
G1 X1.2797 Y0.6468 Z-0.0363
G3 X1.2581 Y0.6468 Z-0.0372 I-0.0108 J-0.0108
X1.2581 Y0.6252 Z-0.038 I0.0108 J-0.0108
G1 X1.3197 Y0.5636 Z-0.041
G3 X1.3413 Y0.5852 Z-0.0427 I0.0108 J0.0108
G1 X1.2797 Y0.6468 Z-0.0458
G3 X1.2581 Y0.6468 Z-0.0466 I-0.0108 J-0.0108
X1.2581 Y0.6252 Z-0.0474 I0.0108 J-0.0108
G1 X1.3197 Y0.5636 Z-0.0505
G3 X1.3413 Y0.5852 Z-0.0521 I0.0108 J0.0108
G1 X1.2797 Y0.6468 Z-0.0552
G3 X1.2581 Y0.6468 Z-0.056 I-0.0108 J-0.0108
X1.2581 Y0.6252 Z-0.0569 I0.0108 J-0.0108
G1 X1.3197 Y0.5636 Z-0.0599
G3 X1.3413 Y0.5852 Z-0.0616 I0.0108 J0.0108
G1 X1.2797 Y0.6468 Z-0.0646
G3 X1.2581 Y0.6468 Z-0.0655 I-0.0108 J-0.0108
X1.2581 Y0.6252 Z-0.0663 I0.0108 J-0.0108
G1 X1.3197 Y0.5636 Z-0.0693
G3 X1.3413 Y0.5852 Z-0.071 I0.0108 J0.0108
G1 X1.2797 Y0.6468 Z-0.0741
G3 X1.2581 Y0.6468 Z-0.0749 I-0.0108 J-0.0108
X1.2581 Y0.6252 Z-0.0757 I0.0108 J-0.0108
G1 X1.3197 Y0.5636 Z-0.0788
G3 X1.3413 Y0.5852 Z-0.0804 I0.0108 J0.0108
G1 X1.2797 Y0.6468 Z-0.0835
G3 X1.2581 Y0.6468 Z-0.0843 I-0.0108 J-0.0108
X1.2581 Y0.6252 Z-0.0852 I0.0108 J-0.0108
G1 X1.3197 Y0.5636 Z-0.0882
G3 X1.3413 Y0.5852 Z-0.0899 I0.0108 J0.0108
G1 X1.2797 Y0.6468 Z-0.0929
G3 X1.2581 Y0.6468 Z-0.0938 I-0.0108 J-0.0108
X1.2581 Y0.6252 Z-0.0946 I0.0108 J-0.0108
G1 X1.3197 Y0.5636 Z-0.0976
G3 X1.3413 Y0.5852 Z-0.0993 I0.0108 J0.0108
G1 X1.2797 Y0.6468 Z-0.1024
G3 X1.2581 Y0.6468 Z-0.1032 I-0.0108 J-0.0108
X1.2581 Y0.6252 Z-0.104 I0.0108 J-0.0108
G1 X1.3197 Y0.5636 Z-0.1071
G3 X1.3413 Y0.5852 Z-0.1087 I0.0108 J0.0108
G1 X1.2797 Y0.6468 Z-0.1118
G3 X1.2581 Y0.6468 Z-0.1126 I-0.0108 J-0.0108
X1.2581 Y0.6252 Z-0.1135 I0.0108 J-0.0108
G1 X1.3197 Y0.5636 Z-0.1165
G3 X1.3413 Y0.5852 Z-0.1182 I0.0108 J0.0108
G1 X1.2797 Y0.6468 Z-0.1212
G3 X1.2581 Y0.6468 Z-0.1221 I-0.0108 J-0.0108
X1.2581 Y0.6252 Z-0.1229 I0.0108 J-0.0108
G1 X1.3197 Y0.5636 Z-0.1259
G3 X1.3413 Y0.5852 Z-0.1276 I0.0108 J0.0108
G1 X1.2797 Y0.6468 Z-0.1306
G3 X1.2581 Y0.6468 Z-0.1315 I-0.0108 J-0.0108
X1.2581 Y0.6252 Z-0.1323 I0.0108 J-0.0108
G1 X1.3197 Y0.5636 Z-0.1354
G3 X1.3413 Y0.5852 Z-0.137 I0.0108 J0.0108
G1 X1.2797 Y0.6468 Z-0.1401
G3 X1.2581 Y0.6468 Z-0.1409 I-0.0108 J-0.0108
X1.2581 Y0.6252 Z-0.1418 I0.0108 J-0.0108
G1 X1.3197 Y0.5636 Z-0.1448
G3 X1.3413 Y0.5852 Z-0.1465 I0.0108 J0.0108
G1 X1.2797 Y0.6468 Z-0.1495
G3 X1.2581 Y0.6468 Z-0.1504 I-0.0108 J-0.0108
X1.2581 Y0.6252 Z-0.1512 I0.0108 J-0.0108
G1 X1.3197 Y0.5636 Z-0.1542
G3 X1.3413 Y0.5852 Z-0.1559 I0.0108 J0.0108
G1 X1.2797 Y0.6468 Z-0.1589
G3 X1.2581 Y0.6468 Z-0.1598 I-0.0108 J-0.0108
X1.2581 Y0.6252 Z-0.1606 I0.0108 J-0.0108
G1 X1.3197 Y0.5636 Z-0.1637
G3 X1.3413 Y0.5852 Z-0.1653 I0.0108 J0.0108
G1 X1.2797 Y0.6468 Z-0.1684
G3 X1.2581 Y0.6468 Z-0.1692 I-0.0108 J-0.0108
X1.2581 Y0.6252 Z-0.1701 I0.0108 J-0.0108
G1 X1.3197 Y0.5636 Z-0.1731
G3 X1.3413 Y0.5852 Z-0.1748 I0.0108 J0.0108
G1 X1.2797 Y0.6468 Z-0.1778
G3 X1.2581 Y0.6468 Z-0.1787 I-0.0108 J-0.0108
X1.2581 Y0.6252 Z-0.1795 I0.0108 J-0.0108
G1 X1.3197 Y0.5636 Z-0.1825
G3 X1.3413 Y0.5852 Z-0.1842 I0.0108 J0.0108
G1 X1.2797 Y0.6468 Z-0.1872
G3 X1.2581 Y0.6468 Z-0.1881 I-0.0108 J-0.0108
X1.2581 Y0.6252 Z-0.1889 I0.0108 J-0.0108
G1 X1.3197 Y0.5636 Z-0.192
G3 X1.3413 Y0.5852 Z-0.1936 I0.0108 J0.0108
G1 X1.2797 Y0.6468 Z-0.1967
G3 X1.2581 Y0.6468 Z-0.1975 I-0.0108 J-0.0108
X1.2581 Y0.6252 Z-0.1984 I0.0108 J-0.0108
G1 X1.3197 Y0.5636 Z-0.2014
G3 X1.3413 Y0.5852 Z-0.2031 I0.0108 J0.0108
G1 X1.2797 Y0.6468 Z-0.2061
G3 X1.2581 Y0.6468 Z-0.2069 I-0.0108 J-0.0108
X1.2581 Y0.6252 Z-0.2078 I0.0108 J-0.0108
G1 X1.3197 Y0.5636 Z-0.2108
G3 X1.3413 Y0.5852 Z-0.2125 I0.0108 J0.0108
G1 X1.2797 Y0.6468 Z-0.2155
G3 X1.2581 Y0.6468 Z-0.2164 I-0.0108 J-0.0108
X1.2581 Y0.6252 Z-0.2172 I0.0108 J-0.0108
G1 X1.3197 Y0.5636 Z-0.2203
G3 X1.3413 Y0.5852 Z-0.2219 I0.0108 J0.0108
G1 X1.2797 Y0.6468 Z-0.225
G3 X1.2581 Y0.6468 Z-0.2258 I-0.0108 J-0.0108
X1.2581 Y0.6252 Z-0.2267 I0.0108 J-0.0108
G1 X1.3197 Y0.5636 Z-0.2297
G3 X1.3413 Y0.5852 Z-0.2314 I0.0108 J0.0108
G1 X1.2797 Y0.6468 Z-0.2344
G3 X1.2581 Y0.6468 Z-0.2352 I-0.0108 J-0.0108
X1.2581 Y0.6252 Z-0.2361 I0.0108 J-0.0108
G1 X1.3197 Y0.5636 Z-0.2391
G3 X1.3413 Y0.5852 Z-0.2408 I0.0108 J0.0108
G1 X1.2797 Y0.6468 Z-0.2438
G3 X1.2581 Y0.6468 Z-0.2447 I-0.0108 J-0.0108
X1.2581 Y0.6252 Z-0.2455 I0.0108 J-0.0108
G1 X1.3197 Y0.5636 Z-0.2486
G3 X1.3413 Y0.5852 Z-0.2502 I0.0108 J0.0108
G1 X1.2797 Y0.6468 Z-0.2533
G3 X1.2581 Y0.6468 Z-0.2541 I-0.0108 J-0.0108
X1.2581 Y0.6252 Z-0.2549 I0.0108 J-0.0108
G1 X1.3197 Y0.5636 Z-0.258
G3 X1.3413 Y0.5852 Z-0.2597 I0.0108 J0.0108
G1 X1.2797 Y0.6468 Z-0.2627
G3 X1.2581 Y0.6468 Z-0.2635 I-0.0108 J-0.0108
X1.2581 Y0.6252 Z-0.2644 I0.0108 J-0.0108
G1 X1.3197 Y0.5636 Z-0.2674
G3 X1.3413 Y0.5852 Z-0.2691 I0.0108 J0.0108
G1 X1.2797 Y0.6468 Z-0.2721
G3 X1.2581 Y0.6468 Z-0.273 I-0.0108 J-0.0108
X1.2581 Y0.6252 Z-0.2738 I0.0108 J-0.0108
G1 X1.3197 Y0.5636 Z-0.2769
G3 X1.3413 Y0.5852 Z-0.2785 I0.0108 J0.0108
G1 X1.2797 Y0.6468 Z-0.2816
G3 X1.2581 Y0.6468 Z-0.2824 I-0.0108 J-0.0108
X1.2581 Y0.6252 Z-0.2832 I0.0108 J-0.0108
G1 X1.3197 Y0.5636 Z-0.2863
G3 X1.3413 Y0.5852 Z-0.288 I0.0108 J0.0108
G1 X1.2797 Y0.6468 Z-0.291
G3 X1.2581 Y0.6468 Z-0.2918 I-0.0108 J-0.0108
X1.2581 Y0.6252 Z-0.2927 I0.0108 J-0.0108
G1 X1.3197 Y0.5636 Z-0.2957
G3 X1.3413 Y0.5852 Z-0.2974 I0.0108 J0.0108
G1 X1.2797 Y0.6468 Z-0.3004
G3 X1.2581 Y0.6468 Z-0.3013 I-0.0108 J-0.0108
X1.2581 Y0.6252 Z-0.3021 I0.0108 J-0.0108
G1 X1.3197 Y0.5636 Z-0.3052
G3 X1.3413 Y0.5852 Z-0.3068 I0.0108 J0.0108
G1 X1.2797 Y0.6468 Z-0.3099
G3 X1.2581 Y0.6468 Z-0.3107 I-0.0108 J-0.0108
X1.2581 Y0.6252 Z-0.3115 I0.0108 J-0.0108
G1 X1.3197 Y0.5636 Z-0.3146
G3 X1.3413 Y0.5852 Z-0.3163 I0.0108 J0.0108
G1 X1.2797 Y0.6468 Z-0.3193
G3 X1.2581 Y0.6468 Z-0.3201 I-0.0108 J-0.0108
X1.2581 Y0.6252 Z-0.321 I0.0108 J-0.0108
G1 X1.3197 Y0.5636 Z-0.324
G3 X1.3413 Y0.5852 Z-0.3257 I0.0108 J0.0108
G1 X1.2797 Y0.6468 Z-0.3287
G3 X1.2581 Y0.6468 Z-0.3296 I-0.0108 J-0.0108
X1.2581 Y0.6252 Z-0.3304 I0.0108 J-0.0108
G1 X1.3197 Y0.5636 Z-0.3335
G3 X1.3413 Y0.5852 Z-0.3351 I0.0108 J0.0108
G1 X1.2797 Y0.6468 Z-0.3382
G3 X1.2581 Y0.6468 Z-0.339 I-0.0108 J-0.0108
X1.2581 Y0.6252 Z-0.3398 I0.0108 J-0.0108
G1 X1.3197 Y0.5636 Z-0.3429
G3 X1.3413 Y0.5852 Z-0.3446 I0.0108 J0.0108
G1 X1.2797 Y0.6468 Z-0.3476
G3 X1.2581 Y0.6468 Z-0.3484 I-0.0108 J-0.0108
X1.2581 Y0.6252 Z-0.3493 I0.0108 J-0.0108
G1 X1.3197 Y0.5636 Z-0.3523
G3 X1.3413 Y0.5852 Z-0.354 I0.0108 J0.0108
G1 X1.2797 Y0.6468 Z-0.357
G3 X1.2581 Y0.6468 Z-0.3579 I-0.0108 J-0.0108
X1.2581 Y0.6252 Z-0.3587 I0.0108 J-0.0108
G1 X1.3197 Y0.5636 Z-0.3618
G3 X1.3413 Y0.5852 Z-0.3634 I0.0108 J0.0108
G1 X1.2797 Y0.6468 Z-0.3665
G3 X1.2581 Y0.6468 Z-0.3673 I-0.0108 J-0.0108
X1.2581 Y0.6252 Z-0.3681 I0.0108 J-0.0108
G1 X1.3197 Y0.5636 Z-0.3712
G3 X1.3413 Y0.5852 Z-0.3729 I0.0108 J0.0108
G1 X1.2797 Y0.6468 Z-0.3759
G3 X1.2581 Y0.6468 Z-0.3767 I-0.0108 J-0.0108
X1.2581 Y0.6252 Z-0.3776 I0.0108 J-0.0108
G1 X1.3197 Y0.5636 Z-0.3806
G3 X1.3413 Y0.5852 Z-0.3823 I0.0108 J0.0108
G1 X1.2797 Y0.6468 Z-0.3853
G3 X1.2581 Y0.6468 Z-0.3862 I-0.0108 J-0.0108
X1.2581 Y0.6252 Z-0.387 I0.0108 J-0.0108
G1 X1.3197 Y0.5636 Z-0.3901
G3 X1.3413 Y0.5852 Z-0.3917 I0.0108 J0.0108
G1 X1.2797 Y0.6468 Z-0.3948
G3 X1.2581 Y0.6468 Z-0.3956 I-0.0108 J-0.0108
X1.2581 Y0.6252 Z-0.3964 I0.0108 J-0.0108
G1 X1.3197 Y0.5636 Z-0.3995
G3 X1.3413 Y0.5852 Z-0.4012 I0.0108 J0.0108
G1 X1.2797 Y0.6468 Z-0.4042
G3 X1.2581 Y0.6468 Z-0.405 I-0.0108 J-0.0108
X1.2581 Y0.6252 Z-0.4059 I0.0108 J-0.0108
G1 X1.3197 Y0.5636 Z-0.4089
G3 X1.3413 Y0.5852 Z-0.4106 I0.0108 J0.0108
G1 X1.2797 Y0.6468 Z-0.4136
G3 X1.2581 Y0.6468 Z-0.4145 I-0.0108 J-0.0108
X1.2581 Y0.6252 Z-0.4153 I0.0108 J-0.0108
G1 X1.3197 Y0.5636 Z-0.4183
G3 X1.3413 Y0.5852 Z-0.42 I0.0108 J0.0108
G1 X1.2797 Y0.6468 Z-0.4231
G3 X1.2581 Y0.6468 Z-0.4239 I-0.0108 J-0.0108
X1.2581 Y0.6252 Z-0.4247 I0.0108 J-0.0108
G1 X1.2634 Y0.6199 Z-0.425
X1.3197 Y0.5636 F4.72
G3 X1.3413 Y0.5852 I0.0108 J0.0108
G1 X1.2797 Y0.6468
G3 X1.2581 Y0.6468 I-0.0108 J-0.0108
X1.2581 Y0.6252 I0.0108 J-0.0108
G1 X1.2634 Y0.6199
X1.2645 Y0.6184
X1.2652 Y0.6167
X1.2653 Y0.6148
X1.2648 Y0.613
X1.2643 Y0.6112
X1.2644 Y0.6093
X1.2651 Y0.6075
X1.2662 Y0.606
X1.3142 Y0.5581
G3 X1.3469 Y0.5908 I0.0164 J0.0164
G1 X1.2853 Y0.6524
G3 X1.2525 Y0.6524 I-0.0164 J-0.0164
X1.2525 Y0.6197 I0.0164 J-0.0164
G1 X1.2662 Y0.606
X1.2677 Y0.6048 Z-0.4245
X1.2695 Y0.604 Z-0.4239
X1.271 Y0.6038 Z-0.4225
X1.2724 Y0.6037 Z-0.4211
X1.2734 Y0.6039 Z-0.4171
Z0.6
X0.5014 Y1.0422
Z0.1947
Z0.1026
G19 G2 Y1.0346 Z0.0947 J-0.0079 K0 F4.33
G1 Y0.9038 Z0.0901
X0.5017 Y0.9026
X0.5025 Y0.9016 Z0.09
X0.5036 Y0.9011
X0.5048 Z0.0899
X0.5059 Y0.9016
X0.5067 Y0.9026
X0.507 Y0.9038 Z0.0898
Y1.1538 Z0.0811
X0.5067 Y1.155 Z0.081
X0.5059 Y1.1559
X0.5048 Y1.1565
X0.5036 Z0.0809
X0.5025 Y1.1559
X0.5017 Y1.155 Z0.0808
X0.5014 Y1.1538
Y0.9038 Z0.0721
X0.5017 Y0.9026 Z0.072
X0.5025 Y0.9016
X0.5036 Y0.9011 Z0.0719
X0.5048
X0.5059 Y0.9016 Z0.0718
X0.5067 Y0.9026
X0.507 Y0.9038 Z0.0717
Y1.1538 Z0.063
X0.5067 Y1.155
X0.5059 Y1.1559 Z0.0629
X0.5048 Y1.1565
X0.5036 Z0.0628
X0.5025 Y1.1559
X0.5017 Y1.155
X0.5014 Y1.1538 Z0.0627
Y0.9038 Z0.054
X0.5017 Y0.9026 Z0.0539
X0.5025 Y0.9016
X0.5036 Y0.9011
X0.5048 Z0.0538
X0.5059 Y0.9016
X0.5067 Y0.9026 Z0.0537
X0.507 Y0.9038
Y1.1538 Z0.045
X0.5067 Y1.155 Z0.0449
X0.5059 Y1.1559
X0.5048 Y1.1565 Z0.0448
X0.5036
X0.5025 Y1.1559 Z0.0447
X0.5017 Y1.155
X0.5014 Y1.1538
Y0.9038 Z0.0359
X0.5017 Y0.9026
X0.5025 Y0.9016 Z0.0358
X0.5036 Y0.9011
X0.5048 Z0.0357
X0.5059 Y0.9016
X0.5067 Y0.9026
X0.507 Y0.9038 Z0.0356
Y1.1538 Z0.0269
X0.5067 Y1.155 Z0.0268
X0.5059 Y1.1559
X0.5048 Y1.1565
X0.5036 Z0.0267
X0.5025 Y1.1559
X0.5017 Y1.155 Z0.0266
X0.5014 Y1.1538
Y0.9038 Z0.0179
X0.5017 Y0.9026 Z0.0178
X0.5025 Y0.9016
X0.5036 Y0.9011 Z0.0177
X0.5048
X0.5059 Y0.9016 Z0.0176
X0.5067 Y0.9026
X0.507 Y0.9038
Y1.1538 Z0.0088
X0.5067 Y1.155
X0.5059 Y1.1559 Z0.0087
X0.5048 Y1.1565
X0.5036
X0.5025 Y1.1559 Z0.0086
X0.5017 Y1.155
X0.5014 Y1.1538 Z0.0085
Y0.9038 Z-0.0002
X0.5017 Y0.9026 Z-0.0003
X0.5025 Y0.9016
X0.5036 Y0.9011
X0.5048 Z-0.0004
X0.5059 Y0.9016
X0.5067 Y0.9026 Z-0.0005
X0.507 Y0.9038
Y1.1538 Z-0.0092
X0.5067 Y1.155 Z-0.0093
X0.5059 Y1.1559
X0.5048 Y1.1565 Z-0.0094
X0.5036
X0.5025 Y1.1559 Z-0.0095
X0.5017 Y1.155
X0.5014 Y1.1538
Y0.9038 Z-0.0183
X0.5017 Y0.9026
X0.5025 Y0.9016 Z-0.0184
X0.5036 Y0.9011
X0.5048
X0.5059 Y0.9016 Z-0.0185
X0.5067 Y0.9026
X0.507 Y0.9038 Z-0.0186
Y1.1538 Z-0.0273
X0.5067 Y1.155 Z-0.0274
X0.5059 Y1.1559
X0.5048 Y1.1565
X0.5036 Z-0.0275
X0.5025 Y1.1559
X0.5017 Y1.155 Z-0.0276
X0.5014 Y1.1538
Y0.9038 Z-0.0363
X0.5017 Y0.9026 Z-0.0364
X0.5025 Y0.9016
X0.5036 Y0.9011 Z-0.0365
X0.5048
X0.5059 Y0.9016 Z-0.0366
X0.5067 Y0.9026
X0.507 Y0.9038
Y1.1538 Z-0.0454
X0.5067 Y1.155
X0.5059 Y1.1559 Z-0.0455
X0.5048 Y1.1565
X0.5036
X0.5025 Y1.1559 Z-0.0456
X0.5017 Y1.155
X0.5014 Y1.1538 Z-0.0457
Y0.9038 Z-0.0544
X0.5017 Y0.9026
X0.5025 Y0.9016 Z-0.0545
X0.5036 Y0.9011
X0.5048 Z-0.0546
X0.5059 Y0.9016
X0.5067 Y0.9026 Z-0.0547
X0.507 Y0.9038
Y1.1538 Z-0.0634
X0.5067 Y1.155 Z-0.0635
X0.5059 Y1.1559
X0.5048 Y1.1565 Z-0.0636
X0.5036
X0.5025 Y1.1559 Z-0.0637
X0.5017 Y1.155
X0.5014 Y1.1538
Y0.9038 Z-0.0725
X0.5017 Y0.9026
X0.5025 Y0.9016 Z-0.0726
X0.5036 Y0.9011
X0.5048
X0.5059 Y0.9016 Z-0.0727
X0.5067 Y0.9026
X0.507 Y0.9038 Z-0.0728
Y1.1538 Z-0.0815
X0.5067 Y1.155
X0.5059 Y1.1559 Z-0.0816
X0.5048 Y1.1565
X0.5036 Z-0.0817
X0.5025 Y1.1559
X0.5017 Y1.155 Z-0.0818
X0.5014 Y1.1538
Y0.9038 Z-0.0905
X0.5017 Y0.9026 Z-0.0906
X0.5025 Y0.9016
X0.5036 Y0.9011 Z-0.0907
X0.5048
X0.5059 Y0.9016 Z-0.0908
X0.5067 Y0.9026
X0.507 Y0.9038
Y1.1538 Z-0.0996
X0.5067 Y1.155
X0.5059 Y1.1559 Z-0.0997
X0.5048 Y1.1565
X0.5036
X0.5025 Y1.1559 Z-0.0998
X0.5017 Y1.155
X0.5014 Y1.1538 Z-0.0999
Y0.9038 Z-0.1086
X0.5017 Y0.9026
X0.5025 Y0.9016 Z-0.1087
X0.5036 Y0.9011
X0.5048 Z-0.1088
X0.5059 Y0.9016
X0.5067 Y0.9026 Z-0.1089
X0.507 Y0.9038
Y1.1538 Z-0.1176
X0.5067 Y1.155 Z-0.1177
X0.5059 Y1.1559
X0.5048 Y1.1565 Z-0.1178
X0.5036
X0.5025 Y1.1559
X0.5017 Y1.155 Z-0.1179
X0.5014 Y1.1538
Y0.9038 Z-0.1267
X0.5017 Y0.9026
X0.5025 Y0.9016 Z-0.1268
X0.5036 Y0.9011
X0.5048
X0.5059 Y0.9016 Z-0.1269
X0.5067 Y0.9026
X0.507 Y0.9038 Z-0.127
Y1.1538 Z-0.1357
X0.5067 Y1.155
X0.5059 Y1.1559 Z-0.1358
X0.5048 Y1.1565
X0.5036 Z-0.1359
X0.5025 Y1.1559
X0.5017 Y1.155 Z-0.136
X0.5014 Y1.1538
Y0.9038 Z-0.1447
X0.5017 Y0.9026 Z-0.1448
X0.5025 Y0.9016
X0.5036 Y0.9011 Z-0.1449
X0.5048
X0.5059 Y0.9016
X0.5067 Y0.9026 Z-0.145
X0.507 Y0.9038
Y1.1538 Z-0.1538
X0.5067 Y1.155
X0.5059 Y1.1559
X0.5048 Y1.1565 Z-0.1539
X0.5036
X0.5025 Y1.1559 Z-0.154
X0.5017 Y1.155
X0.5014 Y1.1538 Z-0.1541
Y0.9038 Z-0.1628
X0.5017 Y0.9026
X0.5025 Y0.9016 Z-0.1629
X0.5036 Y0.9011
X0.5048 Z-0.163
X0.5059 Y0.9016
X0.5067 Y0.9026 Z-0.1631
X0.507 Y0.9038
Y1.1538 Z-0.1718
X0.5067 Y1.155 Z-0.1719
X0.5059 Y1.1559
X0.5048 Y1.1565 Z-0.172
X0.5036
X0.5025 Y1.1559
X0.5017 Y1.155 Z-0.1721
X0.5014 Y1.1538
Y0.9038 Z-0.1809
X0.5017 Y0.9026
X0.5025 Y0.9016
X0.5036 Y0.9011 Z-0.181
X0.5048
X0.5059 Y0.9016 Z-0.1811
X0.5067 Y0.9026
X0.507 Y0.9038 Z-0.1812
Y1.1538 Z-0.1899
X0.5067 Y1.155
X0.5059 Y1.1559 Z-0.19
X0.5048 Y1.1565
X0.5036 Z-0.1901
X0.5025 Y1.1559
X0.5017 Y1.155 Z-0.1902
X0.5014 Y1.1538
Y0.9038 Z-0.1989
X0.5017 Y0.9026 Z-0.199
X0.5025 Y0.9016
X0.5036 Y0.9011 Z-0.1991
X0.5048
X0.5059 Y0.9016
X0.5067 Y0.9026 Z-0.1992
X0.507 Y0.9038
Y1.1538 Z-0.208
X0.5067 Y1.155
X0.5059 Y1.1559
X0.5048 Y1.1565 Z-0.2081
X0.5036
X0.5025 Y1.1559 Z-0.2082
X0.5017 Y1.155
X0.5014 Y1.1538 Z-0.2083
Y0.9038 Z-0.217
X0.5017 Y0.9026
X0.5025 Y0.9016 Z-0.2171
X0.5036 Y0.9011
X0.5048 Z-0.2172
X0.5059 Y0.9016
X0.5067 Y0.9026
X0.507 Y0.9038 Z-0.2173
Y1.1538 Z-0.226
X0.5067 Y1.155 Z-0.2261
X0.5059 Y1.1559
X0.5048 Y1.1565 Z-0.2262
X0.5036
X0.5025 Y1.1559
X0.5017 Y1.155 Z-0.2263
X0.5014 Y1.1538
Y0.9038 Z-0.2351
X0.5017 Y0.9026
X0.5025 Y0.9016
X0.5036 Y0.9011 Z-0.2352
X0.5048
X0.5059 Y0.9016 Z-0.2353
X0.5067 Y0.9026
X0.507 Y0.9038 Z-0.2354
Y1.1538 Z-0.2441
X0.5067 Y1.155
X0.5059 Y1.1559 Z-0.2442
X0.5048 Y1.1565
X0.5036 Z-0.2443
X0.5025 Y1.1559
X0.5017 Y1.155
X0.5014 Y1.1538 Z-0.2444
Y0.9038 Z-0.2531
X0.5017 Y0.9026 Z-0.2532
X0.5025 Y0.9016
X0.5036 Y0.9011 Z-0.2533
X0.5048
X0.5059 Y0.9016
X0.5067 Y0.9026 Z-0.2534
X0.507 Y0.9038
Y1.1538 Z-0.2622
X0.5067 Y1.155
X0.5059 Y1.1559
X0.5048 Y1.1565 Z-0.2623
X0.5036
X0.5025 Y1.1559 Z-0.2624
X0.5017 Y1.155
X0.5014 Y1.1538 Z-0.2625
Y0.9038 Z-0.2712
X0.5017 Y0.9026
X0.5025 Y0.9016 Z-0.2713
X0.5036 Y0.9011
X0.5048 Z-0.2714
X0.5059 Y0.9016
X0.5067 Y0.9026
X0.507 Y0.9038 Z-0.2715
Y1.1538 Z-0.2802
X0.5067 Y1.155 Z-0.2803
X0.5059 Y1.1559
X0.5048 Y1.1565
X0.5036 Z-0.2804
X0.5025 Y1.1559
X0.5017 Y1.155 Z-0.2805
X0.5014 Y1.1538
Y0.9038 Z-0.2893
X0.5017 Y0.9026
X0.5025 Y0.9016
X0.5036 Y0.9011 Z-0.2894
X0.5048
X0.5059 Y0.9016 Z-0.2895
X0.5067 Y0.9026
X0.507 Y0.9038 Z-0.2896
Y1.1538 Z-0.2983
X0.5067 Y1.155
X0.5059 Y1.1559 Z-0.2984
X0.5048 Y1.1565
X0.5036 Z-0.2985
X0.5025 Y1.1559
X0.5017 Y1.155
X0.5014 Y1.1538 Z-0.2986
Y0.9038 Z-0.3073
X0.5017 Y0.9026 Z-0.3074
X0.5025 Y0.9016
X0.5036 Y0.9011
X0.5048 Z-0.3075
X0.5059 Y0.9016
X0.5067 Y0.9026 Z-0.3076
X0.507 Y0.9038
Y1.1538 Z-0.3163
X0.5067 Y1.155 Z-0.3164
X0.5059 Y1.1559
X0.5048 Y1.1565 Z-0.3165
X0.5036
X0.5025 Y1.1559 Z-0.3166
X0.5017 Y1.155
X0.5014 Y1.1538 Z-0.3167
Y0.9038 Z-0.3254
X0.5017 Y0.9026
X0.5025 Y0.9016 Z-0.3255
X0.5036 Y0.9011
X0.5048 Z-0.3256
X0.5059 Y0.9016
X0.5067 Y0.9026
X0.507 Y0.9038 Z-0.3257
Y1.1538 Z-0.3344
X0.5067 Y1.155 Z-0.3345
X0.5059 Y1.1559
X0.5048 Y1.1565
X0.5036 Z-0.3346
X0.5025 Y1.1559
X0.5017 Y1.155 Z-0.3347
X0.5014 Y1.1538
Y0.9038 Z-0.3434
X0.5017 Y0.9026 Z-0.3435
X0.5025 Y0.9016
X0.5036 Y0.9011 Z-0.3436
X0.5048
X0.5059 Y0.9016 Z-0.3437
X0.5067 Y0.9026
X0.507 Y0.9038
Y1.1538 Z-0.3525
X0.5067 Y1.155
X0.5059 Y1.1559 Z-0.3526
X0.5048 Y1.1565
X0.5036 Z-0.3527
X0.5025 Y1.1559
X0.5017 Y1.155
X0.5014 Y1.1538 Z-0.3528
Y0.9038 Z-0.3615
X0.5017 Y0.9026 Z-0.3616
X0.5025 Y0.9016
X0.5036 Y0.9011
X0.5048 Z-0.3617
X0.5059 Y0.9016
X0.5067 Y0.9026 Z-0.3618
X0.507 Y0.9038
Y1.1538 Z-0.3705
X0.5067 Y1.155 Z-0.3706
X0.5059 Y1.1559
X0.5048 Y1.1565 Z-0.3707
X0.5036
X0.5025 Y1.1559 Z-0.3708
X0.5017 Y1.155
X0.5014 Y1.1538
Y0.9038 Z-0.3796
X0.5017 Y0.9026
X0.5025 Y0.9016 Z-0.3797
X0.5036 Y0.9011
X0.5048
X0.5059 Y0.9016 Z-0.3798
X0.5067 Y0.9026
X0.507 Y0.9038 Z-0.3799
Y1.1538 Z-0.3886
X0.5067 Y1.155 Z-0.3887
X0.5059 Y1.1559
X0.5048 Y1.1565
X0.5036 Z-0.3888
X0.5025 Y1.1559
X0.5017 Y1.155 Z-0.3889
X0.5014 Y1.1538
Y0.9038 Z-0.3976
X0.5017 Y0.9026 Z-0.3977
X0.5025 Y0.9016
X0.5036 Y0.9011 Z-0.3978
X0.5048
X0.5059 Y0.9016 Z-0.3979
X0.5067 Y0.9026
X0.507 Y0.9038
Y1.1538 Z-0.4067
X0.5067 Y1.155
X0.5059 Y1.1559 Z-0.4068
X0.5048 Y1.1565
X0.5036
X0.5025 Y1.1559 Z-0.4069
X0.5017 Y1.155
X0.5014 Y1.1538 Z-0.407
Y0.9038 Z-0.4157
X0.5017 Y0.9026
X0.5025 Y0.9016 Z-0.4158
X0.5036 Y0.9011
X0.5048 Z-0.4159
X0.5059 Y0.9016
X0.5067 Y0.9026 Z-0.416
X0.507 Y0.9038
Y1.1538 Z-0.4247
X0.5067 Y1.155 Z-0.4248
X0.5059 Y1.1559
X0.5048 Y1.1565 Z-0.4249
X0.5035 Y1.1564
X0.5024 Y1.1559 Z-0.425
X0.5017 Y1.1549
X0.5014 Y1.1538 F4.72
Y0.9038
X0.5017 Y0.9026
X0.5025 Y0.9016
X0.5036 Y0.9011
X0.5048
X0.5059 Y0.9016
X0.5067 Y0.9026
X0.507 Y0.9038
Y1.1538
X0.5067 Y1.155
X0.5059 Y1.1559
X0.5048 Y1.1565
X0.5035 Y1.1564
X0.5024 Y1.1559
X0.5017 Y1.1549
X0.5006 Y1.1532
X0.499 Y1.1519
X0.4972 Y1.1511
X0.4957 Y1.1505
X0.4946 Y1.1494
X0.4938 Y1.1481
X0.4936 Y1.1465
Y0.9038
G17 G3 X0.5148 Y0.9038 I0.0106 J0
G1 Y1.1538
G3 X0.4936 Y1.1538 I-0.0106 J0
G1 Y1.1465
X0.4938 Y1.1446 Z-0.4245
X0.4945 Y1.1427 Z-0.4239
X0.4953 Y1.1415 Z-0.4225
X0.4963 Y1.1405 Z-0.4211
X0.4972 Y1.1399 Z-0.4171
Z0.6
X2.2232 Y0.3747
Z0.1947
Z0.1026
X2.2241 Y0.3759 Z0.0979 F4.33
X2.2256 Y0.3781 Z0.0956
X2.2273 Y0.381 Z0.0947
G3 X2.161 Y0.4157 Z0.0906 I-0.0331 J0.0173
X2.2273 Y0.381 Z0.0865 I0.0331 J-0.0173
X2.161 Y0.4157 Z0.0824 I-0.0331 J0.0173
X2.2273 Y0.381 Z0.0783 I0.0331 J-0.0173
X2.161 Y0.4157 Z0.0742 I-0.0331 J0.0173
X2.2273 Y0.381 Z0.0701 I0.0331 J-0.0173
X2.161 Y0.4157 Z0.066 I-0.0331 J0.0173
X2.2273 Y0.381 Z0.0619 I0.0331 J-0.0173
X2.161 Y0.4157 Z0.0578 I-0.0331 J0.0173
X2.2273 Y0.381 Z0.0537 I0.0331 J-0.0173
X2.161 Y0.4157 Z0.0495 I-0.0331 J0.0173
X2.2273 Y0.381 Z0.0454 I0.0331 J-0.0173
X2.161 Y0.4157 Z0.0413 I-0.0331 J0.0173
X2.2273 Y0.381 Z0.0372 I0.0331 J-0.0173
X2.161 Y0.4157 Z0.0331 I-0.0331 J0.0173
X2.2273 Y0.381 Z0.029 I0.0331 J-0.0173
X2.161 Y0.4157 Z0.0249 I-0.0331 J0.0173
X2.2273 Y0.381 Z0.0208 I0.0331 J-0.0173
X2.161 Y0.4157 Z0.0167 I-0.0331 J0.0173
X2.2273 Y0.381 Z0.0126 I0.0331 J-0.0173
X2.161 Y0.4157 Z0.0085 I-0.0331 J0.0173
X2.2273 Y0.381 Z0.0044 I0.0331 J-0.0173
X2.161 Y0.4157 Z0.0003 I-0.0331 J0.0173
X2.2273 Y0.381 Z-0.0038 I0.0331 J-0.0173
X2.161 Y0.4157 Z-0.0079 I-0.0331 J0.0173
X2.2273 Y0.381 Z-0.012 I0.0331 J-0.0173
X2.161 Y0.4157 Z-0.0161 I-0.0331 J0.0173
X2.2273 Y0.381 Z-0.0202 I0.0331 J-0.0173
X2.161 Y0.4157 Z-0.0243 I-0.0331 J0.0173
X2.2273 Y0.381 Z-0.0284 I0.0331 J-0.0173
X2.161 Y0.4157 Z-0.0325 I-0.0331 J0.0173
X2.2273 Y0.381 Z-0.0366 I0.0331 J-0.0173
X2.161 Y0.4157 Z-0.0407 I-0.0331 J0.0173
X2.2273 Y0.381 Z-0.0448 I0.0331 J-0.0173
X2.161 Y0.4157 Z-0.0489 I-0.0331 J0.0173
X2.2273 Y0.381 Z-0.053 I0.0331 J-0.0173
X2.161 Y0.4157 Z-0.0571 I-0.0331 J0.0173
X2.2273 Y0.381 Z-0.0612 I0.0331 J-0.0173
X2.161 Y0.4157 Z-0.0653 I-0.0331 J0.0173
X2.2273 Y0.381 Z-0.0694 I0.0331 J-0.0173
X2.161 Y0.4157 Z-0.0735 I-0.0331 J0.0173
X2.2273 Y0.381 Z-0.0776 I0.0331 J-0.0173
X2.161 Y0.4157 Z-0.0818 I-0.0331 J0.0173
X2.2273 Y0.381 Z-0.0859 I0.0331 J-0.0173
X2.161 Y0.4157 Z-0.09 I-0.0331 J0.0173
X2.2273 Y0.381 Z-0.0941 I0.0331 J-0.0173
X2.161 Y0.4157 Z-0.0982 I-0.0331 J0.0173
X2.2273 Y0.381 Z-0.1023 I0.0331 J-0.0173
X2.161 Y0.4157 Z-0.1064 I-0.0331 J0.0173
X2.2273 Y0.381 Z-0.1105 I0.0331 J-0.0173
X2.161 Y0.4157 Z-0.1146 I-0.0331 J0.0173
X2.2273 Y0.381 Z-0.1187 I0.0331 J-0.0173
X2.161 Y0.4157 Z-0.1228 I-0.0331 J0.0173
X2.2273 Y0.381 Z-0.1269 I0.0331 J-0.0173
X2.161 Y0.4157 Z-0.131 I-0.0331 J0.0173
X2.2273 Y0.381 Z-0.1351 I0.0331 J-0.0173
X2.161 Y0.4157 Z-0.1392 I-0.0331 J0.0173
X2.2273 Y0.381 Z-0.1433 I0.0331 J-0.0173
X2.161 Y0.4157 Z-0.1474 I-0.0331 J0.0173
X2.2273 Y0.381 Z-0.1515 I0.0331 J-0.0173
X2.161 Y0.4157 Z-0.1556 I-0.0331 J0.0173
X2.2273 Y0.381 Z-0.1597 I0.0331 J-0.0173
X2.161 Y0.4157 Z-0.1638 I-0.0331 J0.0173
X2.2273 Y0.381 Z-0.1679 I0.0331 J-0.0173
X2.161 Y0.4157 Z-0.172 I-0.0331 J0.0173
X2.2273 Y0.381 Z-0.1761 I0.0331 J-0.0173
X2.161 Y0.4157 Z-0.1802 I-0.0331 J0.0173
X2.2273 Y0.381 Z-0.1843 I0.0331 J-0.0173
X2.161 Y0.4157 Z-0.1884 I-0.0331 J0.0173
X2.2273 Y0.381 Z-0.1925 I0.0331 J-0.0173
X2.161 Y0.4157 Z-0.1966 I-0.0331 J0.0173
X2.2273 Y0.381 Z-0.2007 I0.0331 J-0.0173
X2.161 Y0.4157 Z-0.2048 I-0.0331 J0.0173
X2.2273 Y0.381 Z-0.209 I0.0331 J-0.0173
X2.161 Y0.4157 Z-0.2131 I-0.0331 J0.0173
X2.2273 Y0.381 Z-0.2172 I0.0331 J-0.0173
X2.161 Y0.4157 Z-0.2213 I-0.0331 J0.0173
X2.2273 Y0.381 Z-0.2254 I0.0331 J-0.0173
X2.161 Y0.4157 Z-0.2295 I-0.0331 J0.0173
X2.2273 Y0.381 Z-0.2336 I0.0331 J-0.0173
X2.161 Y0.4157 Z-0.2377 I-0.0331 J0.0173
X2.2273 Y0.381 Z-0.2418 I0.0331 J-0.0173
X2.161 Y0.4157 Z-0.2459 I-0.0331 J0.0173
X2.2273 Y0.381 Z-0.25 I0.0331 J-0.0173
X2.161 Y0.4157 Z-0.2541 I-0.0331 J0.0173
X2.2273 Y0.381 Z-0.2582 I0.0331 J-0.0173
X2.161 Y0.4157 Z-0.2623 I-0.0331 J0.0173
X2.2273 Y0.381 Z-0.2664 I0.0331 J-0.0173
X2.161 Y0.4157 Z-0.2705 I-0.0331 J0.0173
X2.2273 Y0.381 Z-0.2746 I0.0331 J-0.0173
X2.161 Y0.4157 Z-0.2787 I-0.0331 J0.0173
X2.2273 Y0.381 Z-0.2828 I0.0331 J-0.0173
X2.161 Y0.4157 Z-0.2869 I-0.0331 J0.0173
X2.2273 Y0.381 Z-0.291 I0.0331 J-0.0173
X2.161 Y0.4157 Z-0.2951 I-0.0331 J0.0173
X2.2273 Y0.381 Z-0.2992 I0.0331 J-0.0173
X2.161 Y0.4157 Z-0.3033 I-0.0331 J0.0173
X2.2273 Y0.381 Z-0.3074 I0.0331 J-0.0173
X2.161 Y0.4157 Z-0.3115 I-0.0331 J0.0173
X2.2273 Y0.381 Z-0.3156 I0.0331 J-0.0173
X2.161 Y0.4157 Z-0.3197 I-0.0331 J0.0173
X2.2273 Y0.381 Z-0.3238 I0.0331 J-0.0173
X2.161 Y0.4157 Z-0.3279 I-0.0331 J0.0173
X2.2273 Y0.381 Z-0.332 I0.0331 J-0.0173
X2.161 Y0.4157 Z-0.3362 I-0.0331 J0.0173
X2.2273 Y0.381 Z-0.3403 I0.0331 J-0.0173
X2.161 Y0.4157 Z-0.3444 I-0.0331 J0.0173
X2.2273 Y0.381 Z-0.3485 I0.0331 J-0.0173
X2.161 Y0.4157 Z-0.3526 I-0.0331 J0.0173
X2.2273 Y0.381 Z-0.3567 I0.0331 J-0.0173
X2.161 Y0.4157 Z-0.3608 I-0.0331 J0.0173
X2.2273 Y0.381 Z-0.3649 I0.0331 J-0.0173
X2.161 Y0.4157 Z-0.369 I-0.0331 J0.0173
X2.2273 Y0.381 Z-0.3731 I0.0331 J-0.0173
X2.161 Y0.4157 Z-0.3772 I-0.0331 J0.0173
X2.2273 Y0.381 Z-0.3813 I0.0331 J-0.0173
X2.161 Y0.4157 Z-0.3854 I-0.0331 J0.0173
X2.2273 Y0.381 Z-0.3895 I0.0331 J-0.0173
X2.161 Y0.4157 Z-0.3936 I-0.0331 J0.0173
X2.2273 Y0.381 Z-0.3977 I0.0331 J-0.0173
X2.161 Y0.4157 Z-0.4018 I-0.0331 J0.0173
X2.2273 Y0.381 Z-0.4059 I0.0331 J-0.0173
X2.161 Y0.4157 Z-0.41 I-0.0331 J0.0173
X2.2273 Y0.381 Z-0.4141 I0.0331 J-0.0173
X2.161 Y0.4157 Z-0.4182 I-0.0331 J0.0173
X2.2273 Y0.381 Z-0.4223 I0.0331 J-0.0173
X2.1942 Y0.4358 Z-0.425 I-0.0331 J0.0173
G1 X1.6942 F4.72
G3 X1.6942 Y0.3759 I0 J-0.03
G1 X2.1942
G3 X2.1942 Y0.4358 I0 J0.03
G2 X2.1396 Y0.4722 I0 J0.0592
G3 X2.085 Y0.5086 I-0.0546 J-0.0228
G1 X1.6942
G3 X1.6942 Y0.3031 I0 J-0.1028
G1 X2.1942
G3 X2.1942 Y0.5086 I0 J0.1028
G1 X2.085
X2.0831 Y0.5088
X2.0814 Y0.5096
X2.08 Y0.5109
X2.0791 Y0.5125
X2.0781 Y0.5141
X2.0767 Y0.5154
X2.075 Y0.5162
X2.0732 Y0.5164
X1.6942
G3 X1.6942 Y0.2952 I0 J-0.1106
G1 X2.1942
G3 X2.1942 Y0.5164 I0 J0.1106
G1 X2.0732
X2.0712 Y0.5162 Z-0.4245
X2.0694 Y0.5155 Z-0.4239
X2.0682 Y0.5147 Z-0.4225
X2.0672 Y0.5137 Z-0.4211
X2.0666 Y0.5128 Z-0.4171
Z0.2
X2.5829 Y1.3437
Z0.1947
Z0.1026
X2.5824 Y1.3446 Z0.0987 F4.33
X2.5811 Y1.347 Z0.0958
X2.5793 Y1.3504 Z0.0947
G3 X2.1662 Y1.6635 Z0.076 I-0.5539 J-0.3018
X2.148 Y1.652 Z0.0752 I-0.0034 J-0.0149
X2.1594 Y1.6337 Z0.0744 I0.0149 J-0.0034
G1 X2.1613 Y1.6333 Z0.0743
G2 X2.5495 Y0.756 Z0.0355 I-0.136 J-0.5847
G3 X2.5554 Y0.7353 Z0.0346 I0.0133 J-0.0074
X2.5761 Y0.7412 Z0.0338 I0.0074 J0.0133
X2.1662 Y1.6635 Z-0.007 I-0.5508 J0.3074
X2.148 Y1.652 Z-0.0079 I-0.0034 J-0.0149
X2.1594 Y1.6337 Z-0.0087 I0.0149 J-0.0034
G1 X2.1613 Y1.6333 Z-0.0088
G2 X2.5495 Y0.756 Z-0.0476 I-0.136 J-0.5847
G3 X2.5554 Y0.7353 Z-0.0484 I0.0133 J-0.0074
X2.5761 Y0.7412 Z-0.0493 I0.0074 J0.0133
X2.1662 Y1.6635 Z-0.0901 I-0.5508 J0.3074
X2.148 Y1.652 Z-0.091 I-0.0034 J-0.0149
X2.1594 Y1.6337 Z-0.0918 I0.0149 J-0.0034
G1 X2.1613 Y1.6333 Z-0.0919
G2 X2.5495 Y0.756 Z-0.1307 I-0.136 J-0.5847
G3 X2.5554 Y0.7353 Z-0.1315 I0.0133 J-0.0074
X2.5761 Y0.7412 Z-0.1323 I0.0074 J0.0133
X2.1662 Y1.6635 Z-0.1732 I-0.5508 J0.3074
X2.148 Y1.652 Z-0.174 I-0.0034 J-0.0149
X2.1594 Y1.6337 Z-0.1749 I0.0149 J-0.0034
G1 X2.1613 Y1.6333
G2 X2.5495 Y0.756 Z-0.2138 I-0.136 J-0.5847
G3 X2.5554 Y0.7353 Z-0.2146 I0.0133 J-0.0074
X2.5761 Y0.7412 Z-0.2154 I0.0074 J0.0133
X2.1662 Y1.6635 Z-0.2563 I-0.5508 J0.3074
X2.148 Y1.652 Z-0.2571 I-0.0034 J-0.0149
X2.1594 Y1.6337 Z-0.258 I0.0149 J-0.0034
G1 X2.1613 Y1.6333
G2 X2.5495 Y0.756 Z-0.2968 I-0.136 J-0.5847
G3 X2.5554 Y0.7353 Z-0.2977 I0.0133 J-0.0074
X2.5761 Y0.7412 Z-0.2985 I0.0074 J0.0133
X2.1662 Y1.6635 Z-0.3394 I-0.5508 J0.3074
X2.148 Y1.652 Z-0.3402 I-0.0034 J-0.0149
X2.1594 Y1.6337 Z-0.341 I0.0149 J-0.0034
G1 X2.1613 Y1.6333 Z-0.3411
G2 X2.1841 Y1.6275 Z-0.3419 I-0.136 J-0.5847
X2.5495 Y0.756 Z-0.3799 I-0.1588 J-0.5789
G3 X2.5554 Y0.7353 Z-0.3807 I0.0133 J-0.0074
X2.5761 Y0.7412 Z-0.3816 I0.0074 J0.0133
X2.1662 Y1.6635 Z-0.4224 I-0.5508 J0.3074
X2.148 Y1.652 Z-0.4233 I-0.0034 J-0.0149
X2.1594 Y1.6337 Z-0.4241 I0.0149 J-0.0034
G1 X2.1613 Y1.6333 Z-0.4242
G2 X2.1841 Y1.6275 Z-0.425 I-0.136 J-0.5847
X2.5495 Y0.756 I-0.1588 J-0.5789 F4.72
G3 X2.5554 Y0.7353 I0.0133 J-0.0074
X2.5761 Y0.7412 I0.0074 J0.0133
X2.1662 Y1.6635 I-0.5508 J0.3074
X2.148 Y1.652 I-0.0034 J-0.0149
X2.1594 Y1.6337 I0.0149 J-0.0034
G1 X2.1613 Y1.6333
G2 X2.1841 Y1.6275 I-0.136 J-0.5847
G1 X2.1858 Y1.6268
X2.1872 Y1.6255
X2.1883 Y1.6239
X2.1888 Y1.6221
X2.1893 Y1.6203
X2.1902 Y1.6187
X2.1917 Y1.6175
X2.1934 Y1.6167
G2 X2.5426 Y0.7599 I-0.168 J-0.5681
G3 X2.5516 Y0.7284 I0.0202 J-0.0113
X2.583 Y0.7373 I0.0113 J0.0202
X2.168 Y1.6711 I-0.5577 J0.3113
X2.1403 Y1.6538 I-0.0052 J-0.0225
X2.1577 Y1.6261 I0.0225 J-0.0052
G2 X2.1934 Y1.6167 I-0.1323 J-0.5775
G1 X2.1953 Y1.6164 Z-0.4245
X2.1973 Y1.6165 Z-0.4239
X2.1986 Y1.617 Z-0.4225
X2.1999 Y1.6177 Z-0.4211
X2.2007 Y1.6183 Z-0.4171
Z0.2
X1.0232 Y0.3602
Z0.1947
Z0.1026
X1.0241 Y0.3614 Z0.0979 F4.33
X1.0256 Y0.3636 Z0.0956
X1.0273 Y0.3665 Z0.0947
G3 X0.961 Y0.4011 Z0.0906 I-0.0331 J0.0173
X1.0273 Y0.3665 Z0.0865 I0.0331 J-0.0173
X0.961 Y0.4011 Z0.0824 I-0.0331 J0.0173
X1.0273 Y0.3665 Z0.0783 I0.0331 J-0.0173
X0.961 Y0.4011 Z0.0742 I-0.0331 J0.0173
X1.0273 Y0.3665 Z0.0701 I0.0331 J-0.0173
X0.961 Y0.4011 Z0.066 I-0.0331 J0.0173
X1.0273 Y0.3665 Z0.0619 I0.0331 J-0.0173
X0.961 Y0.4011 Z0.0578 I-0.0331 J0.0173
X1.0273 Y0.3665 Z0.0537 I0.0331 J-0.0173
X0.961 Y0.4011 Z0.0495 I-0.0331 J0.0173
X1.0273 Y0.3665 Z0.0454 I0.0331 J-0.0173
X0.961 Y0.4011 Z0.0413 I-0.0331 J0.0173
X1.0273 Y0.3665 Z0.0372 I0.0331 J-0.0173
X0.961 Y0.4011 Z0.0331 I-0.0331 J0.0173
X1.0273 Y0.3665 Z0.029 I0.0331 J-0.0173
X0.961 Y0.4011 Z0.0249 I-0.0331 J0.0173
X1.0273 Y0.3665 Z0.0208 I0.0331 J-0.0173
X0.961 Y0.4011 Z0.0167 I-0.0331 J0.0173
X1.0273 Y0.3665 Z0.0126 I0.0331 J-0.0173
X0.961 Y0.4011 Z0.0085 I-0.0331 J0.0173
X1.0273 Y0.3665 Z0.0044 I0.0331 J-0.0173
X0.961 Y0.4011 Z0.0003 I-0.0331 J0.0173
X1.0273 Y0.3665 Z-0.0038 I0.0331 J-0.0173
X0.961 Y0.4011 Z-0.0079 I-0.0331 J0.0173
X1.0273 Y0.3665 Z-0.012 I0.0331 J-0.0173
X0.961 Y0.4011 Z-0.0161 I-0.0331 J0.0173
X1.0273 Y0.3665 Z-0.0202 I0.0331 J-0.0173
X0.961 Y0.4011 Z-0.0243 I-0.0331 J0.0173
X1.0273 Y0.3665 Z-0.0284 I0.0331 J-0.0173
X0.961 Y0.4011 Z-0.0325 I-0.0331 J0.0173
X1.0273 Y0.3665 Z-0.0366 I0.0331 J-0.0173
X0.961 Y0.4011 Z-0.0407 I-0.0331 J0.0173
X1.0273 Y0.3665 Z-0.0448 I0.0331 J-0.0173
X0.961 Y0.4011 Z-0.0489 I-0.0331 J0.0173
X1.0273 Y0.3665 Z-0.053 I0.0331 J-0.0173
X0.961 Y0.4011 Z-0.0571 I-0.0331 J0.0173
X1.0273 Y0.3665 Z-0.0612 I0.0331 J-0.0173
X0.961 Y0.4011 Z-0.0653 I-0.0331 J0.0173
X1.0273 Y0.3665 Z-0.0694 I0.0331 J-0.0173
X0.961 Y0.4011 Z-0.0735 I-0.0331 J0.0173
X1.0273 Y0.3665 Z-0.0776 I0.0331 J-0.0173
X0.961 Y0.4011 Z-0.0818 I-0.0331 J0.0173
X1.0273 Y0.3665 Z-0.0859 I0.0331 J-0.0173
X0.961 Y0.4011 Z-0.09 I-0.0331 J0.0173
X1.0273 Y0.3665 Z-0.0941 I0.0331 J-0.0173
X0.961 Y0.4011 Z-0.0982 I-0.0331 J0.0173
X1.0273 Y0.3665 Z-0.1023 I0.0331 J-0.0173
X0.961 Y0.4011 Z-0.1064 I-0.0331 J0.0173
X1.0273 Y0.3665 Z-0.1105 I0.0331 J-0.0173
X0.961 Y0.4011 Z-0.1146 I-0.0331 J0.0173
X1.0273 Y0.3665 Z-0.1187 I0.0331 J-0.0173
X0.961 Y0.4011 Z-0.1228 I-0.0331 J0.0173
X1.0273 Y0.3665 Z-0.1269 I0.0331 J-0.0173
X0.961 Y0.4011 Z-0.131 I-0.0331 J0.0173
X1.0273 Y0.3665 Z-0.1351 I0.0331 J-0.0173
X0.961 Y0.4011 Z-0.1392 I-0.0331 J0.0173
X1.0273 Y0.3665 Z-0.1433 I0.0331 J-0.0173
X0.961 Y0.4011 Z-0.1474 I-0.0331 J0.0173
X1.0273 Y0.3665 Z-0.1515 I0.0331 J-0.0173
X0.961 Y0.4011 Z-0.1556 I-0.0331 J0.0173
X1.0273 Y0.3665 Z-0.1597 I0.0331 J-0.0173
X0.961 Y0.4011 Z-0.1638 I-0.0331 J0.0173
X1.0273 Y0.3665 Z-0.1679 I0.0331 J-0.0173
X0.961 Y0.4011 Z-0.172 I-0.0331 J0.0173
X1.0273 Y0.3665 Z-0.1761 I0.0331 J-0.0173
X0.961 Y0.4011 Z-0.1802 I-0.0331 J0.0173
X1.0273 Y0.3665 Z-0.1843 I0.0331 J-0.0173
X0.961 Y0.4011 Z-0.1884 I-0.0331 J0.0173
X1.0273 Y0.3665 Z-0.1925 I0.0331 J-0.0173
X0.961 Y0.4011 Z-0.1966 I-0.0331 J0.0173
X1.0273 Y0.3665 Z-0.2007 I0.0331 J-0.0173
X0.961 Y0.4011 Z-0.2048 I-0.0331 J0.0173
X1.0273 Y0.3665 Z-0.209 I0.0331 J-0.0173
X0.961 Y0.4011 Z-0.2131 I-0.0331 J0.0173
X1.0273 Y0.3665 Z-0.2172 I0.0331 J-0.0173
X0.961 Y0.4011 Z-0.2213 I-0.0331 J0.0173
X1.0273 Y0.3665 Z-0.2254 I0.0331 J-0.0173
X0.961 Y0.4011 Z-0.2295 I-0.0331 J0.0173
X1.0273 Y0.3665 Z-0.2336 I0.0331 J-0.0173
X0.961 Y0.4011 Z-0.2377 I-0.0331 J0.0173
X1.0273 Y0.3665 Z-0.2418 I0.0331 J-0.0173
X0.961 Y0.4011 Z-0.2459 I-0.0331 J0.0173
X1.0273 Y0.3665 Z-0.25 I0.0331 J-0.0173
X0.961 Y0.4011 Z-0.2541 I-0.0331 J0.0173
X1.0273 Y0.3665 Z-0.2582 I0.0331 J-0.0173
X0.961 Y0.4011 Z-0.2623 I-0.0331 J0.0173
X1.0273 Y0.3665 Z-0.2664 I0.0331 J-0.0173
X0.961 Y0.4011 Z-0.2705 I-0.0331 J0.0173
X1.0273 Y0.3665 Z-0.2746 I0.0331 J-0.0173
X0.961 Y0.4011 Z-0.2787 I-0.0331 J0.0173
X1.0273 Y0.3665 Z-0.2828 I0.0331 J-0.0173
X0.961 Y0.4011 Z-0.2869 I-0.0331 J0.0173
X1.0273 Y0.3665 Z-0.291 I0.0331 J-0.0173
X0.961 Y0.4011 Z-0.2951 I-0.0331 J0.0173
X1.0273 Y0.3665 Z-0.2992 I0.0331 J-0.0173
X0.961 Y0.4011 Z-0.3033 I-0.0331 J0.0173
X1.0273 Y0.3665 Z-0.3074 I0.0331 J-0.0173
X0.961 Y0.4011 Z-0.3115 I-0.0331 J0.0173
X1.0273 Y0.3665 Z-0.3156 I0.0331 J-0.0173
X0.961 Y0.4011 Z-0.3197 I-0.0331 J0.0173
X1.0273 Y0.3665 Z-0.3238 I0.0331 J-0.0173
X0.961 Y0.4011 Z-0.3279 I-0.0331 J0.0173
X1.0273 Y0.3665 Z-0.332 I0.0331 J-0.0173
X0.961 Y0.4011 Z-0.3362 I-0.0331 J0.0173
X1.0273 Y0.3665 Z-0.3403 I0.0331 J-0.0173
X0.961 Y0.4011 Z-0.3444 I-0.0331 J0.0173
X1.0273 Y0.3665 Z-0.3485 I0.0331 J-0.0173
X0.961 Y0.4011 Z-0.3526 I-0.0331 J0.0173
X1.0273 Y0.3665 Z-0.3567 I0.0331 J-0.0173
X0.961 Y0.4011 Z-0.3608 I-0.0331 J0.0173
X1.0273 Y0.3665 Z-0.3649 I0.0331 J-0.0173
X0.961 Y0.4011 Z-0.369 I-0.0331 J0.0173
X1.0273 Y0.3665 Z-0.3731 I0.0331 J-0.0173
X0.961 Y0.4011 Z-0.3772 I-0.0331 J0.0173
X1.0273 Y0.3665 Z-0.3813 I0.0331 J-0.0173
X0.961 Y0.4011 Z-0.3854 I-0.0331 J0.0173
X1.0273 Y0.3665 Z-0.3895 I0.0331 J-0.0173
X0.961 Y0.4011 Z-0.3936 I-0.0331 J0.0173
X1.0273 Y0.3665 Z-0.3977 I0.0331 J-0.0173
X0.961 Y0.4011 Z-0.4018 I-0.0331 J0.0173
X1.0273 Y0.3665 Z-0.4059 I0.0331 J-0.0173
X0.961 Y0.4011 Z-0.41 I-0.0331 J0.0173
X1.0273 Y0.3665 Z-0.4141 I0.0331 J-0.0173
X0.961 Y0.4011 Z-0.4182 I-0.0331 J0.0173
X1.0273 Y0.3665 Z-0.4223 I0.0331 J-0.0173
X0.9942 Y0.4212 Z-0.425 I-0.0331 J0.0173
G1 X0.4942 F4.72
G3 X0.4942 Y0.3904 I0 J-0.0154
G1 X0.9942
G3 X0.9942 Y0.4212 I0 J0.0154
G2 X0.9662 Y0.4399 I0 J0.0303
G3 X0.9382 Y0.4586 I-0.028 J-0.0117
G1 X0.4942
G3 X0.4942 Y0.3531 I0 J-0.0528
G1 X0.9942
G3 X0.9942 Y0.4586 I0 J0.0528
G1 X0.9382
X0.9363 Y0.4588
X0.9346 Y0.4596
X0.9332 Y0.4609
X0.9323 Y0.4625
X0.9313 Y0.4641
X0.9299 Y0.4654
X0.9282 Y0.4662
X0.9264 Y0.4664
X0.4942
G3 X0.4942 Y0.3452 I0 J-0.0606
G1 X0.9942
G3 X0.9942 Y0.4664 I0 J0.0606
G1 X0.9264
X0.9244 Y0.4662 Z-0.4245
X0.9226 Y0.4655 Z-0.4239
X0.9214 Y0.4647 Z-0.4225
X0.9204 Y0.4637 Z-0.4211
X0.9197 Y0.4628 Z-0.4171
Z0.6
G28 G91 Z0
G90
G28 G91 X0 Y0
G90
M5
M30
