(1001)
(Round 001 - Slot Clearing)
(Machine)
(  vendor: SainSmart)
(  model: Genmitsu 3018)
(  description: SainSmart 3018 Original)
(T2  D=0.1181 CR=0 - ZMIN=-0.425 - flat end mill)
G90 G94
G17
G20
(When using Fusion 360 for Personal Use, the feedrate of)
(rapid moves is reduced to match the feedrate of cutting)
(moves, which can increase machining time. Unrestricted rapid)
(moves are available with a Fusion 360 Subscription.)
G28 G91 Z0
G90

(3mm Slot Clear)
T2
S10000 M3
G54
G0 X2.1628 Y1.6486
Z0.6
G1 Z0.2 F4.72
Z0.1
G2 X2.5628 Y0.7486 Z0.0688 I-0.1375 J-0.6 F3.94
G3 X2.1628 Y1.6486 Z0.0375 I-0.5375 J0.3
G2 X2.5628 Y0.7486 Z0.0062 I-0.1375 J-0.6
G3 X2.1628 Y1.6486 Z-0.025 I-0.5375 J0.3
G2 X2.5628 Y0.7486 I-0.1375 J-0.6 F4.72
G1 Z0.2
X1.3305 Y0.5744
Z0.1
X1.2689 Y0.636 Z0.097 F3.94
X1.3305 Y0.5744 Z0.094
X1.2689 Y0.636 Z0.0911
X1.3305 Y0.5744 Z0.0881
X1.2689 Y0.636 Z0.0851
X1.3305 Y0.5744 Z0.0821
X1.2689 Y0.636 Z0.0792
X1.3305 Y0.5744 Z0.0762
X1.2689 Y0.636 Z0.0732
X1.3305 Y0.5744 Z0.0702
X1.2689 Y0.636 Z0.0673
X1.3305 Y0.5744 Z0.0643
X1.2689 Y0.636 Z0.0613
X1.3305 Y0.5744 Z0.0583
X1.2689 Y0.636 Z0.0554
X1.3305 Y0.5744 Z0.0524
X1.2689 Y0.636 Z0.0494
X1.3305 Y0.5744 Z0.0464
X1.2689 Y0.636 Z0.0435
X1.3305 Y0.5744 Z0.0405
X1.2689 Y0.636 Z0.0375
X1.3305 Y0.5744 Z0.0345
X1.2689 Y0.636 Z0.0315
X1.3305 Y0.5744 Z0.0286
X1.2689 Y0.636 Z0.0256
X1.3305 Y0.5744 Z0.0226
X1.2689 Y0.636 Z0.0196
X1.3305 Y0.5744 Z0.0167
X1.2689 Y0.636 Z0.0137
X1.3305 Y0.5744 Z0.0107
X1.2689 Y0.636 Z0.0077
X1.3305 Y0.5744 Z0.0048
X1.2689 Y0.636 Z0.0018
X1.3305 Y0.5744 Z-0.0012
X1.2689 Y0.636 Z-0.0042
X1.3305 Y0.5744 Z-0.0071
X1.2689 Y0.636 Z-0.0101
X1.3305 Y0.5744 Z-0.0131
X1.2689 Y0.636 Z-0.0161
X1.3305 Y0.5744 Z-0.019
X1.2689 Y0.636 Z-0.022
X1.3305 Y0.5744 Z-0.025
X1.2689 Y0.636 F4.72
Z0.2
X0.9942 Y0.4058
Z0.1
X0.4942 Z0.0844 F3.94
X0.9942 Z0.0688
X0.4942 Z0.0531
X0.9942 Z0.0375
X0.4942 Z0.0219
X0.9942 Z0.0062
X0.4942 Z-0.0094
X0.9942 Z-0.025
X0.4942 F4.72
Z0.6
X1.2689 Y0.636
Z0.2
Z0.1
X1.3305 Y0.5744 Z0.097 F3.94
X1.2689 Y0.636 Z0.094
X1.3305 Y0.5744 Z0.091
X1.2689 Y0.636 Z0.088
X1.3305 Y0.5744 Z0.085
X1.2689 Y0.636 Z0.082
X1.3305 Y0.5744 Z0.079
X1.2689 Y0.636 Z0.076
X1.3305 Y0.5744 Z0.073
X1.2689 Y0.636 Z0.07
X1.3305 Y0.5744 Z0.067
X1.2689 Y0.636 Z0.064
X1.3305 Y0.5744 Z0.061
X1.2689 Y0.636 Z0.058
X1.3305 Y0.5744 Z0.055
X1.2689 Y0.636 Z0.052
X1.3305 Y0.5744 Z0.049
X1.2689 Y0.636 Z0.046
X1.3305 Y0.5744 Z0.043
X1.2689 Y0.636 Z0.04
X1.3305 Y0.5744 Z0.037
X1.2689 Y0.636 Z0.034
X1.3305 Y0.5744 Z0.031
X1.2689 Y0.636 Z0.028
X1.3305 Y0.5744 Z0.025
X1.2689 Y0.636 Z0.022
X1.3305 Y0.5744 Z0.019
X1.2689 Y0.636 Z0.016
X1.3305 Y0.5744 Z0.013
X1.2689 Y0.636 Z0.01
X1.3305 Y0.5744 Z0.007
X1.2689 Y0.636 Z0.004
X1.3305 Y0.5744 Z0.001
X1.2689 Y0.636 Z-0.002
X1.3305 Y0.5744 Z-0.005
X1.2689 Y0.636 Z-0.008
X1.3305 Y0.5744 Z-0.011
X1.2689 Y0.636 Z-0.014
X1.3305 Y0.5744 Z-0.017
X1.2689 Y0.636 Z-0.02
X1.3305 Y0.5744 Z-0.023
X1.2689 Y0.636 Z-0.026
X1.3305 Y0.5744 Z-0.029
X1.2689 Y0.636 Z-0.032
X1.3305 Y0.5744 Z-0.035
X1.2689 Y0.636 Z-0.038
X1.3305 Y0.5744 Z-0.041
X1.2689 Y0.636 Z-0.044
X1.3305 Y0.5744 Z-0.047
X1.2689 Y0.636 Z-0.05
X1.3305 Y0.5744 F4.72
Z0.6
X1.2689 Y0.636
Z0.2
Z0.1
X1.3305 Y0.5744 Z0.097 F3.94
X1.2689 Y0.636 Z0.094
X1.3305 Y0.5744 Z0.0909
X1.2689 Y0.636 Z0.0879
X1.3305 Y0.5744 Z0.0849
X1.2689 Y0.636 Z0.0819
X1.3305 Y0.5744 Z0.0788
X1.2689 Y0.636 Z0.0758
X1.3305 Y0.5744 Z0.0728
X1.2689 Y0.636 Z0.0698
X1.3305 Y0.5744 Z0.0667
X1.2689 Y0.636 Z0.0637
X1.3305 Y0.5744 Z0.0607
X1.2689 Y0.636 Z0.0577
X1.3305 Y0.5744 Z0.0546
X1.2689 Y0.636 Z0.0516
X1.3305 Y0.5744 Z0.0486
X1.2689 Y0.636 Z0.0456
X1.3305 Y0.5744 Z0.0425
X1.2689 Y0.636 Z0.0395
X1.3305 Y0.5744 Z0.0365
X1.2689 Y0.636 Z0.0335
X1.3305 Y0.5744 Z0.0304
X1.2689 Y0.636 Z0.0274
X1.3305 Y0.5744 Z0.0244
X1.2689 Y0.636 Z0.0214
X1.3305 Y0.5744 Z0.0183
X1.2689 Y0.636 Z0.0153
X1.3305 Y0.5744 Z0.0123
X1.2689 Y0.636 Z0.0093
X1.3305 Y0.5744 Z0.0062
X1.2689 Y0.636 Z0.0032
X1.3305 Y0.5744 Z0.0002
X1.2689 Y0.636 Z-0.0028
X1.3305 Y0.5744 Z-0.0058
X1.2689 Y0.636 Z-0.0089
X1.3305 Y0.5744 Z-0.0119
X1.2689 Y0.636 Z-0.0149
X1.3305 Y0.5744 Z-0.0179
X1.2689 Y0.636 Z-0.021
X1.3305 Y0.5744 Z-0.024
X1.2689 Y0.636 Z-0.027
X1.3305 Y0.5744 Z-0.03
X1.2689 Y0.636 Z-0.0331
X1.3305 Y0.5744 Z-0.0361
X1.2689 Y0.636 Z-0.0391
X1.3305 Y0.5744 Z-0.0421
X1.2689 Y0.636 Z-0.0452
X1.3305 Y0.5744 Z-0.0482
X1.2689 Y0.636 Z-0.0512
X1.3305 Y0.5744 Z-0.0542
X1.2689 Y0.636 Z-0.0573
X1.3305 Y0.5744 Z-0.0603
X1.2689 Y0.636 Z-0.0633
X1.3305 Y0.5744 Z-0.0663
X1.2689 Y0.636 Z-0.0694
X1.3305 Y0.5744 Z-0.0724
X1.2689 Y0.636 Z-0.0754
X1.3305 Y0.5744 Z-0.0784
X1.2689 Y0.636 Z-0.0815
X1.3305 Y0.5744 Z-0.0845
X1.2689 Y0.636 Z-0.0875
X1.3305 Y0.5744 Z-0.0905
X1.2689 Y0.636 Z-0.0935
X1.3305 Y0.5744 Z-0.0966
X1.2689 Y0.636 Z-0.0996
X1.3305 Y0.5744 Z-0.1026
X1.2689 Y0.636 Z-0.1056
X1.3305 Y0.5744 Z-0.1087
X1.2689 Y0.636 Z-0.1117
X1.3305 Y0.5744 Z-0.1147
X1.2689 Y0.636 Z-0.1177
X1.3305 Y0.5744 Z-0.1208
X1.2689 Y0.636 Z-0.1238
X1.3305 Y0.5744 Z-0.1268
X1.2689 Y0.636 Z-0.1298
X1.3305 Y0.5744 Z-0.1329
X1.2689 Y0.636 Z-0.1359
X1.3305 Y0.5744 Z-0.1389
X1.2689 Y0.636 Z-0.1419
X1.3305 Y0.5744 Z-0.145
X1.2689 Y0.636 Z-0.148
X1.3305 Y0.5744 Z-0.151
X1.2689 Y0.636 Z-0.154
X1.3305 Y0.5744 Z-0.1571
X1.2689 Y0.636 Z-0.1601
X1.3305 Y0.5744 Z-0.1631
X1.2689 Y0.636 Z-0.1661
X1.3305 Y0.5744 Z-0.1692
X1.2689 Y0.636 Z-0.1722
X1.3305 Y0.5744 Z-0.1752
X1.2689 Y0.636 Z-0.1782
X1.3305 Y0.5744 Z-0.1813
X1.2689 Y0.636 Z-0.1843
X1.3305 Y0.5744 Z-0.1873
X1.2689 Y0.636 Z-0.1903
X1.3305 Y0.5744 Z-0.1933
X1.2689 Y0.636 Z-0.1964
X1.3305 Y0.5744 Z-0.1994
X1.2689 Y0.636 Z-0.2024
X1.3305 Y0.5744 Z-0.2054
X1.2689 Y0.636 Z-0.2085
X1.3305 Y0.5744 Z-0.2115
X1.2689 Y0.636 Z-0.2145
X1.3305 Y0.5744 Z-0.2175
X1.2689 Y0.636 Z-0.2206
X1.3305 Y0.5744 Z-0.2236
X1.2689 Y0.636 Z-0.2266
X1.3305 Y0.5744 Z-0.2296
X1.2689 Y0.636 Z-0.2327
X1.3305 Y0.5744 Z-0.2357
X1.2689 Y0.636 Z-0.2387
X1.3305 Y0.5744 Z-0.2417
X1.2689 Y0.636 Z-0.2448
X1.3305 Y0.5744 Z-0.2478
X1.2689 Y0.636 Z-0.2508
X1.3305 Y0.5744 Z-0.2538
X1.2689 Y0.636 Z-0.2569
X1.3305 Y0.5744 Z-0.2599
X1.2689 Y0.636 Z-0.2629
X1.3305 Y0.5744 Z-0.2659
X1.2689 Y0.636 Z-0.269
X1.3305 Y0.5744 Z-0.272
X1.2689 Y0.636 Z-0.275
X1.3305 Y0.5744 F4.72
Z0.6
X2.1628 Y1.6486
Z0.2
Z0.1
G2 X2.5628 Y0.7486 Z0.0604 I-0.1375 J-0.6 F3.94
G3 X2.1628 Y1.6486 Z0.0208 I-0.5375 J0.3
G2 X2.5628 Y0.7486 Z-0.0187 I-0.1375 J-0.6
G3 X2.1628 Y1.6486 Z-0.0583 I-0.5375 J0.3
G2 X2.5628 Y0.7486 Z-0.0979 I-0.1375 J-0.6
G3 X2.1628 Y1.6486 Z-0.1375 I-0.5375 J0.3
G2 X2.5628 Y0.7486 Z-0.1771 I-0.1375 J-0.6
G3 X2.1628 Y1.6486 Z-0.2167 I-0.5375 J0.3
G2 X2.5628 Y0.7486 Z-0.2562 I-0.1375 J-0.6
G3 X2.1628 Y1.6486 Z-0.2958 I-0.5375 J0.3
G2 X2.5628 Y0.7486 Z-0.3354 I-0.1375 J-0.6
G3 X2.1628 Y1.6486 Z-0.375 I-0.5375 J0.3
G2 X2.5628 Y0.7486 I-0.1375 J-0.6 F4.72
G1 Z0.6
X0.4942 Y0.4058
Z0.2
Z0.1
X0.9942 Z0.0831 F3.94
X0.4942 Z0.0661
X0.9942 Z0.0492
X0.4942 Z0.0323
X0.9942 Z0.0153
X0.4942 Z-0.0016
X0.9942 Z-0.0185
X0.4942 Z-0.0355
X0.9942 Z-0.0524
X0.4942 Z-0.0694
X0.9942 Z-0.0863
X0.4942 Z-0.1032
X0.9942 Z-0.1202
X0.4942 Z-0.1371
X0.9942 Z-0.154
X0.4942 Z-0.171
X0.9942 Z-0.1879
X0.4942 Z-0.2048
X0.9942 Z-0.2218
X0.4942 Z-0.2387
X0.9942 Z-0.2556
X0.4942 Z-0.2726
X0.9942 Z-0.2895
X0.4942 Z-0.3065
X0.9942 Z-0.3234
X0.4942 Z-0.3403
X0.9942 Z-0.3573
X0.4942 Z-0.3742
X0.9942 Z-0.3911
X0.4942 Z-0.4081
X0.9942 Z-0.425
X0.4942 F4.72
Z0.6
G28 G91 Z0
G90
G28 G91 X0 Y0
G90
M5
M30
