(1001)
(Round 001 - Engraving Carver)
(Machine)
(  vendor: SainSmart)
(  model: Genmitsu 3018)
(  description: SainSmart 3018 Original)
(T1  D=0.0689 CR=0 TAPER=20deg - ZMIN=-0.125 - chamfer mill)
G90 G94
G17
G20
(When using Fusion 360 for Personal Use, the feedrate of)
(rapid moves is reduced to match the feedrate of cutting)
(moves, which can increase machining time. Unrestricted rapid)
(moves are available with a Fusion 360 Subscription.)
G28 G91 Z0
G90

(Engrave Derp)
T1
S10000 M3
G54
G0 X0.9367 Y2.0472
Z0.6
G1 Z0.1947 F4.33
Z-0.0053
X0.9541 Y2.0582 Z-0.053
X0.9711 Y2.0698 Z-0.0992
X0.9739 Y2.0719 Z-0.107
X0.9646 Y2.0861 Z-0.081
X0.9629 Y2.0887 Z-0.0764
X0.9534 Y2.1047 Z-0.0499
X0.9438 Y2.1225 Z-0.0231
X0.9375 Y2.1356 Z-0.0054
X0.9438 Y2.1225 Z-0.0231
X0.9534 Y2.1047 Z-0.0499
X0.9629 Y2.0887 Z-0.0764
X0.9646 Y2.0861 Z-0.081
X0.9739 Y2.0719 Z-0.107
X0.9755 Y2.0713 Z-0.1067
X0.9787 Y2.0702 Z-0.1064
X0.9833 Y2.0688 Z-0.1062
X0.996 Y2.0653 Z-0.1048
X0.9969 Y2.0651 Z-0.1047
X1.0098 Y2.0625 Z-0.1036
X1.0121 Y2.0621 Z-0.1033
X1.0153 Y2.0616 Z-0.103
X1.0242 Y2.0605 Z-0.1028
X1.0304 Y2.0598 Z-0.1022
X1.0337 Y2.0595 Z-0.1021
X1.0392 Y2.0592 Z-0.1023
X1.0497 Y2.0587 Z-0.102
X1.0546 Z-0.1022
X1.0619 Y2.0588 Z-0.1023
X1.07 Y2.0591 Z-0.1028
X1.0722 Y2.0593 Z-0.1029
X1.0798 Y2.06 Z-0.1035
X1.0837 Y2.0605 Z-0.104
X1.0893 Y2.0614 Z-0.1046
X1.0919 Y2.0618 Z-0.105
X1.0984 Y2.0631 Z-0.1062
X1.1012 Y2.0638 Z-0.1067
X1.1072 Y2.0653 Z-0.1081
X1.1103 Y2.0662 Z-0.109
X1.1159 Y2.0681 Z-0.1104
X1.1194 Y2.0694 Z-0.1115
X1.1216 Y2.0702 Z-0.1124
X1.1245 Y2.0715 Z-0.1132
X1.1283 Y2.0733 Z-0.1145
X1.1315 Y2.0749 Z-0.1159
X1.1329 Y2.0758 Z-0.1164
X1.137 Y2.0782 Z-0.118
X1.1401 Y2.0802 Z-0.1195
X1.1411 Y2.0809 Z-0.1198
X1.1433 Y2.0825 Z-0.1207
X1.1455 Y2.0842 Z-0.1219
X1.148 Y2.0862 Z-0.1233
X1.1507 Y2.0887 Z-0.1246
X1.1514 Y2.0894 Z-0.125
X1.1537 Y2.0911
X1.1566 Y2.0937
X1.1593 Y2.0963
X1.1618 Y2.0992
X1.1642 Y2.1022
X1.1665 Y2.1054
X1.1685 Y2.1087
X1.1702 Y2.112
X1.1716 Y2.1153
X1.1729 Y2.1191
X1.1741 Y2.1234
X1.1751 Y2.1282
X1.1758 Y2.1335
X1.1763 Y2.1393
X1.1765 Y2.1453
X1.1762 Y2.1543
X1.1754 Y2.1619
X1.174 Y2.1682
X1.1723 Y2.1737
X1.17 Y2.1789
X1.1672 Y2.1839
X1.1639 Y2.1886
X1.1599 Y2.1932
X1.155 Y2.198
X1.1492 Y2.2029
X1.1427 Y2.2078
X1.1353 Y2.2126
X1.1267 Y2.2175
X1.1172 Y2.2225
X1.107 Y2.2275
X1.0957 Y2.2326
X1.087 Y2.2363
X1.0864 Y2.2366
X1.0779 Y2.2404
X1.0773 Y2.2407
X1.0693 Y2.2444
X1.0685 Y2.2448
X1.061 Y2.2484
X1.0599 Y2.249
X1.0529 Y2.2527
X1.0514 Y2.2535
X1.0449 Y2.2572
X1.0432 Y2.2582
X1.0373 Y2.2619
X1.0355 Y2.2632
X1.0301 Y2.2669
X1.0279 Y2.2686
X1.0231 Y2.2725
X1.0204 Y2.2748
X1.0162 Y2.2787
X1.0134 Y2.2816
X1.0097 Y2.2856
X1.0069 Y2.2891
X1.0039 Y2.2933
X1.0022 Y2.2956
X1.0008 Y2.2981
X0.9984 Y2.3025
X0.9968 Y2.3055
X0.9955 Y2.3087
X0.9938 Y2.3133
X0.9927 Y2.3166
X0.9919 Y2.32
X0.9909 Y2.3248
X0.9904 Y2.328
X0.9901 Y2.3313
X0.9898 Y2.3364
X0.9897 Y2.3395
X0.9898 Y2.3425
X0.9902 Y2.3472
X0.9905 Y2.3504
X0.9911 Y2.3535
X0.9921 Y2.358
X0.9929 Y2.3612
X0.9939 Y2.3644
X0.9955 Y2.3686
X0.9968 Y2.3717
X0.9983 Y2.3746
X1.0006 Y2.3786
X1.0021 Y2.3812
X1.0039 Y2.3838
X1.004 Y2.3839
X1.0039 Y2.3838
X0.9982 Y2.3784
X0.9932 Y2.3725
X0.9886 Y2.3653
X0.9872 Y2.3627
X0.9858 Y2.3594
X0.9845 Y2.3558
X0.9834 Y2.3518
X0.9825 Y2.3474
X0.9818 Y2.3426
X0.9813 Y2.3374
X0.9811 Y2.3319
X0.9813 Y2.3248
X0.982 Y2.3185
X0.9831 Y2.3128
X0.9845 Y2.3075
X0.9864 Y2.3025
X0.9887 Y2.2978
X0.9914 Y2.2933
X0.9947 Y2.2889
X0.9986 Y2.2843
X1.0034 Y2.2797
X1.0089 Y2.275
X1.0153 Y2.2702
X1.0226 Y2.2654
X1.0308 Y2.2607
X1.0399 Y2.2561
X1.0504 Y2.2513
X1.0686 Y2.2435
X1.0694 Y2.2431
X1.0867 Y2.2353
X1.0878 Y2.2347
X1.0958 Y2.2308
X1.0973 Y2.2301
X1.1048 Y2.2261
X1.1064 Y2.2252
X1.1133 Y2.2211
X1.1151 Y2.22
X1.1214 Y2.2159
X1.1237 Y2.2143
X1.1294 Y2.2101
X1.1322 Y2.2078
X1.1373 Y2.2034
X1.1401 Y2.2007
X1.1446 Y2.1961
X1.1474 Y2.1928
X1.1512 Y2.188
X1.153 Y2.1857
X1.1546 Y2.1832
X1.1576 Y2.1782
X1.1594 Y2.175
X1.1609 Y2.1716
X1.163 Y2.1663
X1.1642 Y2.1628
X1.1652 Y2.1593
X1.1665 Y2.1536
X1.1671 Y2.1501
X1.1675 Y2.1466
X1.1678 Y2.1406
X1.1679 Y2.1375
X1.1678 Y2.1345
X1.1675 Y2.13
X1.1672 Y2.1271
X1.1667 Y2.1242
X1.1659 Y2.1199
X1.1652 Y2.117
X1.1643 Y2.1142
X1.1629 Y2.1101
X1.1618 Y2.1073
X1.1606 Y2.1045
X1.1586 Y2.1006
X1.1572 Y2.098
X1.1556 Y2.0954
X1.1531 Y2.0917
X1.1514 Y2.0894
X1.1531 Y2.0917
X1.1556 Y2.0954
X1.1572 Y2.098
X1.1586 Y2.1006
X1.1606 Y2.1045
X1.1618 Y2.1073
X1.1629 Y2.1101
X1.1643 Y2.1142
X1.1652 Y2.117
X1.1659 Y2.1199
X1.1667 Y2.1242
X1.1672 Y2.1271
X1.1675 Y2.13
X1.1678 Y2.1345
X1.1679 Y2.1375
X1.1678 Y2.1406
X1.1675 Y2.1466
X1.1671 Y2.1501
X1.1665 Y2.1536
X1.1652 Y2.1593
X1.1642 Y2.1628
X1.163 Y2.1663
X1.1609 Y2.1716
X1.1594 Y2.175
X1.1576 Y2.1782
X1.1546 Y2.1832
X1.153 Y2.1857
X1.1512 Y2.188
X1.1474 Y2.1928
X1.1446 Y2.1961
X1.1401 Y2.2007
X1.1373 Y2.2034
X1.1322 Y2.2078
X1.1294 Y2.2101
X1.1237 Y2.2143
X1.1214 Y2.2159
X1.1151 Y2.22
X1.1133 Y2.2211
X1.1064 Y2.2252
X1.1048 Y2.2261
X1.0973 Y2.2301
X1.0958 Y2.2308
X1.0878 Y2.2347
X1.0867 Y2.2353
X1.0694 Y2.2431
X1.0686 Y2.2435
X1.0504 Y2.2513
X1.0399 Y2.2561
X1.0308 Y2.2607
X1.0226 Y2.2654
X1.0153 Y2.2702
X1.0089 Y2.275
X1.0034 Y2.2797
X0.9986 Y2.2843
X0.9947 Y2.2889
X0.9914 Y2.2933
X0.9887 Y2.2978
X0.9864 Y2.3025
X0.9845 Y2.3075
X0.9831 Y2.3128
X0.982 Y2.3185
X0.9813 Y2.3248
X0.9811 Y2.3319
X0.9813 Y2.3374
X0.9818 Y2.3426
X0.9825 Y2.3474
X0.9834 Y2.3518
X0.9845 Y2.3558
X0.9858 Y2.3594
X0.9872 Y2.3627
X0.9886 Y2.3653
X0.9932 Y2.3725
X0.9982 Y2.3784
X1.0039 Y2.3838
X1.004 Y2.3839
X1.0072 Y2.3871 Z-0.1232
X1.0101 Y2.3898 Z-0.1219
X1.015 Y2.3937 Z-0.1195
X1.0175 Y2.3957 Z-0.1184
X1.019 Y2.3966 Z-0.1177
X1.0232 Y2.3993 Z-0.116
X1.027 Y2.4015 Z-0.1147
X1.0316 Y2.4039 Z-0.113
X1.0361 Y2.406 Z-0.1117
X1.0404 Y2.4077 Z-0.1103
X1.0437 Y2.4089 Z-0.1094
X1.0473 Y2.4102 Z-0.1087
X1.0492 Y2.4108 Z-0.1081
X1.0523 Y2.4116 Z-0.1074
X1.0609 Y2.4138 Z-0.1059
X1.0673 Y2.4151 Z-0.1048
X1.0698 Y2.4155 Z-0.1045
X1.073 Y2.4161 Z-0.1043
X1.079 Y2.4168 Z-0.1035
X1.0883 Y2.4177 Z-0.1028
X1.0978 Y2.418 Z-0.1022
X1.1015 Y2.4181
X1.1079 Y2.418 Z-0.102
X1.116 Y2.4178 Z-0.1022
X1.1204 Y2.4175 Z-0.1021
X1.1224 Y2.4174 Z-0.1022
X1.1296 Y2.4168 Z-0.1028
X1.1351 Y2.4162 Z-0.1029
X1.1376 Y2.4159 Z-0.103
X1.1421 Y2.4153 Z-0.1036
X1.1507 Y2.4139 Z-0.104
X1.1535 Y2.4134 Z-0.1043
X1.164 Y2.4111 Z-0.1052
X1.1677 Y2.4101 Z-0.1053
X1.1762 Y2.4167 Z-0.0821
X1.1905 Y2.4273 Z-0.0431
X1.2043 Y2.4369 Z-0.0053
X1.1905 Y2.4273 Z-0.0431
X1.1762 Y2.4167 Z-0.0821
X1.1677 Y2.4101 Z-0.1053
X1.1687 Y2.4087 Z-0.1024
X1.1799 Y2.393 Z-0.0712
X1.1899 Y2.3779 Z-0.0435
X1.1984 Y2.3638 Z-0.0197
X1.2035 Y2.3543 Z-0.0053
Z0.2
X1.283 Y2.0286
Z0.1947
Z-0.0053
X1.327 Y2.0718 Z-0.125
X1.3285
X1.3716 Y2.0278 Z-0.0053
X1.3285 Y2.0718 Z-0.125
X1.3317 Y2.4247
X1.3756 Y2.4679 Z-0.0053
X1.3317 Y2.4247 Z-0.125
X1.3302
X1.327 Y2.0718
Z0.2
X1.287 Y2.4687
Z0.1947
Z-0.0053
X1.3302 Y2.4247 Z-0.1249
Z0.2
X1.4931 Y2.2324
Z0.1947
Z-0.125
X1.4935 Y2.2333 Z-0.1248
X1.4955 Y2.2376 Z-0.124
X1.4979 Y2.242 Z-0.123
X1.499 Y2.244 Z-0.1223
X1.5014 Y2.2478 Z-0.1213
X1.5033 Y2.2505 Z-0.1206
X1.5063 Y2.2546 Z-0.119
X1.5097 Y2.2586 Z-0.1176
X1.5137 Y2.263 Z-0.1158
X1.5172 Y2.2664 Z-0.1144
X1.5212 Y2.2699 Z-0.1128
X1.5224 Y2.2709 Z-0.1122
X1.5262 Y2.2739 Z-0.1108
X1.5301 Y2.2765 Z-0.1095
X1.532 Y2.2778 Z-0.1087
X1.5361 Y2.2803 Z-0.1073
X1.54 Y2.2824 Z-0.1061
X1.5422 Y2.2835 Z-0.1053
X1.5464 Y2.2855 Z-0.1041
X1.5512 Y2.2874 Z-0.103
X1.5529 Y2.2881 Z-0.1024
X1.5573 Y2.2896 Z-0.1015
X1.5639 Y2.2915 Z-0.1002
X1.5679 Y2.2924 Z-0.0994
X1.5705 Y2.2929 Z-0.0992
X1.575 Y2.2937 Z-0.0985
X1.5787 Y2.2943 Z-0.0981
X1.5863 Y2.2951 Z-0.0975
X1.5897 Y2.2953 Z-0.0974
X1.5929 Y2.2954
X1.5986 Y2.2955 Z-0.0972
X1.601 Z-0.0973
X1.6093 Y2.2952 Z-0.0976
X1.6119 Y2.295 Z-0.0977
X1.6165 Y2.2945 Z-0.0982
X1.6195 Y2.2941 Z-0.0983
X1.6237 Y2.2935 Z-0.0989
X1.6306 Y2.2922 Z-0.0997
X1.6341 Y2.2913 Z-0.1003
X1.6371 Y2.2905 Z-0.101
X1.6408 Y2.2894 Z-0.1016
X1.645 Y2.288 Z-0.1025
X1.6491 Y2.2864 Z-0.1037
X1.6512 Y2.2855 Z-0.1041
X1.6555 Y2.2835 Z-0.1053
X1.6597 Y2.2813 Z-0.1067
X1.6614 Y2.2803 Z-0.1071
X1.6657 Y2.2777 Z-0.1085
X1.669 Y2.2754 Z-0.1098
X1.6711 Y2.2739 Z-0.1104
X1.6732 Y2.2723 Z-0.1112
X1.6751 Y2.2707 Z-0.112
X1.6772 Y2.2689 Z-0.1129
X1.6809 Y2.2654 Z-0.1143
X1.6844 Y2.2617 Z-0.1159
X1.6874 Y2.2582 Z-0.1172
X1.6881 Y2.2573 Z-0.1173
X1.691 Y2.2534 Z-0.1186
X1.6937 Y2.2494 Z-0.1201
X1.695 Y2.2474 Z-0.1206
X1.6973 Y2.2435 Z-0.1217
X1.6987 Y2.2409 Z-0.1227
X1.7007 Y2.2368 Z-0.1235
X1.7029 Y2.232 Z-0.1248
X1.7033 Y2.2309 Z-0.125
X1.7067 Y2.2229
X1.7099 Y2.2129
X1.7122 Y2.202
X1.7136 Y2.1899
X1.714 Y2.1763
X1.7138 Y2.1693
X1.7133 Y2.1621
X1.7126 Y2.1553
X1.7116 Y2.1488
X1.7104 Y2.1426
X1.7089 Y2.1367
X1.7073 Y2.1311
X1.7054 Y2.1258
X1.7038 Y2.1219
X1.7043 Y2.1234
X1.7052 Y2.1269
X1.7071 Y2.1356
X1.7076 Y2.1387
X1.709 Y2.148
X1.7093 Y2.1507
X1.7102 Y2.1608
X1.7103 Y2.1632
X1.7107 Y2.1739
Y2.1762
X1.7106 Y2.1864
X1.7104 Y2.189
X1.7097 Y2.1985
X1.7094 Y2.2014
X1.7082 Y2.2103
X1.7076 Y2.2135
X1.7059 Y2.2218
X1.7049 Y2.2255
X1.7033 Y2.2309
Z0.2
X1.7038 Y2.1219
Z0.1947
Z-0.125
X1.7034 Y2.1208 Z-0.1248
X1.7014 Y2.1156 Z-0.1237
X1.6993 Y2.111 Z-0.1227
X1.697 Y2.1064 Z-0.1215
X1.6962 Y2.105 Z-0.121
X1.694 Y2.1012 Z-0.1199
X1.6917 Y2.0975 Z-0.1188
X1.6886 Y2.0932 Z-0.1171
X1.6871 Y2.0912 Z-0.1164
X1.6853 Y2.089 Z-0.1157
X1.6817 Y2.0849 Z-0.114
X1.6779 Y2.081 Z-0.1125
X1.674 Y2.0774 Z-0.1109
X1.6697 Y2.0739 Z-0.1093
X1.6647 Y2.0703 Z-0.1075
X1.6604 Y2.0675 Z-0.1061
X1.6545 Y2.0643 Z-0.1043
X1.65 Y2.0621 Z-0.1031
X1.6439 Y2.0596 Z-0.1017
X1.6396 Y2.0581 Z-0.1007
X1.6382 Y2.0577 Z-0.1006
X1.6318 Y2.0558 Z-0.0994
X1.6289 Y2.0552 Z-0.0989
X1.6251 Y2.0544 Z-0.0986
X1.6218 Y2.0538 Z-0.0981
X1.618 Y2.0532 Z-0.0978
X1.6105 Y2.0524 Z-0.0974
X1.6072 Y2.0522 Z-0.0972
X1.6027 Y2.052 Z-0.0973
X1.5982 Y2.0519 Z-0.0972
X1.5946 Y2.052 Z-0.0974
X1.5867 Y2.0523 Z-0.0976
X1.5846 Y2.0524 Z-0.0978
X1.5791 Y2.053 Z-0.0983
X1.5767 Y2.0533 Z-0.0984
X1.5718 Y2.054 Z-0.0991
X1.5649 Y2.0554 Z-0.1
X1.5619 Y2.0561 Z-0.1005
X1.5583 Y2.0571 Z-0.1013
X1.555 Y2.0581 Z-0.1018
X1.5508 Y2.0595 Z-0.1028
X1.5462 Y2.0612 Z-0.104
X1.5443 Y2.062 Z-0.1044
X1.54 Y2.064 Z-0.1056
X1.5355 Y2.0663 Z-0.107
X1.5339 Y2.0672 Z-0.1074
X1.5296 Y2.0699 Z-0.1089
X1.5261 Y2.0722 Z-0.1102
X1.524 Y2.0737 Z-0.1108
X1.5218 Y2.0754 Z-0.1116
X1.52 Y2.0769 Z-0.1124
X1.5179 Y2.0788 Z-0.1133
X1.514 Y2.0823 Z-0.1147
X1.5105 Y2.086 Z-0.1162
X1.5066 Y2.0906 Z-0.1179
X1.5036 Y2.0945 Z-0.1192
X1.5011 Y2.0982 Z-0.1205
X1.4984 Y2.1024 Z-0.1216
X1.496 Y2.1067 Z-0.1229
X1.4936 Y2.1115 Z-0.124
X1.4915 Y2.1164 Z-0.125
X1.4898 Y2.1202
X1.4879 Y2.1251
X1.4862 Y2.1301
X1.4847 Y2.1354
X1.4834 Y2.141
X1.4823 Y2.1469
X1.4815 Y2.1531
X1.4809 Y2.1597
X1.4806 Y2.1665
X1.4805 Y2.1736
X1.4807 Y2.181
X1.4812 Y2.1881
X1.4819 Y2.1949
X1.4829 Y2.2012
X1.4841 Y2.2073
X1.4856 Y2.213
X1.4872 Y2.2184
X1.4891 Y2.2236
X1.4912 Y2.2284
X1.4931 Y2.2324
X1.4908 Y2.2257
X1.4897 Y2.222
X1.4876 Y2.2137
X1.4869 Y2.2103
X1.4854 Y2.2014
X1.485 Y2.1983
X1.4841 Y2.1889
X1.4839 Y2.1861
X1.4835 Y2.1761
Y2.1736
X1.4836 Y2.1631
X1.4838 Y2.1605
X1.4845 Y2.1507
X1.4848 Y2.1478
X1.4861 Y2.1387
X1.4867 Y2.1354
X1.4885 Y2.1269
X1.4895 Y2.1232
X1.4915 Y2.1164
Z0.2
X1.7953 Y2.2556
Z0.1947
Z-0.0053
X1.8278 Y2.2875 Z-0.0937
X1.7959 Y2.3199 Z-0.0053
X1.8278 Y2.2875 Z-0.0937
X1.8423 Y2.2873
X1.8439 Z-0.0938
X1.8455 Z-0.0941
X1.8472 Z-0.0946
X1.8489 Z-0.0954
X1.8506 Y2.2872 Z-0.0964
X1.8523 Z-0.0976
X1.854 Z-0.0991
X1.8558 Z-0.1008
X1.8577 Z-0.1028
X1.8596 Z-0.105
X1.8615 Y2.2871 Z-0.1076
X1.8635 Z-0.1104
X1.8678 Z-0.117
X1.8724 Y2.287 Z-0.125
G2 X1.8875 Y2.2528 I-0.0305 J-0.0338
G1 X1.8862 Y2.1161
X1.8864 Y2.1061
X1.8872 Y2.0979
X1.8884 Y2.0908
X1.8899 Y2.0849
X1.8917 Y2.0801
X1.8936 Y2.0763
X1.8955 Y2.0732
X1.8976 Y2.0707
X1.8999 Y2.0686
X1.9026 Y2.0666
X1.906 Y2.0648
X1.9102 Y2.063
X1.9104 Y2.0629
X1.9128 Y2.0615 Z-0.123
X1.9154 Y2.06 Z-0.1211
X1.9213 Y2.0571 Z-0.1165
X1.9239 Y2.0561 Z-0.1146
X1.929 Y2.0542 Z-0.1112
X1.9324 Y2.0532 Z-0.1089
X1.9382 Y2.0518 Z-0.1055
X1.9407 Y2.0513 Z-0.1042
X1.9466 Y2.0503 Z-0.1013
X1.9486 Y2.0501 Z-0.1005
X1.9545 Y2.0495 Z-0.0982
X1.9562 Z-0.0977
X1.9617 Y2.0493 Z-0.096
X1.9651 Y2.0495 Z-0.0951
X1.9686 Y2.0464 Z-0.0854
X1.9757 Y2.0405 Z-0.0656
X1.983 Y2.0348 Z-0.0454
X1.9907 Y2.0293 Z-0.0241
X1.9975 Y2.0249 Z-0.0053
X1.9907 Y2.0293 Z-0.0241
X1.983 Y2.0348 Z-0.0454
X1.9757 Y2.0405 Z-0.0656
X1.9686 Y2.0464 Z-0.0854
X1.9651 Y2.0495 Z-0.0951
X1.9683 Y2.0525 Z-0.0863
X1.9716 Y2.0558 Z-0.0772
X1.9786 Y2.0632 Z-0.0583
X1.981 Y2.0659 Z-0.0517
X1.9884 Y2.075 Z-0.0315
X1.9946 Y2.0836 Z-0.0147
X1.9981 Y2.089 Z-0.0053
X1.9946 Y2.0836 Z-0.0147
X1.9884 Y2.075 Z-0.0315
X1.981 Y2.0659 Z-0.0517
X1.9786 Y2.0632 Z-0.0583
X1.9716 Y2.0558 Z-0.0772
X1.9683 Y2.0525 Z-0.0863
X1.9651 Y2.0495 Z-0.0951
X1.9617 Y2.0493 Z-0.096
X1.9562 Y2.0495 Z-0.0977
X1.9545 Z-0.0982
X1.9486 Y2.0501 Z-0.1005
X1.9466 Y2.0503 Z-0.1013
X1.9407 Y2.0513 Z-0.1042
X1.9382 Y2.0518 Z-0.1055
X1.9324 Y2.0532 Z-0.1089
X1.929 Y2.0542 Z-0.1112
X1.9239 Y2.0561 Z-0.1146
X1.9213 Y2.0571 Z-0.1165
X1.9154 Y2.06 Z-0.1211
X1.9128 Y2.0615 Z-0.123
X1.9104 Y2.0629 Z-0.125
Y2.063
X1.9079 Y2.0657
X1.9062 Y2.0679
X1.9045 Y2.0701
X1.9024 Y2.0732
X1.8997 Y2.0776
X1.8979 Y2.0811
X1.8959 Y2.0854
X1.8943 Y2.0893
X1.8929 Y2.0933
X1.8916 Y2.0975
X1.8907 Y2.1011
X1.8897 Y2.1057
X1.8891 Y2.109
X1.8885 Y2.1139
X1.8882 Y2.1168
X1.8878 Y2.1221
X1.8877 Y2.1247
X1.8876 Y2.1303
Y2.1315
X1.8887 Y2.2528
G2 X1.9044 Y2.2868 I0.0455 J-0.0004
G1 X1.909 Y2.2867 Z-0.117
X1.9132 Z-0.1104
X1.9153 Z-0.1076
X1.9172 Y2.2866 Z-0.105
X1.9191 Z-0.1028
X1.9209 Z-0.1008
X1.9227 Z-0.0991
X1.9245 Z-0.0976
X1.9262 Z-0.0964
X1.9279 Y2.2865 Z-0.0954
X1.9296 Z-0.0946
X1.9312 Z-0.0941
X1.9329 Z-0.0938
X1.9345 Z-0.0937
X1.9678 Y2.2862
X2.0002 Y2.318 Z-0.0053
X1.9678 Y2.2862 Z-0.0937
X1.9996 Y2.2537 Z-0.0053
X1.9678 Y2.2862 Z-0.0937
X1.9345 Y2.2865
X1.9329 Z-0.0938
X1.9312 Z-0.0941
X1.9296 Z-0.0946
X1.9279 Z-0.0954
X1.9262 Y2.2866 Z-0.0964
X1.9245 Z-0.0976
X1.9227 Z-0.0991
X1.9209 Z-0.1008
X1.9191 Z-0.1028
X1.9172 Z-0.105
X1.9153 Y2.2867 Z-0.1076
X1.9132 Z-0.1104
X1.909 Z-0.117
X1.9044 Y2.2868 Z-0.125
G2 X1.8893 Y2.321 I0.0305 J0.0338
G1 X1.8896 Y2.3517
X1.9337 Y2.4091 Z-0.0053
X1.8896 Y2.3517 Z-0.125
X1.8884 Y2.3514
X1.8881 Y2.321
G2 X1.8724 Y2.287 I-0.0455 J0.0004
G3 X1.8881 Y2.321 I-0.0298 J0.0344
G1 X1.8884 Y2.3514
X1.8451 Y2.3847 Z-0.0053
Z0.2
X2.034 Y2.0291
Z0.1947
Z-0.0054
X2.0472 Y2.0384 Z-0.0415
X2.061 Y2.0486 Z-0.079
X2.0649 Y2.0517 Z-0.0897
X2.0571 Y2.0629 Z-0.0679
X2.0483 Y2.0763 Z-0.0435
X2.0402 Y2.0895 Z-0.0209
X2.0346 Y2.0993 Z-0.0053
X2.0402 Y2.0895 Z-0.0209
X2.0483 Y2.0763 Z-0.0435
X2.0571 Y2.0629 Z-0.0679
X2.0649 Y2.0517 Z-0.0897
X2.0695 Y2.0504 Z-0.0892
X2.0716 Y2.0498 Z-0.0891
X2.0828 Y2.0473 Z-0.088
X2.0916 Y2.0457 Z-0.0875
X2.0938 Y2.0454 Z-0.0872
X2.096 Y2.045 Z-0.087
X2.1021 Y2.0443 Z-0.0869
X2.1085 Y2.0437 Z-0.0864
X2.1128 Y2.0435 Z-0.0865
X2.12 Y2.0432 Z-0.0863
X2.1237 Y2.0431 Z-0.0865
X2.1334 Y2.0434 Z-0.0867
X2.1361 Y2.0435 Z-0.0868
X2.147 Y2.0445 Z-0.0875
X2.1499 Y2.0449 Z-0.0877
X2.159 Y2.0465 Z-0.0889
X2.1633 Y2.0475 Z-0.0896
X2.1687 Y2.049 Z-0.0909
X2.1713 Y2.0498 Z-0.0913
X2.1755 Y2.0512 Z-0.0924
X2.179 Y2.0526 Z-0.0936
X2.1826 Y2.0543 Z-0.0948
X2.1867 Y2.0563 Z-0.0966
X2.1898 Y2.0582 Z-0.0979
X2.194 Y2.0609 Z-0.1002
X2.1971 Y2.0632 Z-0.1019
X2.2002 Y2.0658 Z-0.104
X2.2021 Y2.0676 Z-0.1052
X2.2051 Y2.0708 Z-0.1077
X2.206 Y2.0719 Z-0.1083
X2.209 Y2.0758 Z-0.1109
X2.2116 Y2.0798 Z-0.1132
X2.2123 Y2.0809 Z-0.1138
X2.2134 Y2.0833 Z-0.1149
X2.2151 Y2.0868 Z-0.1169
X2.2157 Y2.0886 Z-0.1177
X2.2164 Y2.0908 Z-0.1185
X2.2171 Y2.0932 Z-0.1192
X2.2176 Y2.0958 Z-0.12
X2.218 Y2.0988 Z-0.1206
X2.2183 Y2.1021 Z-0.1212
X2.2184 Y2.1057 Z-0.122
X2.2183 Y2.1095 Z-0.1226
X2.2181 Y2.1124 Z-0.123
X2.2178 Y2.1153 Z-0.1236
X2.2169 Y2.1196 Z-0.1245
X2.2161 Y2.1228 Z-0.1249
X2.2153 Y2.1253
X2.2143 Y2.1276 Z-0.1247
X2.213 Y2.1299 Z-0.1244
X2.2117 Y2.1321 Z-0.1239
X2.2095 Y2.1349 Z-0.1226
X2.2075 Y2.1374 Z-0.1214
X2.2044 Y2.1405 Z-0.1197
X2.1998 Y2.1445 Z-0.1174
X2.1962 Y2.1472 Z-0.1156
X2.1947 Y2.1482 Z-0.115
X2.1906 Y2.1509 Z-0.1134
X2.1878 Y2.1526 Z-0.1124
X2.1836 Y2.1549 Z-0.1112
X2.1807 Y2.1565 Z-0.1104
X2.1761 Y2.1587 Z-0.1095
X2.1736 Y2.1598 Z-0.109
X2.1662 Y2.1629 Z-0.1079
X2.1535 Y2.1676 Z-0.107
X2.1485 Y2.1693 Z-0.1071
X2.1385 Y2.1728 Z-0.1076
X2.1358 Y2.1739 Z-0.1079
X2.1308 Y2.1758 Z-0.1088
X2.1266 Y2.1775 Z-0.1092
X2.1237 Y2.1788 Z-0.1097
X2.1195 Y2.1808 Z-0.1106
X2.1164 Y2.1824 Z-0.1114
X2.1126 Y2.1845 Z-0.1126
X2.1092 Y2.1864 Z-0.1138
X2.1057 Y2.1887 Z-0.1152
X2.1018 Y2.1914 Z-0.1171
X2.0971 Y2.195 Z-0.1195
X2.0935 Y2.1982 Z-0.1217
X2.0907 Y2.201 Z-0.1233
X2.0877 Y2.2045 Z-0.125
X2.0865 Y2.2058
X2.085 Y2.2077
X2.0837 Y2.2097
X2.0825 Y2.212
X2.0815 Y2.2144
X2.0807 Y2.2172
X2.08 Y2.2208
X2.0796 Y2.2254
X2.0795 Y2.229
X2.08 Y2.2258
X2.0807 Y2.2226
X2.0816 Y2.2189
X2.0829 Y2.2148
X2.0846 Y2.2107
X2.0862 Y2.2074
X2.0877 Y2.2045
X2.0862 Y2.2074
X2.0846 Y2.2107
X2.0829 Y2.2148
X2.0816 Y2.2189
X2.0807 Y2.2226
X2.08 Y2.2258
X2.0795 Y2.229
X2.0794 Y2.2313 Z-0.1248
X2.0793 Y2.2347 Z-0.1243
X2.0794 Y2.238 Z-0.1237
X2.0798 Y2.2417 Z-0.123
X2.0801 Y2.2435 Z-0.1227
X2.0805 Y2.2459 Z-0.122
X2.0811 Y2.248 Z-0.1213
X2.0822 Y2.2513 Z-0.12
X2.0823 Y2.2514
X2.0834 Y2.254 Z-0.1185
X2.0848 Y2.2569 Z-0.1171
X2.0877 Y2.2616 Z-0.1143
X2.0884 Y2.2626 Z-0.1136
X2.0912 Y2.2663 Z-0.1111
X2.0946 Y2.2699 Z-0.1083
X2.0956 Y2.271 Z-0.1076
X2.0982 Y2.2732 Z-0.1056
X2.1013 Y2.2757 Z-0.1038
X2.1079 Y2.2803 Z-0.0997
X2.1107 Y2.2818 Z-0.0982
X2.1135 Y2.2833 Z-0.097
X2.1156 Y2.2842 Z-0.0963
X2.1195 Y2.2859 Z-0.0945
X2.1219 Y2.2869 Z-0.0935
X2.1253 Y2.2881 Z-0.0925
X2.134 Y2.2906 Z-0.0903
X2.1365 Y2.2911 Z-0.0897
X2.1442 Y2.2926 Z-0.0884
X2.1477 Y2.2931 Z-0.0879
X2.1561 Y2.2939 Z-0.087
X2.1592 Y2.2941 Z-0.0868
X2.1655 Y2.2942 Z-0.0866
X2.1681 Z-0.0863
X2.1705 Z-0.0862
X2.1823 Y2.2936
X2.1834 Y2.2935
X2.194 Y2.2923 Z-0.0861
X2.2014 Y2.2912 Z-0.0866
X2.2058 Y2.2903 Z-0.0865
X2.2148 Y2.2884 Z-0.087
X2.2209 Y2.2934 Z-0.0702
X2.2447 Y2.3115 Z-0.0054
X2.2209 Y2.2934 Z-0.0702
X2.2148 Y2.2884 Z-0.087
X2.2171 Y2.2854 Z-0.0807
X2.2257 Y2.2736 Z-0.0566
X2.2333 Y2.2624 Z-0.0354
X2.2401 Y2.2518 Z-0.0166
X2.2441 Y2.2449 Z-0.0053
Z0.6
G28 G91 Z0
G90
G28 G91 X0 Y0
G90
M5
M30
