%
(1001)
(Round 001 - Engraving 20deg carver)
(Machine)
(  vendor: SainSmart)
(  model: Genmitsu 3018)
(  description: SainSmart 3018 Original)
(T1  D=0.0689 CR=0 TAPER=20deg - ZMIN=-0.125 - chamfer mill)
G90 G94
G17
G20
(When using Fusion 360 for Personal Use, the feedrate of)
(rapid moves is reduced to match the feedrate of cutting)
(moves, which can increase machining time. Unrestricted rapid)
(moves are available with a Fusion 360 Subscription.)
G0 Z0.5

(Engrave Derp)
M9
T1
S10000 M3
G54
M9
G0 X0.9367 Y2.0472
Z0.175
G1 Z0.025 F4.33
Z-0.025
X0.9541 Y2.0582 Z-0.0727
X0.9711 Y2.0698 Z-0.1189
X0.9733 Y2.0714 Z-0.125
Y2.0728
X0.9646 Y2.0861 Z-0.1006
X0.9629 Y2.0887 Z-0.0961
X0.9525 Y2.1063 Z-0.067
X0.9435 Y2.1232 Z-0.0418
X0.9375 Y2.1356 Z-0.025
X0.9435 Y2.1232 Z-0.0418
X0.9525 Y2.1063 Z-0.067
X0.9629 Y2.0887 Z-0.0961
X0.9646 Y2.0861 Z-0.1006
X0.9733 Y2.0728 Z-0.125
X0.9757 Y2.0717
G3 X0.9788 Y2.0706 I0.0149 J0.0354
G1 X0.9908 Y2.0667
X0.9833 Y2.0684
X0.9733 Y2.0714
X0.9833 Y2.0684
X0.9908 Y2.0667
X0.996 Y2.0653 Z-0.1244
X0.9969 Y2.0651
X1.0098 Y2.0625 Z-0.1233
X1.0121 Y2.0621 Z-0.123
X1.0153 Y2.0616 Z-0.1227
X1.0242 Y2.0605 Z-0.1225
X1.0304 Y2.0598 Z-0.1219
X1.0337 Y2.0595 Z-0.1218
X1.0392 Y2.0592 Z-0.122
X1.0497 Y2.0587 Z-0.1216
X1.0546 Z-0.1219
X1.0619 Y2.0588
X1.07 Y2.0591 Z-0.1225
X1.0722 Y2.0593 Z-0.1226
X1.0798 Y2.06 Z-0.1232
X1.0837 Y2.0605 Z-0.1237
X1.0893 Y2.0614 Z-0.1243
X1.0934 Y2.0621 Z-0.125
X1.0974 Y2.0626
X1.1105 Y2.0649
X1.1223 Y2.0678
X1.1329 Y2.0713
X1.1424 Y2.0756
X1.1514 Y2.0807
X1.1548 Y2.0829
X1.1583 Y2.0856
X1.1615 Y2.0884
X1.1645 Y2.0914
X1.1673 Y2.0945
X1.17 Y2.0979
X1.1725 Y2.1015
X1.1748 Y2.1052
X1.1767 Y2.1089
X1.1783 Y2.1127
X1.1798 Y2.117
X1.1811 Y2.1218
X1.1821 Y2.127
X1.1829 Y2.1327
X1.1835 Y2.1389
X1.1837 Y2.1453
X1.1834 Y2.1549
X1.1825 Y2.163
X1.181 Y2.1701
X1.179 Y2.1763
X1.1764 Y2.1821
X1.1732 Y2.1877
X1.1695 Y2.1929
X1.1651 Y2.1981
X1.1598 Y2.2033
X1.1537 Y2.2086
X1.1468 Y2.2136
X1.139 Y2.2187
X1.1302 Y2.2238
X1.1204 Y2.2289
X1.11 Y2.234
X1.0986 Y2.2391
X1.0898 Y2.2429
G2 X1.0893 Y2.2431 I0.0152 J0.0352
G1 X1.0809 Y2.2469
G2 X1.0803 Y2.2472 I0.0157 J0.035
G1 X1.0723 Y2.2509
G2 X1.0717 Y2.2512 I0.0163 J0.0347
G1 X1.0642 Y2.2549
G2 X1.0633 Y2.2553 I0.0169 J0.0345
G1 X1.0562 Y2.259
G2 X1.055 Y2.2597 I0.0178 J0.034
G1 X1.0485 Y2.2634
G2 X1.0471 Y2.2643 I0.0191 J0.0333
G1 X1.0411 Y2.268
G2 X1.0396 Y2.269 I0.0205 J0.0324
G1 X1.0342 Y2.2728
G2 X1.0323 Y2.2742 I0.022 J0.0314
G1 X1.0275 Y2.2781
G2 X1.0253 Y2.28 I0.0239 J0.03
G1 X1.0211 Y2.284
G2 X1.0187 Y2.2864 I0.0262 J0.028
G1 X1.0151 Y2.2904
G2 X1.0127 Y2.2934 I0.0286 J0.0256
G1 X1.0096 Y2.2975
G2 X1.007 Y2.3016 I0.031 J0.0227
G1 X1.0046 Y2.3059
G2 X1.0022 Y2.3112 I0.0336 J0.0186
G1 X1.0005 Y2.3158
G2 X0.9989 Y2.3214 I0.036 J0.0133
G1 X0.9979 Y2.3263
G2 X0.9972 Y2.3317 I0.0376 J0.0077
G1 X0.9969 Y2.3368
G2 X0.997 Y2.342 I0.0383 J0.0023
G1 X0.9973 Y2.3467
G2 X0.9981 Y2.352 I0.0383 J-0.0029
G1 X0.9991 Y2.3565
G2 X1.0006 Y2.3618 I0.0375 J-0.0082
G1 X1.0022 Y2.3661
G2 X1.0046 Y2.3711 I0.0359 J-0.0135
G1 X1.0068 Y2.3751
G2 X1.0096 Y2.3795 I0.0335 J-0.0186
G1 X1.0124 Y2.3832
G2 X1.0154 Y2.3867 I0.0307 J-0.023
G1 X1.0187 Y2.3901
G2 X1.0219 Y2.3932 I0.0277 J-0.0265
G1 X1.0257 Y2.3963
G2 X1.0289 Y2.3987 I0.0245 J-0.0295
G1 X1.0332 Y2.4016
G2 X1.0364 Y2.4035 I0.0213 J-0.0319
G1 X1.0412 Y2.4061
G2 X1.0443 Y2.4076 I0.0181 J-0.0338
G1 X1.0496 Y2.4098
G2 X1.0525 Y2.4109 I0.015 J-0.0353
G1 X1.0584 Y2.4129
G2 X1.0609 Y2.4136 I0.0121 J-0.0364
G1 X1.0644 Y2.4145
X1.0673 Y2.4151 Z-0.1245
X1.0698 Y2.4155 Z-0.1242
X1.073 Y2.4161 Z-0.124
X1.079 Y2.4168 Z-0.1232
X1.0883 Y2.4177 Z-0.1225
X1.0978 Y2.418 Z-0.1219
X1.1015 Y2.4181
X1.1079 Y2.418 Z-0.1217
X1.116 Y2.4178 Z-0.1219
X1.1204 Y2.4175 Z-0.1218
X1.1224 Y2.4174 Z-0.1219
X1.1296 Y2.4168 Z-0.1224
X1.1351 Y2.4162 Z-0.1226
X1.1376 Y2.4159 Z-0.1227
X1.1421 Y2.4153 Z-0.1232
X1.1507 Y2.4139 Z-0.1237
X1.1535 Y2.4134 Z-0.124
X1.164 Y2.4111 Z-0.1249
X1.1677 Y2.4101
X1.1687 Y2.4087 Z-0.1221
X1.1799 Y2.393 Z-0.0908
X1.1899 Y2.3779 Z-0.0632
X1.1984 Y2.3638 Z-0.0394
X1.2035 Y2.3543 Z-0.025
X1.1984 Y2.3638 Z-0.0394
X1.1899 Y2.3779 Z-0.0632
X1.1799 Y2.393 Z-0.0908
X1.1687 Y2.4087 Z-0.1221
X1.1677 Y2.4101 Z-0.1249
X1.1762 Y2.4167 Z-0.1018
X1.1905 Y2.4273 Z-0.0628
X1.2043 Y2.4369 Z-0.025
X1.1905 Y2.4273 Z-0.0628
X1.1762 Y2.4167 Z-0.1018
X1.1677 Y2.4101 Z-0.1249
X1.164 Y2.4111
X1.1535 Y2.4134 Z-0.124
X1.1507 Y2.4139 Z-0.1237
X1.1421 Y2.4153 Z-0.1232
X1.1376 Y2.4159 Z-0.1227
X1.1351 Y2.4162 Z-0.1226
X1.1296 Y2.4168 Z-0.1224
X1.1224 Y2.4174 Z-0.1219
X1.1204 Y2.4175 Z-0.1218
X1.116 Y2.4178 Z-0.1219
X1.1079 Y2.418 Z-0.1217
X1.1015 Y2.4181 Z-0.1219
X1.0978 Y2.418
X1.0883 Y2.4177 Z-0.1225
X1.079 Y2.4168 Z-0.1232
X1.073 Y2.4161 Z-0.124
X1.0698 Y2.4155 Z-0.1242
X1.0673 Y2.4151 Z-0.1245
X1.0644 Y2.4145 Z-0.125
X1.0597 Y2.4139
X1.047 Y2.4114
X1.0354 Y2.4082
X1.0249 Y2.4044
X1.0153 Y2.3999
X1.0067 Y2.3948
X0.9993 Y2.3893
X0.993 Y2.3834
X0.9875 Y2.3767
X0.9824 Y2.369
X0.9808 Y2.3658
X0.9791 Y2.362
X0.9777 Y2.3579
X0.9764 Y2.3535
X0.9754 Y2.3487
X0.9746 Y2.3434
X0.9741 Y2.3378
X0.9739 Y2.332
X0.9742 Y2.3244
X0.9749 Y2.3175
X0.9761 Y2.3111
X0.9777 Y2.3052
X0.9798 Y2.2997
X0.9824 Y2.2944
X0.9854 Y2.2893
X0.9891 Y2.2844
X0.9934 Y2.2794
X0.9985 Y2.2744
X1.0044 Y2.2694
X1.0112 Y2.2643
X1.0188 Y2.2593
X1.0273 Y2.2544
X1.0368 Y2.2496
X1.0475 Y2.2448
X1.0657 Y2.2369
G2 X1.0664 Y2.2366 I-0.0152 J-0.0352
G1 X1.0837 Y2.2288
G2 X1.0847 Y2.2283 I-0.0159 J-0.0349
G1 X1.0927 Y2.2244
G2 X1.094 Y2.2237 I-0.0168 J-0.0345
G1 X1.1014 Y2.2197
G2 X1.1028 Y2.219 I-0.0181 J-0.0338
G1 X1.1097 Y2.2149
G2 X1.1112 Y2.214 I-0.0194 J-0.0331
G1 X1.1175 Y2.2099
G2 X1.1194 Y2.2086 I-0.021 J-0.0321
G1 X1.1251 Y2.2043
G2 X1.1275 Y2.2024 I-0.0229 J-0.0308
G1 X1.1326 Y2.198
G2 X1.135 Y2.1957 I-0.0252 J-0.0289
G1 X1.1394 Y2.1911
G2 X1.1418 Y2.1883 I-0.0276 J-0.0266
G1 X1.1456 Y2.1836
G2 X1.1484 Y2.1795 I-0.03 J-0.0239
G1 X1.1515 Y2.1745
G2 X1.1542 Y2.169 I-0.0328 J-0.0198
G1 X1.1564 Y2.1636
G2 X1.1582 Y2.1577 I-0.0356 J-0.0143
G1 X1.1595 Y2.152
G2 X1.1603 Y2.1461 I-0.0374 J-0.0084
G1 X1.1607 Y2.1401
G2 Y2.135 I-0.0383 J-0.0024
G1 X1.1604 Y2.1305
G2 X1.1597 Y2.1256 I-0.0383 J0.0027
G1 X1.1588 Y2.1214
G2 X1.1575 Y2.1165 I-0.0376 J0.0076
G1 X1.1561 Y2.1124
G2 X1.1542 Y2.1077 I-0.0363 J0.0124
G1 X1.1522 Y2.1038
G2 X1.1497 Y2.0994 I-0.0344 J0.0171
G1 X1.1471 Y2.0957
G2 X1.144 Y2.0917 I-0.0318 J0.0215
G1 X1.141 Y2.0882
G2 X1.1376 Y2.0849 I-0.0287 J0.0255
G1 X1.1339 Y2.0816
G2 X1.1306 Y2.079 I-0.0253 J0.0288
G1 X1.1264 Y2.0761
G2 X1.1231 Y2.074 I-0.022 J0.0314
G1 X1.1183 Y2.0713
G2 X1.1151 Y2.0698 I-0.0187 J0.0335
G1 X1.1098 Y2.0674
G2 X1.1069 Y2.0663 I-0.0155 J0.0351
G1 X1.101 Y2.0642
G2 X1.0984 Y2.0634 I-0.0125 J0.0363
G1 X1.0934 Y2.0621
Z0.125
X1.287 Y2.4687
Z0.025
Z-0.025
X1.3231 Y2.4319 Z-0.125
X1.3197 Y2.0647
X1.3356 Y2.0645
X1.3716 Y2.0278 Z-0.025
X1.3356 Y2.0645 Z-0.125
X1.3389 Y2.4318
X1.3231 Y2.4319
X1.3389 Y2.4318
X1.3756 Y2.4679 Z-0.025
Z0.125
X1.283 Y2.0286
Z0.025
Z-0.025
X1.3197 Y2.0647 Z-0.1249
Z0.125
X1.5423 Y2.2836
Z0.025
Z-0.125
X1.5464 Y2.2855 Z-0.1238
X1.5512 Y2.2874 Z-0.1226
X1.5529 Y2.2881 Z-0.1221
X1.5573 Y2.2896 Z-0.1212
X1.5639 Y2.2915 Z-0.1198
X1.5679 Y2.2924 Z-0.1191
X1.5705 Y2.2929 Z-0.1189
X1.575 Y2.2937 Z-0.1182
X1.5787 Y2.2943 Z-0.1178
X1.5863 Y2.2951 Z-0.1172
X1.5897 Y2.2953 Z-0.117
X1.5929 Y2.2954 Z-0.1171
X1.5986 Y2.2955 Z-0.1169
X1.601 Z-0.117
X1.6093 Y2.2952 Z-0.1173
X1.6119 Y2.295 Z-0.1174
X1.6165 Y2.2945 Z-0.1179
X1.6195 Y2.2941 Z-0.118
X1.6237 Y2.2935 Z-0.1185
X1.6306 Y2.2922 Z-0.1194
X1.6341 Y2.2913 Z-0.12
X1.6371 Y2.2905 Z-0.1207
X1.6408 Y2.2894 Z-0.1213
X1.645 Y2.288 Z-0.1222
X1.6491 Y2.2864 Z-0.1233
X1.6512 Y2.2855 Z-0.1238
X1.6555 Y2.2835 Z-0.125
X1.6599 Y2.2817
X1.665 Y2.2794
X1.6698 Y2.2769
X1.6744 Y2.2741
X1.6788 Y2.2711
X1.683 Y2.268
X1.687 Y2.2645
X1.6905 Y2.2612
X1.698 Y2.2528
X1.7041 Y2.2443
X1.7092 Y2.2352
X1.7135 Y2.2254
X1.7168 Y2.2147
X1.7193 Y2.2031
X1.7207 Y2.1904
X1.7211 Y2.1763
X1.7209 Y2.1689
X1.7204 Y2.1615
X1.7197 Y2.1544
X1.7186 Y2.1475
X1.7174 Y2.141
X1.7159 Y2.1348
X1.7141 Y2.1289
X1.7121 Y2.1233
X1.7099 Y2.1179
X1.7075 Y2.1128
X1.7048 Y2.1079
X1.7019 Y2.1032
X1.6988 Y2.0987
X1.6954 Y2.0944
X1.6918 Y2.0902
X1.6879 Y2.0862
X1.6838 Y2.0825
X1.6795 Y2.0789
X1.6751 Y2.0757
X1.6705 Y2.0727
X1.6657 Y2.0699
X1.6606 Y2.0673
X1.6577 Y2.0661
X1.6602 Y2.0678
G3 X1.6641 Y2.0709 I-0.0217 J0.0317
G1 X1.6691 Y2.0753
G3 X1.6725 Y2.0788 I-0.0256 J0.0286
G1 X1.677 Y2.0839
G3 X1.6798 Y2.0876 I-0.029 J0.0251
G1 X1.6837 Y2.0935
G3 X1.6859 Y2.0971 I-0.0318 J0.0214
G1 X1.6893 Y2.1036
G3 X1.6909 Y2.1071 I-0.034 J0.0178
G1 X1.6939 Y2.1144
G3 X1.695 Y2.1176 I-0.0356 J0.0143
G1 X1.6974 Y2.1255
G3 X1.6982 Y2.1284 I-0.0367 J0.0111
G1 X1.7001 Y2.1371
G3 X1.7005 Y2.1397 I-0.0375 J0.0082
G1 X1.7019 Y2.149
G3 X1.7022 Y2.1513 I-0.038 J0.0056
G1 X1.7031 Y2.1614
G3 X1.7032 Y2.1634 I-0.0382 J0.0033
G1 X1.7035 Y2.1742
G3 X1.7036 Y2.1761 I-0.0383 J0.0013
G1 X1.7034 Y2.1863
G3 X1.7033 Y2.1884 I-0.0384 J-0.0006
G1 X1.7026 Y2.198
G3 X1.7023 Y2.2004 I-0.0383 J-0.0028
G1 X1.7011 Y2.2093
G3 X1.7006 Y2.212 I-0.038 J-0.0053
G1 X1.6989 Y2.2203
G3 X1.6981 Y2.2234 I-0.0375 J-0.008
G1 X1.6958 Y2.2309
G3 X1.6946 Y2.2343 I-0.0367 J-0.0111
G1 X1.6918 Y2.2412
G3 X1.6901 Y2.2448 I-0.0355 J-0.0145
G1 X1.6867 Y2.2511
G3 X1.6845 Y2.2548 I-0.0338 J-0.0181
G1 X1.6806 Y2.2604
G3 X1.6777 Y2.2641 I-0.0316 J-0.0218
G1 X1.6733 Y2.2691
G3 X1.6698 Y2.2725 I-0.0287 J-0.0255
G1 X1.6649 Y2.2768
G3 X1.661 Y2.2798 I-0.0252 J-0.0289
G1 X1.6555 Y2.2835
Z0.125
X1.6577 Y2.0661
Z0.025
Z-0.125
X1.6554 Y2.0648 Z-0.1243
X1.6501 Y2.0622 Z-0.1229
X1.6443 Y2.0598 Z-0.1215
X1.6396 Y2.0581 Z-0.1204
X1.6329 Y2.0561 Z-0.1192
X1.6289 Y2.0552 Z-0.1186
X1.6251 Y2.0544 Z-0.1183
X1.6218 Y2.0538 Z-0.1178
X1.6181 Y2.0532 Z-0.1175
X1.6105 Y2.0524 Z-0.1171
X1.6076 Y2.0522 Z-0.1169
X1.6027 Y2.052 Z-0.117
X1.5991 Y2.0519 Z-0.1169
X1.5962 Z-0.117
X1.5877 Y2.0522 Z-0.1173
X1.5867 Y2.0523
X1.5791 Y2.053 Z-0.118
X1.5767 Y2.0533 Z-0.1181
X1.5732 Y2.0538 Z-0.1185
X1.5658 Y2.0552 Z-0.1196
X1.5619 Y2.0561 Z-0.1202
X1.5583 Y2.0571 Z-0.121
X1.555 Y2.0581 Z-0.1215
X1.5521 Y2.059 Z-0.1222
X1.5462 Y2.0612 Z-0.1237
X1.5443 Y2.062 Z-0.1241
X1.5409 Y2.0635 Z-0.125
X1.5407 Y2.0636
X1.5353 Y2.0658
X1.5302 Y2.0681
X1.5253 Y2.0707
X1.5206 Y2.0734
X1.5162 Y2.0764
X1.5119 Y2.0796
X1.5078 Y2.0831
X1.5039 Y2.0868
X1.5002 Y2.0907
X1.4968 Y2.0947
X1.4936 Y2.0989
X1.4906 Y2.1033
X1.4879 Y2.1078
X1.4854 Y2.1125
X1.4832 Y2.1174
X1.4811 Y2.1226
X1.4793 Y2.128
X1.4777 Y2.1337
X1.4764 Y2.1396
X1.4752 Y2.1458
X1.4744 Y2.1523
X1.4738 Y2.1592
X1.4734 Y2.1663
X1.4733 Y2.1737
X1.4736 Y2.1814
X1.4741 Y2.1887
X1.4748 Y2.1958
X1.4759 Y2.2025
X1.4771 Y2.2089
X1.4787 Y2.2149
X1.4804 Y2.2207
X1.4824 Y2.2262
X1.4846 Y2.2314
X1.4871 Y2.2364
X1.4897 Y2.2411
X1.4926 Y2.2456
X1.4957 Y2.25
X1.4991 Y2.2541
X1.5027 Y2.2581
X1.5067 Y2.2619
X1.5108 Y2.2656
X1.5152 Y2.269
X1.5197 Y2.2722
X1.5244 Y2.2752
X1.5294 Y2.2779
X1.5345 Y2.2804
X1.5399 Y2.2827
X1.5423 Y2.2836
X1.5422 Y2.2835
X1.5365 Y2.2797
G3 X1.5328 Y2.2769 I0.0213 J-0.0319
G1 X1.5275 Y2.2724
G3 X1.5243 Y2.2692 I0.025 J-0.0291
G1 X1.5195 Y2.264
G3 X1.5168 Y2.2607 I0.0283 J-0.0259
G1 X1.5125 Y2.2548
G3 X1.5102 Y2.2513 I0.031 J-0.0227
G1 X1.5065 Y2.2449
G3 X1.5047 Y2.2414 I0.0332 J-0.0192
G1 X1.5015 Y2.2343
G3 X1.5002 Y2.231 I0.035 J-0.0158
G1 X1.4976 Y2.2234
G3 X1.4966 Y2.2202 I0.0363 J-0.0124
G1 X1.4946 Y2.212
G3 X1.494 Y2.2091 I0.0372 J-0.0093
G1 X1.4925 Y2.2002
G3 X1.4921 Y2.1976 I0.0378 J-0.0064
G1 X1.4912 Y2.1882
G3 X1.491 Y2.1858 I0.0382 J-0.0038
G1 X1.4907 Y2.1758
G3 X1.4906 Y2.1737 I0.0383 J-0.0014
G1 X1.4908 Y2.1633
G3 X1.4909 Y2.161 I0.0384 J0.0006
G1 X1.4916 Y2.1513
G3 X1.4919 Y2.1488 I0.0383 J0.0028
G1 X1.4932 Y2.1396
G3 X1.4937 Y2.1369 I0.038 J0.0053
G1 X1.4955 Y2.1284
G3 X1.4963 Y2.1253 I0.0375 J0.0081
G1 X1.4987 Y2.1175
G3 X1.4999 Y2.1141 I0.0367 J0.0112
G1 X1.5028 Y2.107
G3 X1.5046 Y2.1034 I0.0355 J0.0146
G1 X1.508 Y2.0969
G3 X1.5103 Y2.0932 I0.0338 J0.0182
G1 X1.5144 Y2.0874
G3 X1.5173 Y2.0838 I0.0315 J0.022
G1 X1.5219 Y2.0787
G3 X1.5253 Y2.0753 I0.0285 J0.0256
G1 X1.5305 Y2.0708
G3 X1.5344 Y2.0679 I0.0251 J0.029
G1 X1.54 Y2.0641
G3 X1.5409 Y2.0635 I0.0212 J0.032
G1 Z0.125
X1.7953 Y2.2556
Z0.025
Z-0.025
X1.8278 Y2.2875 Z-0.1133
X1.7959 Y2.3199 Z-0.025
X1.8278 Y2.2875 Z-0.1133
X1.8423 Y2.2873
X1.8442 Z-0.1135
X1.8461 Z-0.1139
X1.8481 Z-0.1147
X1.8502 Z-0.1158
X1.8523 Y2.2872 Z-0.1173
X1.8546 Z-0.1193
X1.8571 Z-0.1218
X1.8598 Z-0.125
G2 X1.8803 Y2.2529 I-0.0179 J-0.034
G1 X1.8791 Y2.1161
X1.8793 Y2.1057
X1.8801 Y2.0969
X1.8814 Y2.0893
X1.8831 Y2.0828
X1.8851 Y2.0773
X1.8873 Y2.0727
X1.8897 Y2.069
X1.8924 Y2.0658
X1.8953 Y2.0631
X1.8987 Y2.0606
X1.9028 Y2.0583
X1.9078 Y2.0562
X1.9137 Y2.0544
X1.9207 Y2.053
X1.9288 Y2.0521
X1.9382 Y2.0517
X1.9386
X1.9407 Y2.0513 Z-0.1239
X1.9466 Y2.0503 Z-0.121
X1.9486 Y2.0501 Z-0.1202
X1.9545 Y2.0495 Z-0.1179
X1.9562 Z-0.1173
X1.9617 Y2.0493 Z-0.1157
X1.9651 Y2.0495 Z-0.1147
X1.9686 Y2.0464 Z-0.1051
X1.9757 Y2.0405 Z-0.0853
X1.983 Y2.0348 Z-0.0651
X1.9907 Y2.0293 Z-0.0438
X1.9975 Y2.0249 Z-0.025
X1.9907 Y2.0293 Z-0.0438
X1.983 Y2.0348 Z-0.0651
X1.9757 Y2.0405 Z-0.0853
X1.9686 Y2.0464 Z-0.1051
X1.9651 Y2.0495 Z-0.1147
X1.9683 Y2.0525 Z-0.106
X1.9716 Y2.0558 Z-0.0969
X1.9786 Y2.0632 Z-0.078
X1.981 Y2.0659 Z-0.0714
X1.9884 Y2.075 Z-0.0512
X1.9946 Y2.0836 Z-0.0344
X1.9981 Y2.089 Z-0.025
X1.9946 Y2.0836 Z-0.0344
X1.9884 Y2.075 Z-0.0512
X1.981 Y2.0659 Z-0.0714
X1.9786 Y2.0632 Z-0.078
X1.9716 Y2.0558 Z-0.0969
X1.9683 Y2.0525 Z-0.106
X1.9651 Y2.0495 Z-0.1147
X1.9617 Y2.0493 Z-0.1157
X1.9562 Y2.0495 Z-0.1173
X1.9545 Z-0.1179
X1.9486 Y2.0501 Z-0.1202
X1.9466 Y2.0503 Z-0.121
X1.9407 Y2.0513 Z-0.1239
X1.9386 Y2.0517 Z-0.125
G2 X1.9363 Y2.0527 I0.015 J0.0353
G1 X1.933 Y2.0544
G2 X1.9288 Y2.0568 I0.0173 J0.0343
G1 X1.9258 Y2.0589
G2 X1.9219 Y2.0619 I0.0214 J0.0318
G1 X1.9192 Y2.0643
G2 X1.9158 Y2.0677 I0.0253 J0.0288
G1 X1.9133 Y2.0705
G2 X1.9104 Y2.0742 I0.0288 J0.0254
G1 X1.9083 Y2.0773
G2 X1.906 Y2.081 I0.0316 J0.0217
G1 X1.9042 Y2.0845
G2 X1.9025 Y2.0881 I0.0339 J0.018
G1 X1.9009 Y2.092
G2 X1.8997 Y2.0953 I0.0356 J0.0144
G1 X1.8985 Y2.0996
G2 X1.8977 Y2.1026 I0.0367 J0.011
G1 X1.8967 Y2.1072
G2 X1.8962 Y2.1099 I0.0375 J0.008
G1 X1.8956 Y2.1149
G2 X1.8953 Y2.1173 I0.038 J0.0052
G1 X1.8949 Y2.1227
G2 X1.8948 Y2.1248 I0.0383 J0.0028
G1 X1.8947 Y2.1305
G2 Y2.1315 I0.0384 J0.0006
G1 X1.8958 Y2.2527
G2 X1.917 Y2.2866 I0.0384 J-0.0004
G1 X1.9197 Z-0.1218
X1.9221 Z-0.1193
X1.9244 Z-0.1173
X1.9266 Z-0.1158
X1.9287 Y2.2865 Z-0.1147
X1.9307 Z-0.1139
X1.9326 Z-0.1135
X1.9345 Z-0.1133
X1.9678 Y2.2862
X1.9996 Y2.2537 Z-0.025
X1.9678 Y2.2862 Z-0.1133
X2.0002 Y2.318 Z-0.025
X1.9678 Y2.2862 Z-0.1133
X1.9345 Y2.2865
X1.9326 Z-0.1135
X1.9307 Z-0.1139
X1.9287 Z-0.1147
X1.9266 Y2.2866 Z-0.1158
X1.9244 Z-0.1173
X1.9221 Z-0.1193
X1.9197 Z-0.1218
X1.917 Z-0.125
G2 X1.8965 Y2.3209 I0.0179 J0.034
G1 X1.8968 Y2.3612
X1.8813 Y2.3569
X1.8809 Y2.3211
G2 X1.8598 Y2.2872 I-0.0384 J0.0004
G3 X1.8809 Y2.3211 I-0.0172 J0.0343
G1 X1.8813 Y2.3569
X1.8451 Y2.3847 Z-0.025
Z0.125
X1.8968 Y2.3612
Z0.025
Z-0.125
X1.9337 Y2.4091 Z-0.025
Z0.125
X2.034 Y2.0291
Z0.025
Z-0.025
X2.0472 Y2.0384 Z-0.0612
X2.061 Y2.0486 Z-0.0987
X2.0649 Y2.0517 Z-0.1094
X2.0571 Y2.0629 Z-0.0876
X2.0483 Y2.0763 Z-0.0631
X2.0402 Y2.0895 Z-0.0406
X2.0346 Y2.0993 Z-0.025
X2.0402 Y2.0895 Z-0.0406
X2.0483 Y2.0763 Z-0.0631
X2.0571 Y2.0629 Z-0.0876
X2.0649 Y2.0517 Z-0.1094
X2.0674 Y2.051 Z-0.1091
X2.0716 Y2.0498 Z-0.1088
X2.0808 Y2.0477 Z-0.1079
X2.0916 Y2.0457 Z-0.1071
X2.0938 Y2.0454 Z-0.1069
X2.096 Y2.045 Z-0.1067
X2.1021 Y2.0443 Z-0.1065
X2.1066 Y2.0439 Z-0.1062
X2.1085 Y2.0437 Z-0.1061
X2.1128 Y2.0435 Z-0.1062
X2.12 Y2.0432 Z-0.106
X2.1237 Y2.0431 Z-0.1062
X2.1334 Y2.0434 Z-0.1064
X2.1356 Z-0.1065
X2.1465 Y2.0444 Z-0.1072
X2.1499 Y2.0449 Z-0.1074
X2.1581 Y2.0463 Z-0.1085
X2.1633 Y2.0475 Z-0.1092
X2.1687 Y2.049 Z-0.1106
X2.1713 Y2.0498 Z-0.111
X2.1755 Y2.0512 Z-0.1121
X2.1783 Y2.0523 Z-0.1131
X2.1826 Y2.0543 Z-0.1145
X2.1858 Y2.0558 Z-0.1159
X2.1898 Y2.0582 Z-0.1176
X2.194 Y2.0609 Z-0.1199
X2.1971 Y2.0632 Z-0.1216
X2.1995 Y2.0653 Z-0.1233
X2.2022 Y2.0678 Z-0.125
X2.2056 Y2.0701
X2.2104 Y2.0743
X2.2147 Y2.079
X2.2186 Y2.0846
X2.2197 Y2.0865
X2.2209 Y2.0889
X2.2219 Y2.0915
X2.2228 Y2.0945
X2.2235 Y2.0977
X2.2241 Y2.1013
X2.2244 Y2.1053
X2.2246 Y2.1095
X2.2244 Y2.1157
X2.2238 Y2.1208
X2.223 Y2.1247
X2.2219 Y2.128
X2.2205 Y2.1309
X2.2188 Y2.1338
X2.2169 Y2.1364
X2.2144 Y2.139
X2.2113 Y2.1419
X2.2075 Y2.1448
X2.2031 Y2.1476
X2.198 Y2.1505
X2.1918 Y2.1536
X2.185 Y2.1567
X2.1776 Y2.1597
X2.1697 Y2.1627
X2.1496 Y2.1696
G2 X2.1487 Y2.1699 I0.0125 J0.0363
G1 X2.1388 Y2.1736
G2 X2.1362 Y2.1747 I0.0134 J0.036
G1 X2.1272 Y2.1788
G2 X2.1245 Y2.1802 I0.016 J0.0349
G1 X2.1205 Y2.1825
G2 X2.1177 Y2.1842 I0.0188 J0.0335
G1 X2.1141 Y2.1867
G2 X2.1112 Y2.1888 I0.0216 J0.0317
G1 X2.108 Y2.1915
G2 X2.1051 Y2.1941 I0.0244 J0.0296
G1 X2.1023 Y2.197
G2 X2.0987 Y2.2012 I0.0273 J0.0269
G1 X2.0964 Y2.2043
G2 X2.0927 Y2.2104 I0.0309 J0.0227
G1 X2.0911 Y2.2138
G2 X2.0886 Y2.2207 I0.0346 J0.0166
G1 X2.0876 Y2.2244
G2 X2.0865 Y2.2312 I0.0371 J0.0096
G1 X2.0862 Y2.2352
G2 Y2.2412 I0.0383 J0.0029
G1 X2.0865 Y2.2442
G2 X2.0874 Y2.2501 I0.0382 J-0.0032
G1 X2.0881 Y2.2529
G2 X2.09 Y2.2588 I0.0373 J-0.009
G1 X2.0912 Y2.2614
G2 X2.094 Y2.2669 I0.0353 J-0.0149
G1 X2.0956 Y2.2694
G2 X2.0986 Y2.2736 I0.0325 J-0.0204
G1 X2.0952 Y2.2717
X2.0899 Y2.2679
X2.0854 Y2.2639
X2.0814 Y2.2595
X2.0778 Y2.2543
X2.0768 Y2.2525
X2.0757 Y2.2503
X2.0748 Y2.2478
X2.074 Y2.2452
X2.0733 Y2.2421
X2.0728 Y2.2388
X2.0724 Y2.2352
X2.0723 Y2.2313
X2.0724 Y2.225
X2.0729 Y2.2198
X2.0737 Y2.2155
X2.0747 Y2.2121
X2.076 Y2.209
X2.0775 Y2.2061
X2.0791 Y2.2035
X2.0811 Y2.2011
X2.0836 Y2.1985
X2.0866 Y2.1959
X2.0901 Y2.1933
X2.0945 Y2.1905
X2.0998 Y2.1876
X2.1059 Y2.1845
X2.1127 Y2.1815
X2.1203 Y2.1784
X2.1304 Y2.1746
X2.1413 Y2.171
X2.1415
X2.153 Y2.1671
G2 X2.1553 Y2.1663 I-0.0122 J-0.0364
G1 X2.1658 Y2.162
G2 X2.1682 Y2.161 I-0.0144 J-0.0356
G1 X2.173 Y2.1586
G2 X2.1754 Y2.1574 I-0.0168 J-0.0345
G1 X2.1797 Y2.1548
G2 X2.1824 Y2.1531 I-0.0192 J-0.0332
G1 X2.1863 Y2.1505
G2 X2.189 Y2.1484 I-0.0219 J-0.0315
G1 X2.1925 Y2.1455
G2 X2.1965 Y2.1416 I-0.0246 J-0.0294
G1 X2.1993 Y2.1384
G2 X2.204 Y2.1318 I-0.0287 J-0.0255
G1 X2.206 Y2.1283
G2 X2.2093 Y2.1206 I-0.0334 J-0.0189
G1 X2.2105 Y2.1167
G2 X2.212 Y2.1089 I-0.0367 J-0.0112
G1 X2.2124 Y2.1047
G2 Y2.0985 I-0.0382 J-0.0033
G1 X2.2122 Y2.0951
G2 X2.2113 Y2.0896 I-0.0383 J0.0029
G1 X2.2106 Y2.0865
G2 X2.2089 Y2.0809 I-0.0374 J0.0084
G1 X2.2078 Y2.078
G2 X2.2051 Y2.0725 I-0.0357 J0.014
G1 X2.2035 Y2.0698
G2 X2.2022 Y2.0678 I-0.033 J0.0196
G3 X2.2035 Y2.0698 I-0.0317 J0.0216
G1 X2.2051 Y2.0725
G3 X2.2078 Y2.078 I-0.033 J0.0196
G1 X2.2089 Y2.0809
G3 X2.2106 Y2.0865 I-0.0357 J0.014
G1 X2.2113 Y2.0896
G3 X2.2122 Y2.0951 I-0.0374 J0.0084
G1 X2.2124 Y2.0985
G3 Y2.1047 I-0.0383 J0.0029
G1 X2.212 Y2.1089
G3 X2.2105 Y2.1167 I-0.0382 J-0.0033
G1 X2.2093 Y2.1206
G3 X2.206 Y2.1283 I-0.0367 J-0.0112
G1 X2.204 Y2.1318
G3 X2.1993 Y2.1384 I-0.0334 J-0.0189
G1 X2.1965 Y2.1416
G3 X2.1925 Y2.1455 I-0.0287 J-0.0255
G1 X2.189 Y2.1484
G3 X2.1863 Y2.1505 I-0.0246 J-0.0294
G1 X2.1824 Y2.1531
G3 X2.1797 Y2.1548 I-0.0219 J-0.0315
G1 X2.1754 Y2.1574
G3 X2.173 Y2.1586 I-0.0192 J-0.0332
G1 X2.1682 Y2.161
G3 X2.1658 Y2.162 I-0.0168 J-0.0345
G1 X2.1553 Y2.1663
G3 X2.153 Y2.1671 I-0.0144 J-0.0356
G1 X2.1415 Y2.171
X2.1413
X2.1304 Y2.1746
X2.1203 Y2.1784
X2.1127 Y2.1815
X2.1059 Y2.1845
X2.0998 Y2.1876
X2.0945 Y2.1905
X2.0901 Y2.1933
X2.0866 Y2.1959
X2.0836 Y2.1985
X2.0811 Y2.2011
X2.0791 Y2.2035
X2.0775 Y2.2061
X2.076 Y2.209
X2.0747 Y2.2121
X2.0737 Y2.2155
X2.0729 Y2.2198
X2.0724 Y2.225
X2.0723 Y2.2313
X2.0724 Y2.2352
X2.0728 Y2.2388
X2.0733 Y2.2421
X2.074 Y2.2452
X2.0748 Y2.2478
X2.0757 Y2.2503
X2.0768 Y2.2525
X2.0778 Y2.2543
X2.0814 Y2.2595
X2.0854 Y2.2639
X2.0899 Y2.2679
X2.0952 Y2.2717
X2.0986 Y2.2736
X2.1013 Y2.2757 Z-0.1235
X2.1079 Y2.2803 Z-0.1194
X2.1107 Y2.2818 Z-0.1178
X2.1135 Y2.2833 Z-0.1167
X2.1156 Y2.2842 Z-0.116
X2.1195 Y2.2859 Z-0.1142
X2.1219 Y2.2869 Z-0.1132
X2.1253 Y2.2881 Z-0.1122
X2.134 Y2.2906 Z-0.1099
X2.1365 Y2.2911 Z-0.1094
X2.1442 Y2.2926 Z-0.1081
X2.1477 Y2.2931 Z-0.1076
X2.1561 Y2.2939 Z-0.1067
X2.1592 Y2.2941 Z-0.1064
X2.1655 Y2.2942 Z-0.1063
X2.1681 Z-0.106
X2.1705 Z-0.1058
X2.1823 Y2.2936
X2.1834 Y2.2935 Z-0.1059
X2.194 Y2.2923 Z-0.1058
X2.2014 Y2.2912 Z-0.1063
X2.2058 Y2.2903 Z-0.1062
X2.2148 Y2.2884 Z-0.1067
X2.2209 Y2.2934 Z-0.0899
X2.2447 Y2.3115 Z-0.025
X2.2209 Y2.2934 Z-0.0899
X2.2148 Y2.2884 Z-0.1067
X2.2156 Y2.2874 Z-0.1044
X2.2247 Y2.2751 Z-0.0792
X2.2327 Y2.2634 Z-0.0567
X2.2398 Y2.2522 Z-0.037
X2.2441 Y2.2449 Z-0.025
Z0.175
M9
G0 Z0.5
M30
%
