(1001)
(Round 001 - Adaptive Clear 0.8mm)
(Machine)
(  vendor: SainSmart)
(  model: Genmitsu 3018)
(  description: SainSmart 3018 Original)
(T7  D=0.0315 CR=0 - ZMIN=-0.04 - flat end mill)
G90 G94
G17
G20
(When using Fusion 360 for Personal Use, the feedrate of)
(rapid moves is reduced to match the feedrate of cutting)
(moves, which can increase machining time. Unrestricted rapid)
(moves are available with a Fusion 360 Subscription.)
G28 G91 Z0
G90

(0.8mm Adaptive Clear)
T7
S10000 M3
G54
G0 X0.1897 Y0.1897
Z0.175
G1 Z0.125 F4.33
Z0.077
G2 X0.2084 Y0.2131 Z0.0754 I0.0093 J0.0117 F3.94
X0.1897 Y0.1897 Z0.0737 I-0.0093 J-0.0117
X0.2084 Y0.2131 Z0.0721 I0.0093 J0.0117
X0.1897 Y0.1897 Z0.0704 I-0.0093 J-0.0117
X0.2084 Y0.2131 Z0.0688 I0.0093 J0.0117
X0.1897 Y0.1897 Z0.0672 I-0.0093 J-0.0117
X0.2084 Y0.2131 Z0.0655 I0.0093 J0.0117
X0.1897 Y0.1897 Z0.0639 I-0.0093 J-0.0117
X0.2084 Y0.2131 Z0.0622 I0.0093 J0.0117
X0.1897 Y0.1897 Z0.0606 I-0.0093 J-0.0117
X0.2084 Y0.2131 Z0.0589 I0.0093 J0.0117
X0.1897 Y0.1897 Z0.0573 I-0.0093 J-0.0117
X0.2084 Y0.2131 Z0.0557 I0.0093 J0.0117
X0.1897 Y0.1897 Z0.054 I-0.0093 J-0.0117
X0.2084 Y0.2131 Z0.0524 I0.0093 J0.0117
X0.1897 Y0.1897 Z0.0507 I-0.0093 J-0.0117
X0.2084 Y0.2131 Z0.0491 I0.0093 J0.0117
X0.1897 Y0.1897 Z0.0475 I-0.0093 J-0.0117
X0.2084 Y0.2131 Z0.0458 I0.0093 J0.0117
X0.1897 Y0.1897 Z0.0442 I-0.0093 J-0.0117
X0.2084 Y0.2131 Z0.0425 I0.0093 J0.0117
X0.1897 Y0.1897 Z0.0409 I-0.0093 J-0.0117
X0.2084 Y0.2131 Z0.0393 I0.0093 J0.0117
X0.1897 Y0.1897 Z0.0376 I-0.0093 J-0.0117
X0.2084 Y0.2131 Z0.036 I0.0093 J0.0117
X0.1897 Y0.1897 Z0.0343 I-0.0093 J-0.0117
X0.2084 Y0.2131 Z0.0327 I0.0093 J0.0117
X0.1897 Y0.1897 Z0.031 I-0.0093 J-0.0117
X0.2084 Y0.2131 Z0.0294 I0.0093 J0.0117
X0.1897 Y0.1897 Z0.0278 I-0.0093 J-0.0117
X0.2084 Y0.2131 Z0.0261 I0.0093 J0.0117
X0.1897 Y0.1897 Z0.0245 I-0.0093 J-0.0117
X0.2084 Y0.2131 Z0.0228 I0.0093 J0.0117
X0.1897 Y0.1897 Z0.0212 I-0.0093 J-0.0117
X0.2084 Y0.2131 Z0.0196 I0.0093 J0.0117
X0.1897 Y0.1897 Z0.0179 I-0.0093 J-0.0117
X0.2084 Y0.2131 Z0.0163 I0.0093 J0.0117
X0.1897 Y0.1897 Z0.0146 I-0.0093 J-0.0117
X0.2084 Y0.2131 Z0.013 I0.0093 J0.0117
X0.1897 Y0.1897 Z0.0113 I-0.0093 J-0.0117
X0.2084 Y0.2131 Z0.0097 I0.0093 J0.0117
X0.1897 Y0.1897 Z0.0081 I-0.0093 J-0.0117
X0.2084 Y0.2131 Z0.0064 I0.0093 J0.0117
X0.1897 Y0.1897 Z0.0048 I-0.0093 J-0.0117
X0.2084 Y0.2131 Z0.0031 I0.0093 J0.0117
X0.1897 Y0.1897 Z0.0015 I-0.0093 J-0.0117
X0.2084 Y0.2131 Z-0.0001 I0.0093 J0.0117
X0.1897 Y0.1897 Z-0.0018 I-0.0093 J-0.0117
X0.2084 Y0.2131 Z-0.0034 I0.0093 J0.0117
X0.1897 Y0.1897 Z-0.0051 I-0.0093 J-0.0117
X0.2084 Y0.2131 Z-0.0067 I0.0093 J0.0117
X0.1897 Y0.1897 Z-0.0083 I-0.0093 J-0.0117
X0.2084 Y0.2131 Z-0.01 I0.0093 J0.0117
X0.1897 Y0.1897 Z-0.0116 I-0.0093 J-0.0117
X0.2084 Y0.2131 Z-0.0133 I0.0093 J0.0117
X0.1897 Y0.1897 Z-0.0149 I-0.0093 J-0.0117
X0.2084 Y0.2131 Z-0.0166 I0.0093 J0.0117
X0.1897 Y0.1897 Z-0.0182 I-0.0093 J-0.0117
X0.2084 Y0.2131 Z-0.0198 I0.0093 J0.0117
X0.1897 Y0.1897 Z-0.0215 I-0.0093 J-0.0117
X0.2084 Y0.2131 Z-0.0231 I0.0093 J0.0117
X0.1897 Y0.1897 Z-0.0248 I-0.0093 J-0.0117
X0.2084 Y0.2131 Z-0.0264 I0.0093 J0.0117
X0.1897 Y0.1897 Z-0.028 I-0.0093 J-0.0117
X0.2084 Y0.2131 Z-0.0297 I0.0093 J0.0117
X0.1897 Y0.1897 Z-0.0313 I-0.0093 J-0.0117
X0.2084 Y0.2131 Z-0.033 I0.0093 J0.0117
X0.1897 Y0.1897 Z-0.0346 I-0.0093 J-0.0117
X0.2084 Y0.2131 Z-0.0362 I0.0093 J0.0117
X0.1897 Y0.1897 Z-0.0379 I-0.0093 J-0.0117
X0.2084 Y0.2131 Z-0.0395 I0.0093 J0.0117
X0.214 Y0.2014 Z-0.04 I-0.0093 J-0.0117
X0.1841 Y0.2014 I-0.015 J0
X0.214 Y0.2014 I0.015 J0
G1 X0.2153 Y0.1938 F4.33
X0.2155 Y0.1908
X0.2141 Y0.185
X0.212 Y0.1827
X0.2109 Y0.1818
X0.2098 Y0.1811
X0.2085 Y0.1806
X0.2027 Y0.179
X0.2009 Y0.1785
X0.2 Y0.1783
X0.1985
X0.1978 Y0.1784
X0.1972 Y0.1786
X0.196 Y0.1792
X0.1952 Y0.1803
X0.195 Y0.1817
X0.1953 Y0.183
X0.1962 Y0.1841
X0.1975 Y0.1847
X0.1988 Y0.1846
X0.1998 Y0.1844
X0.201 Y0.1838
X0.2019 Y0.1828
X0.2022 Y0.1814
X0.202 Y0.1801
X0.2012 Y0.179
X0.2 Y0.1783
X0.1986
X0.1981
X0.1917 Y0.18
X0.1904 Y0.1804
X0.1893 Y0.1807
X0.1875 Y0.1814
X0.1872 Y0.1815
X0.1862 Y0.1824
X0.1856 Y0.1837
X0.1857 Y0.185
X0.1862 Y0.1862
X0.1873 Y0.1871
X0.1886 Y0.1874
X0.1899 Y0.1872
X0.1912 Y0.1867
X0.1923 Y0.1859
X0.193 Y0.1848
X0.1931 Y0.1835
X0.1927 Y0.1822
X0.1918 Y0.1812
X0.1906 Y0.1807
X0.1893
X0.188 Y0.1811
X0.1871 Y0.1816
X0.1867 Y0.1819
X0.1814 Y0.1872
X0.1807 Y0.1879
X0.1806 Y0.188
X0.1795 Y0.1893
X0.1791 Y0.1898
X0.1788 Y0.1904
X0.1785 Y0.1917
X0.1787 Y0.193
X0.1795 Y0.194
X0.1806 Y0.1947
X0.1819 Y0.1949
X0.1831 Y0.1945
X0.1841 Y0.1937
X0.1852 Y0.1923
X0.1858 Y0.1911
Y0.1897
X0.1853 Y0.1885
X0.1843 Y0.1876
X0.183 Y0.1872
X0.1817 Y0.1873
X0.1806 Y0.188
X0.1796 Y0.1889
X0.1793 Y0.1894
X0.1786 Y0.1908
X0.1767 Y0.1979
X0.1764 Y0.199
X0.1761 Y0.2
X0.176 Y0.201
X0.1759 Y0.2015
X0.1763 Y0.2028
X0.1771 Y0.2039
X0.1783 Y0.2045
X0.1797
X0.1809 Y0.204
X0.1818 Y0.2029
X0.1822 Y0.2016
X0.1823 Y0.2011
X0.1821 Y0.1998
X0.1814 Y0.1987
X0.1803 Y0.198
X0.179 Y0.1977
X0.1778 Y0.198
X0.1767 Y0.1988
X0.1761 Y0.2
X0.176 Y0.2004
X0.1759 Y0.2009
Y0.2018
X0.176 Y0.2023
X0.178 Y0.2101
X0.1785 Y0.2119
X0.1787 Y0.2123
X0.1792 Y0.2133
X0.1795 Y0.2137
X0.1844 Y0.2186
X0.1865 Y0.2205
X0.1874 Y0.2212
X0.1884 Y0.2218
X0.1895 Y0.2222
X0.1907
X0.1918 Y0.2218
X0.1927 Y0.221
X0.1933 Y0.2199
Y0.2186
X0.1929 Y0.2175
X0.1921 Y0.2166
X0.1886 Y0.2139
X0.1873 Y0.2134
X0.186
X0.1848 Y0.2139
X0.1839 Y0.2149
X0.1835 Y0.2161
X0.1837 Y0.2174
X0.1844 Y0.2186
X0.1868 Y0.2211
X0.1874 Y0.2215
X0.188 Y0.2218
X0.1954 Y0.2238
X0.1972 Y0.2243
X0.1981 Y0.2245
X0.1991
X0.1994
X0.2006 Y0.2241
X0.2016 Y0.2233
X0.2022 Y0.2221
Y0.2207
X0.2017 Y0.2195
X0.2007 Y0.2186
X0.1994 Y0.2182
X0.1981 Y0.2184
X0.197 Y0.2191
X0.1969 Y0.2192
X0.1961 Y0.2202
X0.1959 Y0.2215
X0.1962 Y0.2228
X0.197 Y0.2239
X0.1981 Y0.2245
X0.1986
X0.2
X0.2064 Y0.2228
X0.2075 Y0.2225
X0.2089 Y0.2221
X0.2093 Y0.222
X0.2104 Y0.2215
X0.2113 Y0.2209
X0.2122 Y0.2202
X0.2128 Y0.2191
X0.213 Y0.2178
X0.2127 Y0.2166
X0.2119 Y0.2156
X0.2108 Y0.215
X0.2095 Y0.2149
X0.2083 Y0.2153
X0.2066 Y0.2163
X0.2056 Y0.2172
X0.2051 Y0.2183
Y0.2196
X0.2055 Y0.2208
X0.2064 Y0.2217
X0.2076 Y0.2221
X0.2089
X0.2101 Y0.2218
X0.2107 Y0.2215
X0.2113 Y0.2211
X0.2163 Y0.2161
X0.2174 Y0.215
X0.2186 Y0.2137
X0.2193 Y0.2125
X0.2196 Y0.2119
X0.2198 Y0.2112
Y0.2098
X0.2192 Y0.2086
X0.2182 Y0.2077
X0.2169 Y0.2073
X0.2155 Y0.2076
X0.2144 Y0.2084
X0.2137 Y0.2095
X0.2134 Y0.2105
X0.2133 Y0.2119
X0.2138 Y0.2132
X0.2148 Y0.2141
X0.2161 Y0.2146
X0.2174 Y0.2144
X0.2186 Y0.2137
X0.2192 Y0.2128
X0.2195 Y0.2123
X0.2196 Y0.2119
X0.2222 Y0.2023
Y0.2018
Y0.2009
X0.2221 Y0.2004
X0.2196 Y0.1908
X0.2188 Y0.1894
X0.2185 Y0.1889
X0.2114 Y0.1819
X0.211 Y0.1816
X0.2101 Y0.1811
X0.2095 Y0.1808
X0.2085 Y0.1806
X0.2071
X0.2058 Y0.1812
X0.205 Y0.1822
X0.2046 Y0.1836
X0.2049 Y0.1849
X0.2057 Y0.186
X0.2069 Y0.1867
X0.2083 Y0.1868
X0.2095 Y0.1866 Z-0.0398
X0.2105 Y0.1864 Z-0.0391
X0.2112 Y0.1863 Z-0.0381
X0.2114 Y0.1862 Z-0.0369
Z0.175
G28 G91 Z0
G90
G28 G91 X0 Y0
G90
M5
M30
