(1001)
(Round 001 - 1/4" Facing)
(Machine)
(  vendor: SainSmart)
(  model: Genmitsu 3018)
(  description: SainSmart 3018 Original)
(T26  D=0.25 CR=0 - ZMIN=-0.025 - flat end mill)
G90 G94
G17
G20
(When using Fusion 360 for Personal Use, the feedrate of)
(rapid moves is reduced to match the feedrate of cutting)
(moves, which can increase machining time. Unrestricted rapid)
(moves are available with a Fusion 360 Subscription.)
G28 G91 Z0
G90

(Face4)
T26
S10000 M3
G54
G0 X3.6625 Y0.2041
Z0.6
G1 Z0.2 F4.72
Z0
G18 G3 X3.6375 Z-0.025 I-0.025 K0
G1 X3.5
X0.1
G17 G2 X0.1 Y0.4309 I0 J0.1134
G1 X3.5
G3 X3.5 Y0.6577 I0 J0.1134
G1 X0.1
G2 X0.1 Y0.8844 I0 J0.1134
G1 X3.5
G3 X3.5 Y1.1112 I0 J0.1134
G1 X0.1
G2 X0.1 Y1.338 I0 J0.1134
G1 X3.5
G3 X3.5 Y1.5647 I0 J0.1134
G1 X0.1
G2 X0.1 Y1.7915 I0 J0.1134
G1 X3.5
G3 X3.5 Y2.0183 I0 J0.1134
G1 X0.1
G2 X0.1 Y2.245 I0 J0.1134
G1 X3.5
G3 X3.5 Y2.4718 I0 J0.1134
G1 X0.1
G2 X0.1 Y2.6986 I0 J0.1134
G1 X3.5
G3 X3.5 Y2.9253 I0 J0.1134
G1 X0.1
G2 X0.1 Y3.1521 I0 J0.1134
G1 X3.5
G3 X3.5 Y3.3789 I0 J0.1134
G1 X0.1
G18 G3 X0.075 Z0 I0 K0.025
G1 Z0.6
G17
G28 G91 Z0
G90
G28 G91 X0 Y0
G90
M5
M30
