(1001)
(Round 001 - Pocket Finish 2mm)
(Machine)
(  vendor: SainSmart)
(  model: Genmitsu 3018)
(  description: SainSmart 3018 Original)
(T3  D=0.0787 CR=0 - ZMIN=-0.425 - flat end mill)
G90 G94
G17
G20
(When using Fusion 360 for Personal Use, the feedrate of)
(rapid moves is reduced to match the feedrate of cutting)
(moves, which can increase machining time. Unrestricted rapid)
(moves are available with a Fusion 360 Subscription.)
G28 G91 Z0
G90

(2mm Pocket Finish)
T3
S10000 M3
G54
G0 X1.0413 Y1.763
Z0.175
G1 Z0.025 F4.72
Z0.0071
X1.0405 Y1.7626 Z0.0036 F4.33
X1.0383 Y1.7614 Z0.001
X1.0352 Y1.7598 Z0
G3 X0.9123 Y1.5764 Z-0.008 I0.1148 J-0.2098
X0.9377 Y1.5736 Z-0.0094 I0.0127 J-0.0014
G1 X0.9379 Y1.5753 Z-0.0095
G2 X1.3623 Y1.5736 Z-0.0312 I0.2121 J-0.0253
G3 X1.3877 Y1.5764 Z-0.0326 I0.0127 J0.0014
X0.9123 Y1.5764 Z-0.057 I-0.2377 J-0.0264
X0.9377 Y1.5736 Z-0.0584 I0.0127 J-0.0014
G1 X0.9379 Y1.5753
G2 X1.3623 Y1.5736 Z-0.0802 I0.2121 J-0.0253
G3 X1.3877 Y1.5764 Z-0.0816 I0.0127 J0.0014
X0.9123 Y1.5764 Z-0.106 I-0.2377 J-0.0264
X0.9377 Y1.5736 Z-0.1074 I0.0127 J-0.0014
G1 X0.9379 Y1.5753
G2 X1.3623 Y1.5736 Z-0.1291 I0.2121 J-0.0253
G3 X1.3877 Y1.5764 Z-0.1305 I0.0127 J0.0014
X0.9123 Y1.5764 Z-0.1549 I-0.2377 J-0.0264
X0.9377 Y1.5736 Z-0.1563 I0.0127 J-0.0014
G1 X0.9379 Y1.5753 Z-0.1564
G2 X1.3623 Y1.5736 Z-0.1781 I0.2121 J-0.0253
G3 X1.3877 Y1.5764 Z-0.1795 I0.0127 J0.0014
X0.9123 Y1.5764 Z-0.2039 I-0.2377 J-0.0264
X0.9377 Y1.5736 Z-0.2053 I0.0127 J-0.0014
G1 X0.9379 Y1.5753 Z-0.2054
G2 X1.3623 Y1.5736 Z-0.2271 I0.2121 J-0.0253
G3 X1.3877 Y1.5764 Z-0.2285 I0.0127 J0.0014
X0.9123 Y1.5764 Z-0.2529 I-0.2377 J-0.0264
X0.9377 Y1.5736 Z-0.2543 I0.0127 J-0.0014
G1 X0.9379 Y1.5753
G2 X1.3623 Y1.5736 Z-0.2761 I0.2121 J-0.0253
G3 X1.3877 Y1.5764 Z-0.2775 I0.0127 J0.0014
X1.385 Y1.5942 Z-0.2781 I-0.2377 J-0.0264
X0.9123 Y1.5764 Z-0.3018 I-0.235 J-0.0442
X0.9377 Y1.5736 Z-0.3032 I0.0127 J-0.0014
G1 X0.9379 Y1.5753 Z-0.3033
G2 X1.3623 Y1.5736 Z-0.325 I0.2121 J-0.0253
G3 X1.3877 Y1.5764 Z-0.3264 I0.0127 J0.0014
X0.9123 Y1.5764 Z-0.3508 I-0.2377 J-0.0264
X0.9377 Y1.5736 Z-0.3522 I0.0127 J-0.0014
G1 X0.9379 Y1.5753 Z-0.3523
G2 X1.3623 Y1.5736 Z-0.374 I0.2121 J-0.0253
G3 X1.3877 Y1.5764 Z-0.3754 I0.0127 J0.0014
X0.9123 Y1.5764 Z-0.3998 I-0.2377 J-0.0264
X0.9377 Y1.5736 Z-0.4012 I0.0127 J-0.0014
G1 X0.9379 Y1.5753
G2 X1.3623 Y1.5736 Z-0.423 I0.2121 J-0.0253
G3 X1.3877 Y1.5764 Z-0.4244 I0.0127 J0.0014
X1.385 Y1.5942 Z-0.425 I-0.2377 J-0.0264
X0.9123 Y1.5764 I-0.235 J-0.0442 F4.72
X0.9377 Y1.5736 I0.0127 J-0.0014
G1 X0.9379 Y1.5753
G2 X1.3623 Y1.5736 I0.2121 J-0.0253
G3 X1.3877 Y1.5764 I0.0127 J0.0014
X1.385 Y1.5942 I-0.2377 J-0.0264
G1 X1.3849 Y1.5961
X1.3854 Y1.5979
X1.3864 Y1.5994
X1.3877 Y1.6007
X1.3891 Y1.6019
X1.39 Y1.6035
X1.3905 Y1.6054
X1.3903 Y1.6072
G3 X0.9045 Y1.5773 I-0.2403 J-0.0572
X0.9455 Y1.5727 I0.0205 J-0.0023
G1 X0.9456 Y1.5733
G2 X1.3545 Y1.5727 I0.2044 J-0.0233
G3 X1.3955 Y1.5773 I0.0205 J0.0023
X1.3903 Y1.6072 I-0.2455 J-0.0273
G1 X1.3897 Y1.6089 Z-0.4245
X1.3887 Y1.6104 Z-0.4241
X1.3879 Y1.6113 Z-0.4228
X1.3868 Y1.6121 Z-0.4215
X1.386 Y1.6125 Z-0.4179
Z0.175
X1.2538 Y0.6384
Z0.025
Z0.0071
X1.2537 Y0.6375 Z0.0036 F4.33
Y0.6351 Z0.001
X1.2539 Y0.6334 Z0.0005
X1.2543 Y0.6317 Z0
X1.2552 Y0.6293 Z-0.0001
X1.2565 Y0.6272 Z-0.0002
X1.2581 Y0.6252 Z-0.0003
X1.3197 Y0.5636 Z-0.0033
G3 X1.3413 Y0.5852 Z-0.005 I0.0108 J0.0108
G1 X1.2797 Y0.6468 Z-0.008
G3 X1.2581 Y0.6468 Z-0.0089 I-0.0108 J-0.0108
X1.2581 Y0.6252 Z-0.0097 I0.0108 J-0.0108
G1 X1.3197 Y0.5636 Z-0.0127
G3 X1.3413 Y0.5852 Z-0.0144 I0.0108 J0.0108
G1 X1.2797 Y0.6468 Z-0.0175
G3 X1.2581 Y0.6468 Z-0.0183 I-0.0108 J-0.0108
X1.2581 Y0.6252 Z-0.0191 I0.0108 J-0.0108
G1 X1.3197 Y0.5636 Z-0.0222
G3 X1.3413 Y0.5852 Z-0.0238 I0.0108 J0.0108
G1 X1.2797 Y0.6468 Z-0.0269
G3 X1.2581 Y0.6468 Z-0.0277 I-0.0108 J-0.0108
X1.2581 Y0.6252 Z-0.0286 I0.0108 J-0.0108
G1 X1.3197 Y0.5636 Z-0.0316
G3 X1.3413 Y0.5852 Z-0.0333 I0.0108 J0.0108
G1 X1.2797 Y0.6468 Z-0.0363
G3 X1.2581 Y0.6468 Z-0.0372 I-0.0108 J-0.0108
X1.2581 Y0.6252 Z-0.038 I0.0108 J-0.0108
G1 X1.3197 Y0.5636 Z-0.041
G3 X1.3413 Y0.5852 Z-0.0427 I0.0108 J0.0108
G1 X1.2797 Y0.6468 Z-0.0458
G3 X1.2581 Y0.6468 Z-0.0466 I-0.0108 J-0.0108
X1.2581 Y0.6252 Z-0.0474 I0.0108 J-0.0108
G1 X1.3197 Y0.5636 Z-0.0505
G3 X1.3413 Y0.5852 Z-0.0521 I0.0108 J0.0108
G1 X1.2797 Y0.6468 Z-0.0552
G3 X1.2581 Y0.6468 Z-0.056 I-0.0108 J-0.0108
X1.2581 Y0.6252 Z-0.0569 I0.0108 J-0.0108
G1 X1.3197 Y0.5636 Z-0.0599
G3 X1.3413 Y0.5852 Z-0.0616 I0.0108 J0.0108
G1 X1.2797 Y0.6468 Z-0.0646
G3 X1.2581 Y0.6468 Z-0.0655 I-0.0108 J-0.0108
X1.2581 Y0.6252 Z-0.0663 I0.0108 J-0.0108
G1 X1.3197 Y0.5636 Z-0.0693
G3 X1.3413 Y0.5852 Z-0.071 I0.0108 J0.0108
G1 X1.2797 Y0.6468 Z-0.0741
G3 X1.2581 Y0.6468 Z-0.0749 I-0.0108 J-0.0108
X1.2581 Y0.6252 Z-0.0757 I0.0108 J-0.0108
G1 X1.3197 Y0.5636 Z-0.0788
G3 X1.3413 Y0.5852 Z-0.0804 I0.0108 J0.0108
G1 X1.2797 Y0.6468 Z-0.0835
G3 X1.2581 Y0.6468 Z-0.0843 I-0.0108 J-0.0108
X1.2581 Y0.6252 Z-0.0852 I0.0108 J-0.0108
G1 X1.3197 Y0.5636 Z-0.0882
G3 X1.3413 Y0.5852 Z-0.0899 I0.0108 J0.0108
G1 X1.2797 Y0.6468 Z-0.0929
G3 X1.2581 Y0.6468 Z-0.0938 I-0.0108 J-0.0108
X1.2581 Y0.6252 Z-0.0946 I0.0108 J-0.0108
G1 X1.3197 Y0.5636 Z-0.0976
G3 X1.3413 Y0.5852 Z-0.0993 I0.0108 J0.0108
G1 X1.2797 Y0.6468 Z-0.1024
G3 X1.2581 Y0.6468 Z-0.1032 I-0.0108 J-0.0108
X1.2581 Y0.6252 Z-0.104 I0.0108 J-0.0108
G1 X1.3197 Y0.5636 Z-0.1071
G3 X1.3413 Y0.5852 Z-0.1087 I0.0108 J0.0108
G1 X1.2797 Y0.6468 Z-0.1118
G3 X1.2581 Y0.6468 Z-0.1126 I-0.0108 J-0.0108
X1.2581 Y0.6252 Z-0.1135 I0.0108 J-0.0108
G1 X1.3197 Y0.5636 Z-0.1165
G3 X1.3413 Y0.5852 Z-0.1182 I0.0108 J0.0108
G1 X1.2797 Y0.6468 Z-0.1212
G3 X1.2581 Y0.6468 Z-0.1221 I-0.0108 J-0.0108
X1.2581 Y0.6252 Z-0.1229 I0.0108 J-0.0108
G1 X1.3197 Y0.5636 Z-0.1259
G3 X1.3413 Y0.5852 Z-0.1276 I0.0108 J0.0108
G1 X1.2797 Y0.6468 Z-0.1306
G3 X1.2581 Y0.6468 Z-0.1315 I-0.0108 J-0.0108
X1.2581 Y0.6252 Z-0.1323 I0.0108 J-0.0108
G1 X1.3197 Y0.5636 Z-0.1354
G3 X1.3413 Y0.5852 Z-0.137 I0.0108 J0.0108
G1 X1.2797 Y0.6468 Z-0.1401
G3 X1.2581 Y0.6468 Z-0.1409 I-0.0108 J-0.0108
X1.2581 Y0.6252 Z-0.1418 I0.0108 J-0.0108
G1 X1.3197 Y0.5636 Z-0.1448
G3 X1.3413 Y0.5852 Z-0.1465 I0.0108 J0.0108
G1 X1.2797 Y0.6468 Z-0.1495
G3 X1.2581 Y0.6468 Z-0.1504 I-0.0108 J-0.0108
X1.2581 Y0.6252 Z-0.1512 I0.0108 J-0.0108
G1 X1.3197 Y0.5636 Z-0.1542
G3 X1.3413 Y0.5852 Z-0.1559 I0.0108 J0.0108
G1 X1.2797 Y0.6468 Z-0.1589
G3 X1.2581 Y0.6468 Z-0.1598 I-0.0108 J-0.0108
X1.2581 Y0.6252 Z-0.1606 I0.0108 J-0.0108
G1 X1.3197 Y0.5636 Z-0.1637
G3 X1.3413 Y0.5852 Z-0.1653 I0.0108 J0.0108
G1 X1.2797 Y0.6468 Z-0.1684
G3 X1.2581 Y0.6468 Z-0.1692 I-0.0108 J-0.0108
X1.2581 Y0.6252 Z-0.1701 I0.0108 J-0.0108
G1 X1.3197 Y0.5636 Z-0.1731
G3 X1.3413 Y0.5852 Z-0.1748 I0.0108 J0.0108
G1 X1.2797 Y0.6468 Z-0.1778
G3 X1.2581 Y0.6468 Z-0.1787 I-0.0108 J-0.0108
X1.2581 Y0.6252 Z-0.1795 I0.0108 J-0.0108
G1 X1.3197 Y0.5636 Z-0.1825
G3 X1.3413 Y0.5852 Z-0.1842 I0.0108 J0.0108
G1 X1.2797 Y0.6468 Z-0.1872
G3 X1.2581 Y0.6468 Z-0.1881 I-0.0108 J-0.0108
X1.2581 Y0.6252 Z-0.1889 I0.0108 J-0.0108
G1 X1.3197 Y0.5636 Z-0.192
G3 X1.3413 Y0.5852 Z-0.1936 I0.0108 J0.0108
G1 X1.2797 Y0.6468 Z-0.1967
G3 X1.2581 Y0.6468 Z-0.1975 I-0.0108 J-0.0108
X1.2581 Y0.6252 Z-0.1984 I0.0108 J-0.0108
G1 X1.3197 Y0.5636 Z-0.2014
G3 X1.3413 Y0.5852 Z-0.2031 I0.0108 J0.0108
G1 X1.2797 Y0.6468 Z-0.2061
G3 X1.2581 Y0.6468 Z-0.2069 I-0.0108 J-0.0108
X1.2581 Y0.6252 Z-0.2078 I0.0108 J-0.0108
G1 X1.3197 Y0.5636 Z-0.2108
G3 X1.3413 Y0.5852 Z-0.2125 I0.0108 J0.0108
G1 X1.2797 Y0.6468 Z-0.2155
G3 X1.2581 Y0.6468 Z-0.2164 I-0.0108 J-0.0108
X1.2581 Y0.6252 Z-0.2172 I0.0108 J-0.0108
G1 X1.3197 Y0.5636 Z-0.2203
G3 X1.3413 Y0.5852 Z-0.2219 I0.0108 J0.0108
G1 X1.2797 Y0.6468 Z-0.225
G3 X1.2581 Y0.6468 Z-0.2258 I-0.0108 J-0.0108
X1.2581 Y0.6252 Z-0.2267 I0.0108 J-0.0108
G1 X1.3197 Y0.5636 Z-0.2297
G3 X1.3413 Y0.5852 Z-0.2314 I0.0108 J0.0108
G1 X1.2797 Y0.6468 Z-0.2344
G3 X1.2581 Y0.6468 Z-0.2352 I-0.0108 J-0.0108
X1.2581 Y0.6252 Z-0.2361 I0.0108 J-0.0108
G1 X1.3197 Y0.5636 Z-0.2391
G3 X1.3413 Y0.5852 Z-0.2408 I0.0108 J0.0108
G1 X1.2797 Y0.6468 Z-0.2438
G3 X1.2581 Y0.6468 Z-0.2447 I-0.0108 J-0.0108
X1.2581 Y0.6252 Z-0.2455 I0.0108 J-0.0108
G1 X1.3197 Y0.5636 Z-0.2486
G3 X1.3413 Y0.5852 Z-0.2502 I0.0108 J0.0108
G1 X1.2797 Y0.6468 Z-0.2533
G3 X1.2581 Y0.6468 Z-0.2541 I-0.0108 J-0.0108
X1.2581 Y0.6252 Z-0.2549 I0.0108 J-0.0108
G1 X1.3197 Y0.5636 Z-0.258
G3 X1.3413 Y0.5852 Z-0.2597 I0.0108 J0.0108
G1 X1.2797 Y0.6468 Z-0.2627
G3 X1.2581 Y0.6468 Z-0.2635 I-0.0108 J-0.0108
X1.2581 Y0.6252 Z-0.2644 I0.0108 J-0.0108
G1 X1.3197 Y0.5636 Z-0.2674
G3 X1.3413 Y0.5852 Z-0.2691 I0.0108 J0.0108
G1 X1.2797 Y0.6468 Z-0.2721
G3 X1.2581 Y0.6468 Z-0.273 I-0.0108 J-0.0108
X1.2581 Y0.6252 Z-0.2738 I0.0108 J-0.0108
G1 X1.3197 Y0.5636 Z-0.2769
G3 X1.3413 Y0.5852 Z-0.2785 I0.0108 J0.0108
G1 X1.2797 Y0.6468 Z-0.2816
G3 X1.2581 Y0.6468 Z-0.2824 I-0.0108 J-0.0108
X1.2581 Y0.6252 Z-0.2832 I0.0108 J-0.0108
G1 X1.3197 Y0.5636 Z-0.2863
G3 X1.3413 Y0.5852 Z-0.288 I0.0108 J0.0108
G1 X1.2797 Y0.6468 Z-0.291
G3 X1.2581 Y0.6468 Z-0.2918 I-0.0108 J-0.0108
X1.2581 Y0.6252 Z-0.2927 I0.0108 J-0.0108
G1 X1.3197 Y0.5636 Z-0.2957
G3 X1.3413 Y0.5852 Z-0.2974 I0.0108 J0.0108
G1 X1.2797 Y0.6468 Z-0.3004
G3 X1.2581 Y0.6468 Z-0.3013 I-0.0108 J-0.0108
X1.2581 Y0.6252 Z-0.3021 I0.0108 J-0.0108
G1 X1.3197 Y0.5636 Z-0.3052
G3 X1.3413 Y0.5852 Z-0.3068 I0.0108 J0.0108
G1 X1.2797 Y0.6468 Z-0.3099
G3 X1.2581 Y0.6468 Z-0.3107 I-0.0108 J-0.0108
X1.2581 Y0.6252 Z-0.3115 I0.0108 J-0.0108
G1 X1.3197 Y0.5636 Z-0.3146
G3 X1.3413 Y0.5852 Z-0.3163 I0.0108 J0.0108
G1 X1.2797 Y0.6468 Z-0.3193
G3 X1.2581 Y0.6468 Z-0.3201 I-0.0108 J-0.0108
X1.2581 Y0.6252 Z-0.321 I0.0108 J-0.0108
G1 X1.3197 Y0.5636 Z-0.324
G3 X1.3413 Y0.5852 Z-0.3257 I0.0108 J0.0108
G1 X1.2797 Y0.6468 Z-0.3287
G3 X1.2581 Y0.6468 Z-0.3296 I-0.0108 J-0.0108
X1.2581 Y0.6252 Z-0.3304 I0.0108 J-0.0108
G1 X1.3197 Y0.5636 Z-0.3335
G3 X1.3413 Y0.5852 Z-0.3351 I0.0108 J0.0108
G1 X1.2797 Y0.6468 Z-0.3382
G3 X1.2581 Y0.6468 Z-0.339 I-0.0108 J-0.0108
X1.2581 Y0.6252 Z-0.3398 I0.0108 J-0.0108
G1 X1.3197 Y0.5636 Z-0.3429
G3 X1.3413 Y0.5852 Z-0.3446 I0.0108 J0.0108
G1 X1.2797 Y0.6468 Z-0.3476
G3 X1.2581 Y0.6468 Z-0.3484 I-0.0108 J-0.0108
X1.2581 Y0.6252 Z-0.3493 I0.0108 J-0.0108
G1 X1.3197 Y0.5636 Z-0.3523
G3 X1.3413 Y0.5852 Z-0.354 I0.0108 J0.0108
G1 X1.2797 Y0.6468 Z-0.357
G3 X1.2581 Y0.6468 Z-0.3579 I-0.0108 J-0.0108
X1.2581 Y0.6252 Z-0.3587 I0.0108 J-0.0108
G1 X1.3197 Y0.5636 Z-0.3618
G3 X1.3413 Y0.5852 Z-0.3634 I0.0108 J0.0108
G1 X1.2797 Y0.6468 Z-0.3665
G3 X1.2581 Y0.6468 Z-0.3673 I-0.0108 J-0.0108
X1.2581 Y0.6252 Z-0.3681 I0.0108 J-0.0108
G1 X1.3197 Y0.5636 Z-0.3712
G3 X1.3413 Y0.5852 Z-0.3729 I0.0108 J0.0108
G1 X1.2797 Y0.6468 Z-0.3759
G3 X1.2581 Y0.6468 Z-0.3767 I-0.0108 J-0.0108
X1.2581 Y0.6252 Z-0.3776 I0.0108 J-0.0108
G1 X1.3197 Y0.5636 Z-0.3806
G3 X1.3413 Y0.5852 Z-0.3823 I0.0108 J0.0108
G1 X1.2797 Y0.6468 Z-0.3853
G3 X1.2581 Y0.6468 Z-0.3862 I-0.0108 J-0.0108
X1.2581 Y0.6252 Z-0.387 I0.0108 J-0.0108
G1 X1.3197 Y0.5636 Z-0.3901
G3 X1.3413 Y0.5852 Z-0.3917 I0.0108 J0.0108
G1 X1.2797 Y0.6468 Z-0.3948
G3 X1.2581 Y0.6468 Z-0.3956 I-0.0108 J-0.0108
X1.2581 Y0.6252 Z-0.3964 I0.0108 J-0.0108
G1 X1.3197 Y0.5636 Z-0.3995
G3 X1.3413 Y0.5852 Z-0.4012 I0.0108 J0.0108
G1 X1.2797 Y0.6468 Z-0.4042
G3 X1.2581 Y0.6468 Z-0.405 I-0.0108 J-0.0108
X1.2581 Y0.6252 Z-0.4059 I0.0108 J-0.0108
G1 X1.3197 Y0.5636 Z-0.4089
G3 X1.3413 Y0.5852 Z-0.4106 I0.0108 J0.0108
G1 X1.2797 Y0.6468 Z-0.4136
G3 X1.2581 Y0.6468 Z-0.4145 I-0.0108 J-0.0108
X1.2581 Y0.6252 Z-0.4153 I0.0108 J-0.0108
G1 X1.3197 Y0.5636 Z-0.4183
G3 X1.3413 Y0.5852 Z-0.42 I0.0108 J0.0108
G1 X1.2797 Y0.6468 Z-0.4231
G3 X1.2581 Y0.6468 Z-0.4239 I-0.0108 J-0.0108
X1.2581 Y0.6252 Z-0.4247 I0.0108 J-0.0108
G1 X1.2634 Y0.6199 Z-0.425
X1.3197 Y0.5636 F4.72
G3 X1.3413 Y0.5852 I0.0108 J0.0108
G1 X1.2797 Y0.6468
G3 X1.2581 Y0.6468 I-0.0108 J-0.0108
X1.2581 Y0.6252 I0.0108 J-0.0108
G1 X1.2634 Y0.6199
X1.2645 Y0.6184
X1.2652 Y0.6167
X1.2653 Y0.6148
X1.2648 Y0.613
X1.2643 Y0.6112
X1.2644 Y0.6093
X1.2651 Y0.6075
X1.2662 Y0.606
X1.3142 Y0.5581
G3 X1.3469 Y0.5908 I0.0164 J0.0164
G1 X1.2853 Y0.6524
G3 X1.2525 Y0.6524 I-0.0164 J-0.0164
X1.2525 Y0.6197 I0.0164 J-0.0164
G1 X1.2662 Y0.606
X1.2676 Y0.6049 Z-0.4245
X1.2692 Y0.6042 Z-0.4241
X1.2704 Y0.6038 Z-0.4228
X1.2717 Y0.6037 Z-0.4215
X1.2726 Y0.6038 Z-0.4179
Z0.175
X0.5014 Y0.9166
Z0.025
Z0.0071
Y0.9164 Z0.0053 F4.33
Y0.9157 Z0.0036
Y0.9146 Z0.0022
Y0.9132 Z0.001
Y0.9116 Z0.0003
Y0.9098 Z0
Y0.9038 Z-0.0002
X0.5017 Y0.9026 Z-0.0003
X0.5025 Y0.9016
X0.5036 Y0.9011
X0.5048 Z-0.0004
X0.5059 Y0.9016
X0.5067 Y0.9026 Z-0.0005
X0.507 Y0.9038
Y1.1538 Z-0.0092
X0.5067 Y1.155 Z-0.0093
X0.5059 Y1.1559
X0.5048 Y1.1565 Z-0.0094
X0.5036
X0.5025 Y1.1559 Z-0.0095
X0.5017 Y1.155
X0.5014 Y1.1538
Y0.9038 Z-0.0183
X0.5017 Y0.9026
X0.5025 Y0.9016 Z-0.0184
X0.5036 Y0.9011
X0.5048
X0.5059 Y0.9016 Z-0.0185
X0.5067 Y0.9026
X0.507 Y0.9038 Z-0.0186
Y1.1538 Z-0.0273
X0.5067 Y1.155 Z-0.0274
X0.5059 Y1.1559
X0.5048 Y1.1565
X0.5036 Z-0.0275
X0.5025 Y1.1559
X0.5017 Y1.155 Z-0.0276
X0.5014 Y1.1538
Y0.9038 Z-0.0363
X0.5017 Y0.9026 Z-0.0364
X0.5025 Y0.9016
X0.5036 Y0.9011 Z-0.0365
X0.5048
X0.5059 Y0.9016 Z-0.0366
X0.5067 Y0.9026
X0.507 Y0.9038
Y1.1538 Z-0.0454
X0.5067 Y1.155
X0.5059 Y1.1559 Z-0.0455
X0.5048 Y1.1565
X0.5036
X0.5025 Y1.1559 Z-0.0456
X0.5017 Y1.155
X0.5014 Y1.1538 Z-0.0457
Y0.9038 Z-0.0544
X0.5017 Y0.9026
X0.5025 Y0.9016 Z-0.0545
X0.5036 Y0.9011
X0.5048 Z-0.0546
X0.5059 Y0.9016
X0.5067 Y0.9026 Z-0.0547
X0.507 Y0.9038
Y1.1538 Z-0.0634
X0.5067 Y1.155 Z-0.0635
X0.5059 Y1.1559
X0.5048 Y1.1565 Z-0.0636
X0.5036
X0.5025 Y1.1559 Z-0.0637
X0.5017 Y1.155
X0.5014 Y1.1538
Y0.9038 Z-0.0725
X0.5017 Y0.9026
X0.5025 Y0.9016 Z-0.0726
X0.5036 Y0.9011
X0.5048
X0.5059 Y0.9016 Z-0.0727
X0.5067 Y0.9026
X0.507 Y0.9038 Z-0.0728
Y1.1538 Z-0.0815
X0.5067 Y1.155
X0.5059 Y1.1559 Z-0.0816
X0.5048 Y1.1565
X0.5036 Z-0.0817
X0.5025 Y1.1559
X0.5017 Y1.155 Z-0.0818
X0.5014 Y1.1538
Y0.9038 Z-0.0905
X0.5017 Y0.9026 Z-0.0906
X0.5025 Y0.9016
X0.5036 Y0.9011 Z-0.0907
X0.5048
X0.5059 Y0.9016 Z-0.0908
X0.5067 Y0.9026
X0.507 Y0.9038
Y1.1538 Z-0.0996
X0.5067 Y1.155
X0.5059 Y1.1559 Z-0.0997
X0.5048 Y1.1565
X0.5036
X0.5025 Y1.1559 Z-0.0998
X0.5017 Y1.155
X0.5014 Y1.1538 Z-0.0999
Y0.9038 Z-0.1086
X0.5017 Y0.9026
X0.5025 Y0.9016 Z-0.1087
X0.5036 Y0.9011
X0.5048 Z-0.1088
X0.5059 Y0.9016
X0.5067 Y0.9026 Z-0.1089
X0.507 Y0.9038
Y1.1538 Z-0.1176
X0.5067 Y1.155 Z-0.1177
X0.5059 Y1.1559
X0.5048 Y1.1565 Z-0.1178
X0.5036
X0.5025 Y1.1559
X0.5017 Y1.155 Z-0.1179
X0.5014 Y1.1538
Y0.9038 Z-0.1267
X0.5017 Y0.9026
X0.5025 Y0.9016 Z-0.1268
X0.5036 Y0.9011
X0.5048
X0.5059 Y0.9016 Z-0.1269
X0.5067 Y0.9026
X0.507 Y0.9038 Z-0.127
Y1.1538 Z-0.1357
X0.5067 Y1.155
X0.5059 Y1.1559 Z-0.1358
X0.5048 Y1.1565
X0.5036 Z-0.1359
X0.5025 Y1.1559
X0.5017 Y1.155 Z-0.136
X0.5014 Y1.1538
Y0.9038 Z-0.1447
X0.5017 Y0.9026 Z-0.1448
X0.5025 Y0.9016
X0.5036 Y0.9011 Z-0.1449
X0.5048
X0.5059 Y0.9016
X0.5067 Y0.9026 Z-0.145
X0.507 Y0.9038
Y1.1538 Z-0.1538
X0.5067 Y1.155
X0.5059 Y1.1559
X0.5048 Y1.1565 Z-0.1539
X0.5036
X0.5025 Y1.1559 Z-0.154
X0.5017 Y1.155
X0.5014 Y1.1538 Z-0.1541
Y0.9038 Z-0.1628
X0.5017 Y0.9026
X0.5025 Y0.9016 Z-0.1629
X0.5036 Y0.9011
X0.5048 Z-0.163
X0.5059 Y0.9016
X0.5067 Y0.9026 Z-0.1631
X0.507 Y0.9038
Y1.1538 Z-0.1718
X0.5067 Y1.155 Z-0.1719
X0.5059 Y1.1559
X0.5048 Y1.1565 Z-0.172
X0.5036
X0.5025 Y1.1559
X0.5017 Y1.155 Z-0.1721
X0.5014 Y1.1538
Y0.9038 Z-0.1809
X0.5017 Y0.9026
X0.5025 Y0.9016
X0.5036 Y0.9011 Z-0.181
X0.5048
X0.5059 Y0.9016 Z-0.1811
X0.5067 Y0.9026
X0.507 Y0.9038 Z-0.1812
Y1.1538 Z-0.1899
X0.5067 Y1.155
X0.5059 Y1.1559 Z-0.19
X0.5048 Y1.1565
X0.5036 Z-0.1901
X0.5025 Y1.1559
X0.5017 Y1.155 Z-0.1902
X0.5014 Y1.1538
Y0.9038 Z-0.1989
X0.5017 Y0.9026 Z-0.199
X0.5025 Y0.9016
X0.5036 Y0.9011 Z-0.1991
X0.5048
X0.5059 Y0.9016
X0.5067 Y0.9026 Z-0.1992
X0.507 Y0.9038
Y1.1538 Z-0.208
X0.5067 Y1.155
X0.5059 Y1.1559
X0.5048 Y1.1565 Z-0.2081
X0.5036
X0.5025 Y1.1559 Z-0.2082
X0.5017 Y1.155
X0.5014 Y1.1538 Z-0.2083
Y0.9038 Z-0.217
X0.5017 Y0.9026
X0.5025 Y0.9016 Z-0.2171
X0.5036 Y0.9011
X0.5048 Z-0.2172
X0.5059 Y0.9016
X0.5067 Y0.9026
X0.507 Y0.9038 Z-0.2173
Y1.1538 Z-0.226
X0.5067 Y1.155 Z-0.2261
X0.5059 Y1.1559
X0.5048 Y1.1565 Z-0.2262
X0.5036
X0.5025 Y1.1559
X0.5017 Y1.155 Z-0.2263
X0.5014 Y1.1538
Y0.9038 Z-0.2351
X0.5017 Y0.9026
X0.5025 Y0.9016
X0.5036 Y0.9011 Z-0.2352
X0.5048
X0.5059 Y0.9016 Z-0.2353
X0.5067 Y0.9026
X0.507 Y0.9038 Z-0.2354
Y1.1538 Z-0.2441
X0.5067 Y1.155
X0.5059 Y1.1559 Z-0.2442
X0.5048 Y1.1565
X0.5036 Z-0.2443
X0.5025 Y1.1559
X0.5017 Y1.155
X0.5014 Y1.1538 Z-0.2444
Y0.9038 Z-0.2531
X0.5017 Y0.9026 Z-0.2532
X0.5025 Y0.9016
X0.5036 Y0.9011 Z-0.2533
X0.5048
X0.5059 Y0.9016
X0.5067 Y0.9026 Z-0.2534
X0.507 Y0.9038
Y1.1538 Z-0.2622
X0.5067 Y1.155
X0.5059 Y1.1559
X0.5048 Y1.1565 Z-0.2623
X0.5036
X0.5025 Y1.1559 Z-0.2624
X0.5017 Y1.155
X0.5014 Y1.1538 Z-0.2625
Y0.9038 Z-0.2712
X0.5017 Y0.9026
X0.5025 Y0.9016 Z-0.2713
X0.5036 Y0.9011
X0.5048 Z-0.2714
X0.5059 Y0.9016
X0.5067 Y0.9026
X0.507 Y0.9038 Z-0.2715
Y1.1538 Z-0.2802
X0.5067 Y1.155 Z-0.2803
X0.5059 Y1.1559
X0.5048 Y1.1565
X0.5036 Z-0.2804
X0.5025 Y1.1559
X0.5017 Y1.155 Z-0.2805
X0.5014 Y1.1538
Y0.9038 Z-0.2893
X0.5017 Y0.9026
X0.5025 Y0.9016
X0.5036 Y0.9011 Z-0.2894
X0.5048
X0.5059 Y0.9016 Z-0.2895
X0.5067 Y0.9026
X0.507 Y0.9038 Z-0.2896
Y1.1538 Z-0.2983
X0.5067 Y1.155
X0.5059 Y1.1559 Z-0.2984
X0.5048 Y1.1565
X0.5036 Z-0.2985
X0.5025 Y1.1559
X0.5017 Y1.155
X0.5014 Y1.1538 Z-0.2986
Y0.9038 Z-0.3073
X0.5017 Y0.9026 Z-0.3074
X0.5025 Y0.9016
X0.5036 Y0.9011
X0.5048 Z-0.3075
X0.5059 Y0.9016
X0.5067 Y0.9026 Z-0.3076
X0.507 Y0.9038
Y1.1538 Z-0.3163
X0.5067 Y1.155 Z-0.3164
X0.5059 Y1.1559
X0.5048 Y1.1565 Z-0.3165
X0.5036
X0.5025 Y1.1559 Z-0.3166
X0.5017 Y1.155
X0.5014 Y1.1538 Z-0.3167
Y0.9038 Z-0.3254
X0.5017 Y0.9026
X0.5025 Y0.9016 Z-0.3255
X0.5036 Y0.9011
X0.5048 Z-0.3256
X0.5059 Y0.9016
X0.5067 Y0.9026
X0.507 Y0.9038 Z-0.3257
Y1.1538 Z-0.3344
X0.5067 Y1.155 Z-0.3345
X0.5059 Y1.1559
X0.5048 Y1.1565
X0.5036 Z-0.3346
X0.5025 Y1.1559
X0.5017 Y1.155 Z-0.3347
X0.5014 Y1.1538
Y0.9038 Z-0.3434
X0.5017 Y0.9026 Z-0.3435
X0.5025 Y0.9016
X0.5036 Y0.9011 Z-0.3436
X0.5048
X0.5059 Y0.9016 Z-0.3437
X0.5067 Y0.9026
X0.507 Y0.9038
Y1.1538 Z-0.3525
X0.5067 Y1.155
X0.5059 Y1.1559 Z-0.3526
X0.5048 Y1.1565
X0.5036 Z-0.3527
X0.5025 Y1.1559
X0.5017 Y1.155
X0.5014 Y1.1538 Z-0.3528
Y0.9038 Z-0.3615
X0.5017 Y0.9026 Z-0.3616
X0.5025 Y0.9016
X0.5036 Y0.9011
X0.5048 Z-0.3617
X0.5059 Y0.9016
X0.5067 Y0.9026 Z-0.3618
X0.507 Y0.9038
Y1.1538 Z-0.3705
X0.5067 Y1.155 Z-0.3706
X0.5059 Y1.1559
X0.5048 Y1.1565 Z-0.3707
X0.5036
X0.5025 Y1.1559 Z-0.3708
X0.5017 Y1.155
X0.5014 Y1.1538
Y0.9038 Z-0.3796
X0.5017 Y0.9026
X0.5025 Y0.9016 Z-0.3797
X0.5036 Y0.9011
X0.5048
X0.5059 Y0.9016 Z-0.3798
X0.5067 Y0.9026
X0.507 Y0.9038 Z-0.3799
Y1.1538 Z-0.3886
X0.5067 Y1.155 Z-0.3887
X0.5059 Y1.1559
X0.5048 Y1.1565
X0.5036 Z-0.3888
X0.5025 Y1.1559
X0.5017 Y1.155 Z-0.3889
X0.5014 Y1.1538
Y0.9038 Z-0.3976
X0.5017 Y0.9026 Z-0.3977
X0.5025 Y0.9016
X0.5036 Y0.9011 Z-0.3978
X0.5048
X0.5059 Y0.9016 Z-0.3979
X0.5067 Y0.9026
X0.507 Y0.9038
Y1.1538 Z-0.4067
X0.5067 Y1.155
X0.5059 Y1.1559 Z-0.4068
X0.5048 Y1.1565
X0.5036
X0.5025 Y1.1559 Z-0.4069
X0.5017 Y1.155
X0.5014 Y1.1538 Z-0.407
Y0.9038 Z-0.4157
X0.5017 Y0.9026
X0.5025 Y0.9016 Z-0.4158
X0.5036 Y0.9011
X0.5048 Z-0.4159
X0.5059 Y0.9016
X0.5067 Y0.9026 Z-0.416
X0.507 Y0.9038
Y1.1538 Z-0.4247
X0.5067 Y1.155 Z-0.4248
X0.5059 Y1.1559
X0.5048 Y1.1565 Z-0.4249
X0.5035 Y1.1564
X0.5024 Y1.1559 Z-0.425
X0.5017 Y1.1549
X0.5014 Y1.1538 F4.72
Y0.9038
X0.5017 Y0.9026
X0.5025 Y0.9016
X0.5036 Y0.9011
X0.5048
X0.5059 Y0.9016
X0.5067 Y0.9026
X0.507 Y0.9038
Y1.1538
X0.5067 Y1.155
X0.5059 Y1.1559
X0.5048 Y1.1565
X0.5035 Y1.1564
X0.5024 Y1.1559
X0.5017 Y1.1549
X0.5006 Y1.1532
X0.499 Y1.1519
X0.4972 Y1.1511
X0.4957 Y1.1505
X0.4946 Y1.1494
X0.4938 Y1.1481
X0.4936 Y1.1465
Y0.9038
G3 X0.5148 Y0.9038 I0.0106 J0
G1 Y1.1538
G3 X0.4936 Y1.1538 I-0.0106 J0
G1 Y1.1465
X0.4938 Y1.1447 Z-0.4245
X0.4944 Y1.1431 Z-0.4241
X0.495 Y1.142 Z-0.4228
X0.4958 Y1.141 Z-0.4215
X0.4965 Y1.1403 Z-0.4179
Z0.175
X2.1601 Y0.4138
Z0.025
Z0.0071
X2.1598 Y0.413 Z0.0036 F4.33
X2.1589 Y0.4107 Z0.001
X2.1579 Y0.4074 Z0
G3 X2.2305 Y0.3893 Z-0.0041 I0.0363 J-0.009
X2.1579 Y0.4074 Z-0.0082 I-0.0363 J0.009
X2.2305 Y0.3893 Z-0.0123 I0.0363 J-0.009
X2.1579 Y0.4074 Z-0.0164 I-0.0363 J0.009
X2.2305 Y0.3893 Z-0.0205 I0.0363 J-0.009
X2.1579 Y0.4074 Z-0.0246 I-0.0363 J0.009
X2.2305 Y0.3893 Z-0.0287 I0.0363 J-0.009
X2.1579 Y0.4074 Z-0.0328 I-0.0363 J0.009
X2.2305 Y0.3893 Z-0.0369 I0.0363 J-0.009
X2.1579 Y0.4074 Z-0.041 I-0.0363 J0.009
X2.2305 Y0.3893 Z-0.0451 I0.0363 J-0.009
X2.1579 Y0.4074 Z-0.0492 I-0.0363 J0.009
X2.2305 Y0.3893 Z-0.0533 I0.0363 J-0.009
X2.1579 Y0.4074 Z-0.0574 I-0.0363 J0.009
X2.2305 Y0.3893 Z-0.0615 I0.0363 J-0.009
X2.1579 Y0.4074 Z-0.0657 I-0.0363 J0.009
X2.2305 Y0.3893 Z-0.0698 I0.0363 J-0.009
X2.1579 Y0.4074 Z-0.0739 I-0.0363 J0.009
X2.2305 Y0.3893 Z-0.078 I0.0363 J-0.009
X2.1579 Y0.4074 Z-0.0821 I-0.0363 J0.009
X2.2305 Y0.3893 Z-0.0862 I0.0363 J-0.009
X2.1579 Y0.4074 Z-0.0903 I-0.0363 J0.009
X2.2305 Y0.3893 Z-0.0944 I0.0363 J-0.009
X2.1579 Y0.4074 Z-0.0985 I-0.0363 J0.009
X2.2305 Y0.3893 Z-0.1026 I0.0363 J-0.009
X2.1579 Y0.4074 Z-0.1067 I-0.0363 J0.009
X2.2305 Y0.3893 Z-0.1108 I0.0363 J-0.009
X2.1579 Y0.4074 Z-0.1149 I-0.0363 J0.009
X2.2305 Y0.3893 Z-0.119 I0.0363 J-0.009
X2.1579 Y0.4074 Z-0.1231 I-0.0363 J0.009
X2.2305 Y0.3893 Z-0.1272 I0.0363 J-0.009
X2.1579 Y0.4074 Z-0.1313 I-0.0363 J0.009
X2.2305 Y0.3893 Z-0.1354 I0.0363 J-0.009
X2.1579 Y0.4074 Z-0.1395 I-0.0363 J0.009
X2.2305 Y0.3893 Z-0.1436 I0.0363 J-0.009
X2.1579 Y0.4074 Z-0.1477 I-0.0363 J0.009
X2.2305 Y0.3893 Z-0.1518 I0.0363 J-0.009
X2.1579 Y0.4074 Z-0.1559 I-0.0363 J0.009
X2.2305 Y0.3893 Z-0.16 I0.0363 J-0.009
X2.1579 Y0.4074 Z-0.1641 I-0.0363 J0.009
X2.2305 Y0.3893 Z-0.1682 I0.0363 J-0.009
X2.1579 Y0.4074 Z-0.1723 I-0.0363 J0.009
X2.2305 Y0.3893 Z-0.1764 I0.0363 J-0.009
X2.1579 Y0.4074 Z-0.1805 I-0.0363 J0.009
X2.2305 Y0.3893 Z-0.1846 I0.0363 J-0.009
X2.1579 Y0.4074 Z-0.1887 I-0.0363 J0.009
X2.2305 Y0.3893 Z-0.1929 I0.0363 J-0.009
X2.1579 Y0.4074 Z-0.197 I-0.0363 J0.009
X2.2305 Y0.3893 Z-0.2011 I0.0363 J-0.009
X2.1579 Y0.4074 Z-0.2052 I-0.0363 J0.009
X2.2305 Y0.3893 Z-0.2093 I0.0363 J-0.009
X2.1579 Y0.4074 Z-0.2134 I-0.0363 J0.009
X2.2305 Y0.3893 Z-0.2175 I0.0363 J-0.009
X2.1579 Y0.4074 Z-0.2216 I-0.0363 J0.009
X2.2305 Y0.3893 Z-0.2257 I0.0363 J-0.009
X2.1579 Y0.4074 Z-0.2298 I-0.0363 J0.009
X2.2305 Y0.3893 Z-0.2339 I0.0363 J-0.009
X2.1579 Y0.4074 Z-0.238 I-0.0363 J0.009
X2.2305 Y0.3893 Z-0.2421 I0.0363 J-0.009
X2.1579 Y0.4074 Z-0.2462 I-0.0363 J0.009
X2.2305 Y0.3893 Z-0.2503 I0.0363 J-0.009
X2.1579 Y0.4074 Z-0.2544 I-0.0363 J0.009
X2.2305 Y0.3893 Z-0.2585 I0.0363 J-0.009
X2.1579 Y0.4074 Z-0.2626 I-0.0363 J0.009
X2.2305 Y0.3893 Z-0.2667 I0.0363 J-0.009
X2.1579 Y0.4074 Z-0.2708 I-0.0363 J0.009
X2.2305 Y0.3893 Z-0.2749 I0.0363 J-0.009
X2.1579 Y0.4074 Z-0.279 I-0.0363 J0.009
X2.2305 Y0.3893 Z-0.2831 I0.0363 J-0.009
X2.1579 Y0.4074 Z-0.2872 I-0.0363 J0.009
X2.2305 Y0.3893 Z-0.2913 I0.0363 J-0.009
X2.1579 Y0.4074 Z-0.2954 I-0.0363 J0.009
X2.2305 Y0.3893 Z-0.2995 I0.0363 J-0.009
X2.1579 Y0.4074 Z-0.3036 I-0.0363 J0.009
X2.2305 Y0.3893 Z-0.3077 I0.0363 J-0.009
X2.1579 Y0.4074 Z-0.3118 I-0.0363 J0.009
X2.2305 Y0.3893 Z-0.3159 I0.0363 J-0.009
X2.1579 Y0.4074 Z-0.3201 I-0.0363 J0.009
X2.2305 Y0.3893 Z-0.3242 I0.0363 J-0.009
X2.1579 Y0.4074 Z-0.3283 I-0.0363 J0.009
X2.2305 Y0.3893 Z-0.3324 I0.0363 J-0.009
X2.1579 Y0.4074 Z-0.3365 I-0.0363 J0.009
X2.2305 Y0.3893 Z-0.3406 I0.0363 J-0.009
X2.1579 Y0.4074 Z-0.3447 I-0.0363 J0.009
X2.2305 Y0.3893 Z-0.3488 I0.0363 J-0.009
X2.1579 Y0.4074 Z-0.3529 I-0.0363 J0.009
X2.2305 Y0.3893 Z-0.357 I0.0363 J-0.009
X2.1579 Y0.4074 Z-0.3611 I-0.0363 J0.009
X2.2305 Y0.3893 Z-0.3652 I0.0363 J-0.009
X2.1579 Y0.4074 Z-0.3693 I-0.0363 J0.009
X2.2305 Y0.3893 Z-0.3734 I0.0363 J-0.009
X2.1579 Y0.4074 Z-0.3775 I-0.0363 J0.009
X2.2305 Y0.3893 Z-0.3816 I0.0363 J-0.009
X2.1579 Y0.4074 Z-0.3857 I-0.0363 J0.009
X2.2305 Y0.3893 Z-0.3898 I0.0363 J-0.009
X2.1579 Y0.4074 Z-0.3939 I-0.0363 J0.009
X2.2305 Y0.3893 Z-0.398 I0.0363 J-0.009
X2.1579 Y0.4074 Z-0.4021 I-0.0363 J0.009
X2.2305 Y0.3893 Z-0.4062 I0.0363 J-0.009
X2.1579 Y0.4074 Z-0.4103 I-0.0363 J0.009
X2.2305 Y0.3893 Z-0.4144 I0.0363 J-0.009
X2.1579 Y0.4074 Z-0.4185 I-0.0363 J0.009
X2.2305 Y0.3893 Z-0.4226 I0.0363 J-0.009
X2.1942 Y0.4358 Z-0.425 I-0.0363 J0.009
G1 X1.6942 F4.72
G3 X1.6942 Y0.3759 I0 J-0.03
G1 X2.1942
G3 X2.1942 Y0.4358 I0 J0.03
G2 X2.1396 Y0.4722 I0 J0.0592
G3 X2.085 Y0.5086 I-0.0546 J-0.0228
G1 X1.6942
G3 X1.6942 Y0.3031 I0 J-0.1028
G1 X2.1942
G3 X2.1942 Y0.5086 I0 J0.1028
G1 X2.085
X2.0831 Y0.5088
X2.0814 Y0.5096
X2.08 Y0.5109
X2.0791 Y0.5125
X2.0781 Y0.5141
X2.0767 Y0.5154
X2.075 Y0.5162
X2.0732 Y0.5164
X1.6942
G3 X1.6942 Y0.2952 I0 J-0.1106
G1 X2.1942
G3 X2.1942 Y0.5164 I0 J0.1106
G1 X2.0732
X2.0714 Y0.5162 Z-0.4245
X2.0698 Y0.5157 Z-0.4241
X2.0686 Y0.515 Z-0.4228
X2.0677 Y0.5142 Z-0.4215
X2.067 Y0.5135 Z-0.4179
Z0.125
X2.3582 Y1.5844
Z0.025
Z0.0071
X2.3574 Y1.5849 Z0.0036 F4.33
X2.3553 Y1.5862 Z0.001
X2.3524 Y1.588 Z0
G3 X2.1662 Y1.6635 Z-0.007 I-0.3271 J-0.5394
X2.148 Y1.652 Z-0.0079 I-0.0034 J-0.0149
X2.1594 Y1.6337 Z-0.0087 I0.0149 J-0.0034
G1 X2.1613 Y1.6333 Z-0.0088
G2 X2.5495 Y0.756 Z-0.0476 I-0.136 J-0.5847
G3 X2.5554 Y0.7353 Z-0.0484 I0.0133 J-0.0074
X2.5761 Y0.7412 Z-0.0493 I0.0074 J0.0133
X2.1662 Y1.6635 Z-0.0901 I-0.5508 J0.3074
X2.148 Y1.652 Z-0.091 I-0.0034 J-0.0149
X2.1594 Y1.6337 Z-0.0918 I0.0149 J-0.0034
G1 X2.1613 Y1.6333 Z-0.0919
G2 X2.5495 Y0.756 Z-0.1307 I-0.136 J-0.5847
G3 X2.5554 Y0.7353 Z-0.1315 I0.0133 J-0.0074
X2.5761 Y0.7412 Z-0.1323 I0.0074 J0.0133
X2.1662 Y1.6635 Z-0.1732 I-0.5508 J0.3074
X2.148 Y1.652 Z-0.174 I-0.0034 J-0.0149
X2.1594 Y1.6337 Z-0.1749 I0.0149 J-0.0034
G1 X2.1613 Y1.6333
G2 X2.5495 Y0.756 Z-0.2138 I-0.136 J-0.5847
G3 X2.5554 Y0.7353 Z-0.2146 I0.0133 J-0.0074
X2.5761 Y0.7412 Z-0.2154 I0.0074 J0.0133
X2.1662 Y1.6635 Z-0.2563 I-0.5508 J0.3074
X2.148 Y1.652 Z-0.2571 I-0.0034 J-0.0149
X2.1594 Y1.6337 Z-0.258 I0.0149 J-0.0034
G1 X2.1613 Y1.6333
G2 X2.5495 Y0.756 Z-0.2968 I-0.136 J-0.5847
G3 X2.5554 Y0.7353 Z-0.2977 I0.0133 J-0.0074
X2.5761 Y0.7412 Z-0.2985 I0.0074 J0.0133
X2.1662 Y1.6635 Z-0.3394 I-0.5508 J0.3074
X2.148 Y1.652 Z-0.3402 I-0.0034 J-0.0149
X2.1594 Y1.6337 Z-0.341 I0.0149 J-0.0034
G1 X2.1613 Y1.6333 Z-0.3411
G2 X2.1841 Y1.6275 Z-0.3419 I-0.136 J-0.5847
X2.5495 Y0.756 Z-0.3799 I-0.1588 J-0.5789
G3 X2.5554 Y0.7353 Z-0.3807 I0.0133 J-0.0074
X2.5761 Y0.7412 Z-0.3816 I0.0074 J0.0133
X2.1662 Y1.6635 Z-0.4224 I-0.5508 J0.3074
X2.148 Y1.652 Z-0.4233 I-0.0034 J-0.0149
X2.1594 Y1.6337 Z-0.4241 I0.0149 J-0.0034
G1 X2.1613 Y1.6333 Z-0.4242
G2 X2.1841 Y1.6275 Z-0.425 I-0.136 J-0.5847
X2.5495 Y0.756 I-0.1588 J-0.5789 F4.72
G3 X2.5554 Y0.7353 I0.0133 J-0.0074
X2.5761 Y0.7412 I0.0074 J0.0133
X2.1662 Y1.6635 I-0.5508 J0.3074
X2.148 Y1.652 I-0.0034 J-0.0149
X2.1594 Y1.6337 I0.0149 J-0.0034
G1 X2.1613 Y1.6333
G2 X2.1841 Y1.6275 I-0.136 J-0.5847
G1 X2.1858 Y1.6268
X2.1872 Y1.6255
X2.1883 Y1.6239
X2.1888 Y1.6221
X2.1893 Y1.6203
X2.1902 Y1.6187
X2.1917 Y1.6175
X2.1934 Y1.6167
G2 X2.5426 Y0.7599 I-0.168 J-0.5681
G3 X2.5516 Y0.7284 I0.0202 J-0.0113
X2.583 Y0.7373 I0.0113 J0.0202
X2.168 Y1.6711 I-0.5577 J0.3113
X2.1403 Y1.6538 I-0.0052 J-0.0225
X2.1577 Y1.6261 I0.0225 J-0.0052
G2 X2.1934 Y1.6167 I-0.1323 J-0.5775
G1 X2.1951 Y1.6164 Z-0.4245
X2.1969 Y1.6165 Z-0.4241
X2.1981 Y1.6168 Z-0.4228
X2.1993 Y1.6173 Z-0.4215
X2.2001 Y1.6178 Z-0.4179
Z0.125
X0.9601 Y0.3993
Z0.025
Z0.0071
X0.9598 Y0.3984 Z0.0036 F4.33
X0.9589 Y0.3961 Z0.001
X0.9579 Y0.3928 Z0
G3 X1.0305 Y0.3748 Z-0.0041 I0.0363 J-0.009
X0.9579 Y0.3928 Z-0.0082 I-0.0363 J0.009
X1.0305 Y0.3748 Z-0.0123 I0.0363 J-0.009
X0.9579 Y0.3928 Z-0.0164 I-0.0363 J0.009
X1.0305 Y0.3748 Z-0.0205 I0.0363 J-0.009
X0.9579 Y0.3928 Z-0.0246 I-0.0363 J0.009
X1.0305 Y0.3748 Z-0.0287 I0.0363 J-0.009
X0.9579 Y0.3928 Z-0.0328 I-0.0363 J0.009
X1.0305 Y0.3748 Z-0.0369 I0.0363 J-0.009
X0.9579 Y0.3928 Z-0.041 I-0.0363 J0.009
X1.0305 Y0.3748 Z-0.0451 I0.0363 J-0.009
X0.9579 Y0.3928 Z-0.0492 I-0.0363 J0.009
X1.0305 Y0.3748 Z-0.0533 I0.0363 J-0.009
X0.9579 Y0.3928 Z-0.0574 I-0.0363 J0.009
X1.0305 Y0.3748 Z-0.0615 I0.0363 J-0.009
X0.9579 Y0.3928 Z-0.0657 I-0.0363 J0.009
X1.0305 Y0.3748 Z-0.0698 I0.0363 J-0.009
X0.9579 Y0.3928 Z-0.0739 I-0.0363 J0.009
X1.0305 Y0.3748 Z-0.078 I0.0363 J-0.009
X0.9579 Y0.3928 Z-0.0821 I-0.0363 J0.009
X1.0305 Y0.3748 Z-0.0862 I0.0363 J-0.009
X0.9579 Y0.3928 Z-0.0903 I-0.0363 J0.009
X1.0305 Y0.3748 Z-0.0944 I0.0363 J-0.009
X0.9579 Y0.3928 Z-0.0985 I-0.0363 J0.009
X1.0305 Y0.3748 Z-0.1026 I0.0363 J-0.009
X0.9579 Y0.3928 Z-0.1067 I-0.0363 J0.009
X1.0305 Y0.3748 Z-0.1108 I0.0363 J-0.009
X0.9579 Y0.3928 Z-0.1149 I-0.0363 J0.009
X1.0305 Y0.3748 Z-0.119 I0.0363 J-0.009
X0.9579 Y0.3928 Z-0.1231 I-0.0363 J0.009
X1.0305 Y0.3748 Z-0.1272 I0.0363 J-0.009
X0.9579 Y0.3928 Z-0.1313 I-0.0363 J0.009
X1.0305 Y0.3748 Z-0.1354 I0.0363 J-0.009
X0.9579 Y0.3928 Z-0.1395 I-0.0363 J0.009
X1.0305 Y0.3748 Z-0.1436 I0.0363 J-0.009
X0.9579 Y0.3928 Z-0.1477 I-0.0363 J0.009
X1.0305 Y0.3748 Z-0.1518 I0.0363 J-0.009
X0.9579 Y0.3928 Z-0.1559 I-0.0363 J0.009
X1.0305 Y0.3748 Z-0.16 I0.0363 J-0.009
X0.9579 Y0.3928 Z-0.1641 I-0.0363 J0.009
X1.0305 Y0.3748 Z-0.1682 I0.0363 J-0.009
X0.9579 Y0.3928 Z-0.1723 I-0.0363 J0.009
X1.0305 Y0.3748 Z-0.1764 I0.0363 J-0.009
X0.9579 Y0.3928 Z-0.1805 I-0.0363 J0.009
X1.0305 Y0.3748 Z-0.1846 I0.0363 J-0.009
X0.9579 Y0.3928 Z-0.1887 I-0.0363 J0.009
X1.0305 Y0.3748 Z-0.1929 I0.0363 J-0.009
X0.9579 Y0.3928 Z-0.197 I-0.0363 J0.009
X1.0305 Y0.3748 Z-0.2011 I0.0363 J-0.009
X0.9579 Y0.3928 Z-0.2052 I-0.0363 J0.009
X1.0305 Y0.3748 Z-0.2093 I0.0363 J-0.009
X0.9579 Y0.3928 Z-0.2134 I-0.0363 J0.009
X1.0305 Y0.3748 Z-0.2175 I0.0363 J-0.009
X0.9579 Y0.3928 Z-0.2216 I-0.0363 J0.009
X1.0305 Y0.3748 Z-0.2257 I0.0363 J-0.009
X0.9579 Y0.3928 Z-0.2298 I-0.0363 J0.009
X1.0305 Y0.3748 Z-0.2339 I0.0363 J-0.009
X0.9579 Y0.3928 Z-0.238 I-0.0363 J0.009
X1.0305 Y0.3748 Z-0.2421 I0.0363 J-0.009
X0.9579 Y0.3928 Z-0.2462 I-0.0363 J0.009
X1.0305 Y0.3748 Z-0.2503 I0.0363 J-0.009
X0.9579 Y0.3928 Z-0.2544 I-0.0363 J0.009
X1.0305 Y0.3748 Z-0.2585 I0.0363 J-0.009
X0.9579 Y0.3928 Z-0.2626 I-0.0363 J0.009
X1.0305 Y0.3748 Z-0.2667 I0.0363 J-0.009
X0.9579 Y0.3928 Z-0.2708 I-0.0363 J0.009
X1.0305 Y0.3748 Z-0.2749 I0.0363 J-0.009
X0.9579 Y0.3928 Z-0.279 I-0.0363 J0.009
X1.0305 Y0.3748 Z-0.2831 I0.0363 J-0.009
X0.9579 Y0.3928 Z-0.2872 I-0.0363 J0.009
X1.0305 Y0.3748 Z-0.2913 I0.0363 J-0.009
X0.9579 Y0.3928 Z-0.2954 I-0.0363 J0.009
X1.0305 Y0.3748 Z-0.2995 I0.0363 J-0.009
X0.9579 Y0.3928 Z-0.3036 I-0.0363 J0.009
X1.0305 Y0.3748 Z-0.3077 I0.0363 J-0.009
X0.9579 Y0.3928 Z-0.3118 I-0.0363 J0.009
X1.0305 Y0.3748 Z-0.3159 I0.0363 J-0.009
X0.9579 Y0.3928 Z-0.3201 I-0.0363 J0.009
X1.0305 Y0.3748 Z-0.3242 I0.0363 J-0.009
X0.9579 Y0.3928 Z-0.3283 I-0.0363 J0.009
X1.0305 Y0.3748 Z-0.3324 I0.0363 J-0.009
X0.9579 Y0.3928 Z-0.3365 I-0.0363 J0.009
X1.0305 Y0.3748 Z-0.3406 I0.0363 J-0.009
X0.9579 Y0.3928 Z-0.3447 I-0.0363 J0.009
X1.0305 Y0.3748 Z-0.3488 I0.0363 J-0.009
X0.9579 Y0.3928 Z-0.3529 I-0.0363 J0.009
X1.0305 Y0.3748 Z-0.357 I0.0363 J-0.009
X0.9579 Y0.3928 Z-0.3611 I-0.0363 J0.009
X1.0305 Y0.3748 Z-0.3652 I0.0363 J-0.009
X0.9579 Y0.3928 Z-0.3693 I-0.0363 J0.009
X1.0305 Y0.3748 Z-0.3734 I0.0363 J-0.009
X0.9579 Y0.3928 Z-0.3775 I-0.0363 J0.009
X1.0305 Y0.3748 Z-0.3816 I0.0363 J-0.009
X0.9579 Y0.3928 Z-0.3857 I-0.0363 J0.009
X1.0305 Y0.3748 Z-0.3898 I0.0363 J-0.009
X0.9579 Y0.3928 Z-0.3939 I-0.0363 J0.009
X1.0305 Y0.3748 Z-0.398 I0.0363 J-0.009
X0.9579 Y0.3928 Z-0.4021 I-0.0363 J0.009
X1.0305 Y0.3748 Z-0.4062 I0.0363 J-0.009
X0.9579 Y0.3928 Z-0.4103 I-0.0363 J0.009
X1.0305 Y0.3748 Z-0.4144 I0.0363 J-0.009
X0.9579 Y0.3928 Z-0.4185 I-0.0363 J0.009
X1.0305 Y0.3748 Z-0.4226 I0.0363 J-0.009
X0.9942 Y0.4212 Z-0.425 I-0.0363 J0.009
G1 X0.4942 F4.72
G3 X0.4942 Y0.3904 I0 J-0.0154
G1 X0.9942
G3 X0.9942 Y0.4212 I0 J0.0154
G2 X0.9662 Y0.4399 I0 J0.0303
G3 X0.9382 Y0.4586 I-0.028 J-0.0117
G1 X0.4942
G3 X0.4942 Y0.3531 I0 J-0.0528
G1 X0.9942
G3 X0.9942 Y0.4586 I0 J0.0528
G1 X0.9382
X0.9363 Y0.4588
X0.9346 Y0.4596
X0.9332 Y0.4609
X0.9323 Y0.4625
X0.9313 Y0.4641
X0.9299 Y0.4654
X0.9282 Y0.4662
X0.9264 Y0.4664
X0.4942
G3 X0.4942 Y0.3452 I0 J-0.0606
G1 X0.9942
G3 X0.9942 Y0.4664 I0 J0.0606
G1 X0.9264
X0.9246 Y0.4662 Z-0.4245
X0.9229 Y0.4657 Z-0.4241
X0.9218 Y0.465 Z-0.4228
X0.9208 Y0.4642 Z-0.4215
X0.9202 Y0.4635 Z-0.4179
Z0.175
G28 G91 Z0
G90
G28 G91 X0 Y0
G90
M5
M30
