%
(1001)
(Round 001)
(Machine)
(  vendor: SainSmart)
(  model: Genmitsu 3018)
(  description: SainSmart 3018 Original)
(T26  D=0.25 CR=0 - ZMIN=-0.025 - flat end mill)
G90 G94
G17
G20
(When using Fusion 360 for Personal Use, the feedrate of)
(rapid moves is reduced to match the feedrate of cutting)
(moves, which can increase machining time. Unrestricted rapid)
(moves are available with a Fusion 360 Subscription.)
G0 Z0.5

(Face4)
M9
T26
S10000 M3
G54
M9
G0 X3.6625 Y0.2041
Z0.175
G1 Z0.025 F4.72
Z0
G18 G3 X3.6375 Z-0.025 I-0.025
G1 X3.5
X0.1
G17 G2 Y0.4309 J0.1134
G1 X3.5
G3 Y0.6577 J0.1134
G1 X0.1
G2 Y0.8844 J0.1134
G1 X3.5
G3 Y1.1112 J0.1134
G1 X0.1
G2 Y1.338 J0.1134
G1 X3.5
G3 Y1.5647 J0.1134
G1 X0.1
G2 Y1.7915 J0.1134
G1 X3.5
G3 Y2.0183 J0.1134
G1 X0.1
G2 Y2.245 J0.1134
G1 X3.5
G3 Y2.4718 J0.1134
G1 X0.1
G2 Y2.6986 J0.1134
G1 X3.5
G3 Y2.9253 J0.1134
G1 X0.1
G2 Y3.1521 J0.1134
G1 X3.5
G3 Y3.3789 J0.1134
G1 X0.1
G18 G3 X0.075 Z0 K0.025
G1 Z0.175
G17
M9
G0 Z0.5
M30
%
