(1001)
(Round 001 - Adaptive Clearing 3mm)
(Machine)
(  vendor: SainSmart)
(  model: Genmitsu 3018)
(  description: SainSmart 3018 Original)
(T2  D=0.1181 CR=0 - ZMIN=-0.305 - flat end mill)
G90 G94
G17
G20
(When using Fusion 360 for Personal Use, the feedrate of)
(rapid moves is reduced to match the feedrate of cutting)
(moves, which can increase machining time. Unrestricted rapid)
(moves are available with a Fusion 360 Subscription.)
G28 G91 Z0
G90

(3mm Adaptive Clear)
T2
S10000 M3
G54
G0 X1.1856 Y1.7153
Z0.6
G1 Z0.2 F4.72
Z0.102
G2 X1.2253 Y1.8202 Z0.0958 I0.0199 J0.0525 F3.94
X1.1856 Y1.7153 Z0.0897 I-0.0199 J-0.0525
X1.2253 Y1.8202 Z0.0835 I0.0199 J0.0525
X1.1856 Y1.7153 Z0.0774 I-0.0199 J-0.0525
X1.2253 Y1.8202 Z0.0712 I0.0199 J0.0525
X1.1856 Y1.7153 Z0.0651 I-0.0199 J-0.0525
X1.2253 Y1.8202 Z0.0589 I0.0199 J0.0525
X1.1856 Y1.7153 Z0.0528 I-0.0199 J-0.0525
X1.2253 Y1.8202 Z0.0466 I0.0199 J0.0525
X1.1856 Y1.7153 Z0.0405 I-0.0199 J-0.0525
X1.2253 Y1.8202 Z0.0343 I0.0199 J0.0525
X1.1856 Y1.7153 Z0.0281 I-0.0199 J-0.0525
X1.2253 Y1.8202 Z0.022 I0.0199 J0.0525
X1.1856 Y1.7153 Z0.0158 I-0.0199 J-0.0525
X1.2253 Y1.8202 Z0.0097 I0.0199 J0.0525
X1.1856 Y1.7153 Z0.0035 I-0.0199 J-0.0525
X1.2253 Y1.8202 Z-0.0026 I0.0199 J0.0525
X1.2615 Y1.7677 Z-0.005 I-0.0199 J-0.0525
X1.1493 Y1.7677 I-0.0561 J0
X1.2615 Y1.7677 I0.0561 J0
G1 X1.2616 Y1.7659 F4.72
X1.2622 Y1.7642
X1.2798 Y1.7415
X1.2871 Y1.7344
X1.2932 Y1.7244
X1.2972 Y1.7117
X1.2981 Y1.6967
X1.2949 Y1.6802
X1.2868 Y1.663
X1.2732 Y1.6465
X1.2683 Y1.6428
X1.2634 Y1.6407
X1.258 Y1.641
X1.2533 Y1.6436
X1.232 Y1.6627
X1.2255 Y1.6679
X1.2247 Y1.6686
X1.219 Y1.6724
X1.2142 Y1.6751
X1.2125 Y1.6758
X1.2059 Y1.6785
X1.1994 Y1.6805
X1.1955 Y1.6816
X1.1799 Y1.6855
X1.1734 Y1.6871
X1.1669 Y1.6886
X1.1603 Y1.6898
X1.1538 Y1.6905
X1.1473 Y1.6904
X1.1408 Y1.6899
X1.131 Y1.6891
X1.1161 Y1.6916
X1.1005 Y1.6984
X1.0854 Y1.7101
X1.0721 Y1.7271
X1.0623 Y1.7494
X1.0577 Y1.7765
X1.06 Y1.8051
X1.0688 Y1.8325
X1.0776 Y1.8478
X1.0797 Y1.8505
X1.0824 Y1.8525
X1.0856 Y1.8536
X1.118 Y1.86
X1.1196 Y1.8602
X1.1212 Y1.8603
X1.1734
X1.1799
X1.1864 Y1.8591
X1.2385 Y1.8488
X1.2402 Y1.8484
X1.2418 Y1.8477
X1.2953 Y1.8258
X1.2968 Y1.8249
X1.3362 Y1.7989
X1.3428 Y1.7945
X1.346 Y1.7924
X1.3493 Y1.7893
X1.3884 Y1.7507
X1.3901 Y1.7487
X1.3959 Y1.7402
X1.4225 Y1.7011
X1.4235 Y1.6995
X1.4243 Y1.6979
X1.4451 Y1.649
X1.447 Y1.6444
X1.4476 Y1.6425
X1.4586 Y1.5904
X1.4592 Y1.5871
X1.4593 Y1.5855
X1.4581 Y1.5594
X1.4579 Y1.5578
X1.4556 Y1.5513
X1.4494 Y1.535
X1.4487 Y1.5334
X1.4476 Y1.5317
X1.434 Y1.5146
X1.4317 Y1.5122
X1.4275 Y1.5092
X1.4121 Y1.4992
X1.41 Y1.498
X1.4079 Y1.4972
X1.3884 Y1.4918
X1.3851 Y1.491
X1.3835 Y1.4908
X1.3819
X1.3623 Y1.4917
X1.3592 Y1.4919
X1.3576 Y1.4922
X1.3558 Y1.4927
X1.3346 Y1.5007
X1.333 Y1.5015
X1.3297 Y1.5039
X1.3143 Y1.5163
X1.313 Y1.5173
X1.3118 Y1.5187
X1.3102 Y1.5211
X1.2989 Y1.5382
X1.2979 Y1.5402
X1.2972 Y1.5421
X1.291 Y1.5643
X1.2853 Y1.5839
X1.2776 Y1.6047
X1.2757 Y1.6099
X1.2732 Y1.6164
X1.2711 Y1.6205
X1.2705 Y1.6223
X1.2704 Y1.6241
X1.2707 Y1.6259
X1.2714 Y1.6284 Z-0.0047
X1.272 Y1.6309 Z-0.0038
X1.2726 Y1.633 Z-0.0024
X1.2731 Y1.6348 Z-0.0006
X1.2735 Y1.6362 Z0.0017
X1.2738 Y1.637 Z0.0042
Y1.6373 Z0.0068
Z0.2
X1.178 Y1.7104
Z0.0186
Z0.0068
X1.1778 Y1.7102 Z0.0042
X1.1771 Y1.7096 Z0.0017
X1.176 Y1.7087 Z-0.0006
X1.1746 Y1.7076 Z-0.0024
X1.1728 Y1.7061 Z-0.0038
X1.1709 Y1.7046 Z-0.0047
X1.1688 Y1.7029 Z-0.005
G2 X1.1408 Y1.6899 I-0.0394 J0.0483
G1 X1.1343 Y1.6889
X1.1147 Y1.6841
X1.0952 Y1.6788
X1.0887 Y1.6763
X1.086 Y1.6751
X1.0822 Y1.673
X1.0734 Y1.6683
X1.0605 Y1.6651
X1.0452
X1.0273 Y1.6697
X1.009 Y1.6796
X0.9918 Y1.6955
X0.9762 Y1.7195
X0.9662 Y1.7465
X0.9623 Y1.7749
Y1.7916
X0.963 Y1.7954
X0.9648 Y1.7988
X0.9676 Y1.8014
X1.0032 Y1.8249
X1.004 Y1.8254
X1.0105 Y1.8282
X1.0593 Y1.8482
X1.0626 Y1.849
X1.0856 Y1.8536
G2 X1.0992 Y1.841 I0.0019 J-0.0117
G1 X1.0985 Y1.8315
X1.0888 Y1.7021
X1.0873 Y1.6818
G2 X1.0822 Y1.673 I-0.0118 J0.0009
G1 X1.0752 Y1.6686
X1.0691 Y1.6637
X1.0496 Y1.6462
X1.0455 Y1.6425
X1.0431 Y1.64
X1.0391 Y1.636
X1.0365 Y1.6327
X1.0304 Y1.6257
X1.0195 Y1.618
X1.0047 Y1.6124
X0.9859 Y1.6103
X0.9658 Y1.6129
X0.943 Y1.6221
X0.9198 Y1.6389
X0.9008 Y1.6605
X0.8864 Y1.6853
X0.8815 Y1.6977
X0.8806 Y1.7014
X0.8811 Y1.7052
X0.8827 Y1.7087
X0.9085 Y1.7467
X0.9103 Y1.7493
X0.9127 Y1.7518
X0.9518 Y1.7904
X0.954 Y1.7924
X0.9584 Y1.7953
X0.9676 Y1.8014
G2 X0.9849 Y1.7953 I0.0062 J-0.0101
G1 X0.9882 Y1.7859
X1.0317 Y1.662
X1.0381 Y1.6436
G2 X1.0365 Y1.6327 I-0.0111 J-0.0039
G1 X1.034 Y1.6295
X1.0319 Y1.6262
X1.03 Y1.6228
X1.0269 Y1.6164
X1.0243 Y1.6099
X1.0147 Y1.5839
X1.0126 Y1.5773
X1.0102 Y1.57
X1.0027 Y1.5585
X0.9913 Y1.5478
X0.9748 Y1.5388
X0.9537 Y1.5333
X0.9298 Y1.5331
X0.9019 Y1.54
X0.8761 Y1.5525
X0.8533 Y1.57
X0.8444 Y1.5788
X0.8422 Y1.582
X0.8411 Y1.5857
X0.8412 Y1.5896
G2 X0.8532 Y1.5985 I0.0115 J-0.0028
G1 X0.8679 Y1.5979
X0.9916 Y1.5924
X1.0017 Y1.592
G2 X1.0126 Y1.5773 I-0.0005 J-0.0118
G1 X1.009 Y1.5643
X1.0036 Y1.5448
X1.0026 Y1.5415
X1.002 Y1.5399
X1.0011 Y1.5382
X0.9909 Y1.5228
X0.9882 Y1.5187
X0.9873 Y1.5177
X0.9863 Y1.5168
X0.9681 Y1.5022
X0.9665 Y1.5012
X0.9649 Y1.5005
X0.944 Y1.4926
X0.9414 Y1.492
X0.9388 Y1.4918
X0.9193 Y1.4909
X0.916
X0.9127 Y1.4915
X0.8932 Y1.4969
X0.8905 Y1.4977
X0.8892 Y1.4983
X0.8867 Y1.4999
X0.8737 Y1.5085
X0.8683 Y1.5122
X0.8671 Y1.5133
X0.8606 Y1.5214
X0.8523 Y1.5317
X0.8513 Y1.5334
X0.8506 Y1.535
X0.8444 Y1.5513
X0.8421 Y1.5578
X0.8419 Y1.5594
X0.8407 Y1.5839
Y1.5864
X0.8411 Y1.5889
X0.8524 Y1.6425
X0.8541 Y1.6472
X0.8757 Y1.6979
X0.8765 Y1.6995
X0.8775 Y1.7011
X0.8827 Y1.7087
G2 X0.9039 Y1.7004 I0.0095 J-0.007
G1 X0.9037 Y1.6978 Z-0.0047
X0.9034 Y1.6954 Z-0.0038
X0.9031 Y1.6931 Z-0.0024
X0.9029 Y1.6913 Z-0.0006
X0.9028 Y1.6899 Z0.0017
X0.9027 Y1.689 Z0.0042
Y1.6887 Z0.0068
Z0.2
X1.3966 Y1.7216
Z0.1138
Z0.102
Z-0.005 F3.94
X1.3986 Y1.7187 F4.72
X1.3994 Y1.7127
X1.3999 Y1.7067
X1.4002 Y1.7007
X1.4003 Y1.6947
X1.4002 Y1.6887
X1.3999 Y1.6828
X1.3992 Y1.6768
X1.3984 Y1.6708
X1.3973 Y1.665
X1.396 Y1.6591
X1.3945 Y1.6533
X1.3928 Y1.6475
X1.391 Y1.6418
X1.3897 Y1.6384
X1.3891 Y1.6241
X1.3917 Y1.61
X1.3925 Y1.6065
X1.3934 Y1.603
G2 X1.3841 Y1.5887 I-0.0115 J-0.0027
G1 X1.3819 Y1.5885 Z-0.0048
X1.3798 Y1.589 Z-0.0041
X1.3779 Y1.5896 Z-0.0031
X1.3761 Y1.59 Z-0.0017
X1.3749 Y1.5909 Z0.0001
X1.374 Y1.5916 Z0.0022
X1.3735 Y1.5921 Z0.0045
X1.3733 Y1.5922 Z0.0068
Z0.2
X1.0362 Y0.9961
Z0.102
G2 X1.076 Y1.1011 Z0.0958 I0.0199 J0.0525 F3.94
X1.0362 Y0.9961 Z0.0897 I-0.0199 J-0.0525
X1.076 Y1.1011 Z0.0835 I0.0199 J0.0525
X1.0362 Y0.9961 Z0.0774 I-0.0199 J-0.0525
X1.076 Y1.1011 Z0.0712 I0.0199 J0.0525
X1.0362 Y0.9961 Z0.0651 I-0.0199 J-0.0525
X1.076 Y1.1011 Z0.0589 I0.0199 J0.0525
X1.0362 Y0.9961 Z0.0528 I-0.0199 J-0.0525
X1.076 Y1.1011 Z0.0466 I0.0199 J0.0525
X1.0362 Y0.9961 Z0.0405 I-0.0199 J-0.0525
X1.076 Y1.1011 Z0.0343 I0.0199 J0.0525
X1.0362 Y0.9961 Z0.0281 I-0.0199 J-0.0525
X1.076 Y1.1011 Z0.022 I0.0199 J0.0525
X1.0362 Y0.9961 Z0.0158 I-0.0199 J-0.0525
X1.076 Y1.1011 Z0.0097 I0.0199 J0.0525
X1.0362 Y0.9961 Z0.0035 I-0.0199 J-0.0525
X1.076 Y1.1011 Z-0.0026 I0.0199 J0.0525
X1.1122 Y1.0486 Z-0.005 I-0.0199 J-0.0525
X1 Y1.0486 I-0.0561 J0
X1.1122 Y1.0486 I0.0561 J0
G1 X1.1123 Y1.0468 F4.72
X1.1129 Y1.0451
X1.1305 Y1.0224
X1.1378 Y1.0153
X1.1439 Y1.0053
X1.1479 Y0.9926
X1.1487 Y0.9776
X1.1455 Y0.961
X1.1375 Y0.9439
X1.1239 Y0.9274
X1.1209 Y0.9252
X1.1188 Y0.9239
X1.1164 Y0.9231
X1.1139 Y0.9229
X1.0496
X1.0431 Y0.923
X1.0235 Y0.9238
X1.004 Y0.9263
X0.9942 Y0.9276
X0.9926 Y0.928
X0.9909 Y0.9286
X0.9844 Y0.9313
X0.9587 Y0.9435
X0.9381 Y0.9605
X0.9211 Y0.9836
X0.9101 Y1.0101
X0.9048 Y1.0383
X0.9053 Y1.0671
X0.9113 Y1.0951
X0.9191 Y1.1133
X0.9195 Y1.1142
X0.92 Y1.115
X0.9206 Y1.1158
G2 X0.9408 Y1.1123 I0.0091 J-0.0075
G1 X0.9428 Y1.1066
X0.9983 Y0.9502
X0.9997 Y0.9463
G2 X0.9844 Y0.9313 I-0.0111 J-0.0039
G1 X0.9649 Y0.9394
X0.9632 Y0.9401
X0.9616 Y0.9411
X0.9388 Y0.9586
X0.9372 Y0.96
X0.9356 Y0.9618
X0.9182 Y0.9844
X0.9172 Y0.986
X0.9163 Y0.9877
X0.9052 Y1.0145
X0.9044 Y1.017
X0.9035 Y1.0235
X0.9005 Y1.0463
X0.9003 Y1.0479
X0.9004 Y1.0496
X0.9042 Y1.0789
X0.9045 Y1.0805
X0.905 Y1.0822
X0.9158 Y1.1082
X0.9172 Y1.1112
X0.9193 Y1.1141
X0.9347 Y1.1343
X0.9365 Y1.1364
X0.9388 Y1.1386
X0.9618 Y1.1562
X0.9633 Y1.1571
X0.9649 Y1.1578
X0.9909 Y1.1686
X0.9926 Y1.1692
X0.9942 Y1.1696
X1.0228 Y1.1734
X1.0235
X1.0431 Y1.1742
X1.0496 Y1.1743
X1.0952
X1.1148 Y1.1734
X1.1374 Y1.1664
X1.1602 Y1.1526
X1.1803 Y1.1322
X1.1951 Y1.1075
X1.2111 Y1.0837
X1.226 Y1.0592
X1.2371 Y1.0327
X1.2435 Y1.0047
X1.2448 Y0.976
X1.2413 Y0.9475
X1.2364 Y0.9312
X1.2339 Y0.9269
X1.2299 Y0.9239
X1.2251 Y0.9229
X1.1139
G2 X1.1026 Y0.9337 I0.0004 J0.0118
G1 X1.1014 Y0.9474
X1.0848 Y1.1498
X1.0838 Y1.1616
G2 X1.0952 Y1.1743 I0.0118 J0.001
G1 X1.2059
X1.2266 Y1.1733
X1.2479 Y1.1668
X1.2725 Y1.1519
X1.2927 Y1.1315
X1.3089 Y1.1078
X1.3221 Y1.0823
X1.3316 Y1.0553
X1.3382 Y1.0273
X1.3417 Y0.9988
X1.3418 Y0.9701
X1.3391 Y0.9415
X1.337 Y0.9321
X1.3348 Y0.9273
X1.3306 Y0.924
X1.3255 Y0.9229
X1.2251
G2 X1.2137 Y0.9337 I0.0004 J0.0118
G1 X1.2126 Y0.9474
X1.1956 Y1.1498
X1.1946 Y1.1616
G2 X1.2059 Y1.1743 I0.0118 J0.001
G1 X1.3232
X1.338 Y1.1736
X1.3575 Y1.1676
X1.3779 Y1.1553
X1.3981 Y1.1348
X1.4131 Y1.1103
X1.4239 Y1.0838
X1.4318 Y1.0562
X1.437 Y1.0279
X1.4395 Y0.9993
X1.4397 Y0.9706
X1.4379 Y0.942
X1.4361 Y0.9325
X1.4339 Y0.9275
X1.4297 Y0.9241
X1.4245 Y0.9229
X1.3255
G2 X1.3141 Y0.9345 I0.0004 J0.0118
G1 X1.314 Y0.9474
X1.312 Y1.1498
X1.3118 Y1.1624
G2 X1.3232 Y1.1743 I0.0118 J0.0001
G1 X1.4275
X1.4421 Y1.1736
X1.4601 Y1.1681
X1.4796 Y1.1563
X1.4994 Y1.1361
X1.514 Y1.1113
X1.5241 Y1.0845
X1.5311 Y1.0566
X1.5354 Y1.0283
X1.5375 Y0.9996
X1.5378 Y0.9709
X1.5364 Y0.9423
X1.5346 Y0.9326
X1.5325 Y0.9276
X1.5283 Y0.9241
X1.523 Y0.9229
X1.4245
G2 X1.4131 Y0.9348 I0.0004 J0.0118
G1 X1.4132 Y0.9474
X1.4159 Y1.1498
X1.4161 Y1.1627
G2 X1.4275 Y1.1743 I0.0118 J-0.0002
G1 X1.5252
X1.5431 Y1.1735
X1.5607 Y1.1681
X1.5798 Y1.1565
X1.5989 Y1.1371
X1.6134 Y1.1124
X1.6232 Y1.0854
X1.6298 Y1.0575
X1.6337 Y1.029
X1.6357 Y1.0004
X1.6361 Y0.9717
X1.6348 Y0.943
X1.633 Y0.9326
X1.6309 Y0.9276
X1.6267 Y0.9241
X1.6214 Y0.9229
X1.523
G2 X1.5116 Y0.9348 I0.0004 J0.0118
G1 X1.5117 Y0.9474
X1.5137 Y1.1498
X1.5138 Y1.1627
G2 X1.5252 Y1.1743 I0.0118 J-0.0001
G1 X1.6295
X1.6428 Y1.1737
X1.6602 Y1.1683
X1.679 Y1.1569
X1.6977 Y1.1379
X1.7122 Y1.1132
X1.722 Y1.0862
X1.7283 Y1.0582
X1.732 Y1.0297
X1.734 Y1.0011
X1.7344 Y0.9724
X1.7332 Y0.9437
X1.7314 Y0.9327
X1.7293 Y0.9277
X1.7251 Y0.9241
X1.7197 Y0.9229
X1.6214
G2 X1.61 Y0.9351 I0.0004 J0.0118
G1 X1.6105 Y0.9474
X1.6176 Y1.1498
X1.6181 Y1.163
G2 X1.6295 Y1.1743 I0.0118 J-0.0004
G1 X1.7272
X1.7419 Y1.1736
X1.7593 Y1.1683
X1.7779 Y1.157
X1.7964 Y1.1382
X1.8109 Y1.1134
X1.8205 Y1.0864
X1.8267 Y1.0584
X1.8304 Y1.0299
X1.8323 Y1.0013
X1.8327 Y0.9726
X1.8316 Y0.9439
X1.8297 Y0.9327
X1.8276 Y0.9277
X1.8234 Y0.9241
X1.8181 Y0.9229
X1.7197
G2 X1.7083 Y0.935 I0.0004 J0.0118
G1 X1.7088 Y0.9474
X1.7154 Y1.1498
X1.7158 Y1.1629
G2 X1.7272 Y1.1743 I0.0118 J-0.0004
G1 X1.8249
X1.8406 Y1.1736
X1.858 Y1.1682
X1.8766 Y1.157
X1.8949 Y1.1383
X1.9094 Y1.1136
X1.919 Y1.0865
X1.9252 Y1.0585
X1.9288 Y1.03
X1.9306 Y1.0013
X1.931 Y0.9726
X1.9299 Y0.944
X1.928 Y0.9327
X1.9259 Y0.9277
X1.9217 Y0.9241
X1.9164 Y0.9229
X1.8181
G2 X1.8067 Y0.935 I0.0004 J0.0118
G1 X1.807 Y0.9474
X1.8131 Y1.1498
X1.8135 Y1.1629
G2 X1.8249 Y1.1743 I0.0118 J-0.0004
G1 X1.9227
X1.9392 Y1.1735
X1.9565 Y1.1682
X1.9751 Y1.157
X1.9934 Y1.1384
X2.0079 Y1.1136
X2.0174 Y1.0865
X2.0236 Y1.0585
X2.0271 Y1.03
X2.029 Y1.0014
X2.0294 Y0.9727
X2.0282 Y0.944
X2.0264 Y0.9328
X2.0242 Y0.9278
X2.0201 Y0.9243
X2.0148 Y0.923
X2.0008 Y0.9229
X1.9164
G2 X1.905 Y0.935 I0.0004 J0.0118
G1 X1.9053 Y0.9474
X1.9109 Y1.1498
X1.9113 Y1.1629
G2 X1.9227 Y1.1743 I0.0118 J-0.0003
G1 X2.0008
X2.0204 Y1.1742
X2.0455 Y1.1702
X2.0636 Y1.1624
X2.0816 Y1.1487
X2.0994 Y1.1262
X2.1116 Y1.1002
X2.1192 Y1.0725
X2.1239 Y1.0442
X2.1266 Y1.0156
X2.1278 Y0.9869
X2.1277 Y0.9822
X2.1274 Y0.9797
X2.1266 Y0.9773
X2.1253 Y0.9751
G2 X2.1058 Y0.9771 I-0.0091 J0.0075
G1 X2.1021 Y0.9839
X2.0135 Y1.1507
X2.0103 Y1.1569
G2 X2.0204 Y1.1742 I0.0104 J0.0055
G1 X2.0279 Y1.1734
X2.0562 Y1.1696
X2.0579 Y1.1693
X2.0595 Y1.1687
X2.0856 Y1.1579
X2.0872 Y1.1572
X2.0887 Y1.1562
X2.0921 Y1.1537
X2.1116 Y1.1387
X2.1141 Y1.1365
X2.1159 Y1.1343
X2.1312 Y1.1144
X2.1334 Y1.1113
X2.1349 Y1.1082
X2.1442 Y1.0858
X2.1457 Y1.0822
X2.1462 Y1.0805
X2.1464 Y1.0789
X2.1503 Y1.0496
Y1.0479
X2.1501 Y1.0463
X2.1471 Y1.0235
X2.1462 Y1.017
X2.1442 Y1.0114
X2.1343 Y0.9877
X2.1335 Y0.986
X2.1324 Y0.9844
X2.115 Y0.9617
X2.1133 Y0.9599
X2.1115 Y0.9584
X2.0921 Y0.9435
X2.0888 Y0.941
X2.0872 Y0.94
X2.0844 Y0.9388
X2.0595 Y0.9285
X2.0579 Y0.9279
X2.0562 Y0.9276
X2.0269 Y0.9237
X2.0204 Y0.923
X2.0148
G2 X2.0095 Y0.9452 I0.0003 J0.0118
G1 X2.0118 Y0.9464 Z-0.0047
X2.014 Y0.9476 Z-0.0038
X2.016 Y0.9487 Z-0.0024
X2.0176 Y0.9496 Z-0.0006
X2.0189 Y0.9502 Z0.0017
X2.0196 Y0.9506 Z0.0042
X2.0199 Y0.9508 Z0.0068
Z0.6
X2.1652 Y0.3497
Z0.2
Z0.102
G2 X2.1622 Y0.4619 Z0.0958 I-0.0015 J0.0561 F3.94
X2.1652 Y0.3497 Z0.0897 I0.0015 J-0.0561
X2.1622 Y0.4619 Z0.0835 I-0.0015 J0.0561
X2.1652 Y0.3497 Z0.0774 I0.0015 J-0.0561
X2.1622 Y0.4619 Z0.0712 I-0.0015 J0.0561
X2.1652 Y0.3497 Z0.0651 I0.0015 J-0.0561
X2.1622 Y0.4619 Z0.0589 I-0.0015 J0.0561
X2.1652 Y0.3497 Z0.0528 I0.0015 J-0.0561
X2.1622 Y0.4619 Z0.0466 I-0.0015 J0.0561
X2.1652 Y0.3497 Z0.0405 I0.0015 J-0.0561
X2.1622 Y0.4619 Z0.0343 I-0.0015 J0.0561
X2.1652 Y0.3497 Z0.0281 I0.0015 J-0.0561
X2.1622 Y0.4619 Z0.022 I-0.0015 J0.0561
X2.1652 Y0.3497 Z0.0158 I0.0015 J-0.0561
X2.1622 Y0.4619 Z0.0097 I-0.0015 J0.0561
X2.1652 Y0.3497 Z0.0035 I0.0015 J-0.0561
X2.1622 Y0.4619 Z-0.0026 I-0.0015 J0.0561
X2.1652 Y0.3497 Z-0.0088 I0.0015 J-0.0561
X2.1622 Y0.4619 Z-0.0149 I-0.0015 J0.0561
X2.1652 Y0.3497 Z-0.0211 I0.0015 J-0.0561
X2.1622 Y0.4619 Z-0.0273 I-0.0015 J0.0561
X2.1652 Y0.3497 Z-0.0334 I0.0015 J-0.0561
X2.1622 Y0.4619 Z-0.0396 I-0.0015 J0.0561
X2.1652 Y0.3497 Z-0.0457 I0.0015 J-0.0561
X2.1622 Y0.4619 Z-0.0519 I-0.0015 J0.0561
X2.2198 Y0.4058 Z-0.055 I0.0015 J-0.0561
X2.1076 Y0.4058 I-0.0561 J0
X2.2198 Y0.4058 I0.0561 J0
G1 X2.2199 Y0.404 F4.72
X2.2205 Y0.4023
X2.2381 Y0.3796
X2.2454 Y0.3725
X2.2456 Y0.3723
X2.2472 Y0.3673
X2.2466 Y0.3621
X2.2438 Y0.3577
X2.2385 Y0.3524
X2.2354 Y0.3495
X2.2338 Y0.3484
X2.2224 Y0.3426
X2.2159 Y0.3395
X2.2155 Y0.3394
X2.2093 Y0.3382
X2.1963 Y0.3362
X2.1898 Y0.3357
X2.1768 Y0.3351
X2.1703 Y0.3349
X2.0921
X2.08 Y0.3355
X2.0653 Y0.34
X2.0505 Y0.3489
X2.0369 Y0.3627
X2.0258 Y0.3816
X2.0189 Y0.4054
X2.018 Y0.4332
X2.024 Y0.4613
X2.0281 Y0.47
X2.0307 Y0.4735
X2.0345 Y0.4759
X2.0388 Y0.4768
X2.1703
X2.1768 Y0.4765
X2.1898 Y0.4759
X2.1963 Y0.4754
X2.2093 Y0.4734
X2.2159 Y0.4722
X2.221 Y0.4697
X2.2338 Y0.4632
X2.2354 Y0.4621
X2.2411 Y0.4567
X2.2484 Y0.4493
X2.2498 Y0.4479
X2.2509 Y0.4465
X2.2525 Y0.4436
X2.2591 Y0.4306
X2.2606 Y0.4273
X2.2613 Y0.4241
X2.2638 Y0.4078
X2.264 Y0.4062
X2.2639 Y0.4045
X2.2629 Y0.398
X2.2615 Y0.3889
X2.2608 Y0.385
X2.2603 Y0.3834
X2.2595 Y0.3817
X2.2545 Y0.372
X2.2511 Y0.3654
X2.2499 Y0.3639
X2.2484 Y0.3623
X2.2438 Y0.3577
X2.2419 Y0.3563
X2.2397 Y0.3552
X2.2374 Y0.3547
X2.2139 Y0.3515
X2.1227 Y0.339
X2.0933 Y0.335
X2.0921 Y0.3349
X2.0074
X1.9926 Y0.3356
X1.9768 Y0.3405
X1.9617 Y0.3496
X1.9466 Y0.3649
X1.9331 Y0.3881
X1.925 Y0.4156
X1.924 Y0.4443
X1.9266 Y0.4664
X1.9286 Y0.4716
X1.9329 Y0.4754
X1.9384 Y0.4768
X2.0388
G2 X2.0502 Y0.465 I-0.0004 J-0.0118
G1 Y0.4649
X2.0501 Y0.4634
X2.0498 Y0.4619
X2.0473 Y0.4525
X2.0224 Y0.3589
X2.0184 Y0.3436
G2 X2.0074 Y0.3349 I-0.0114 J0.003
G1 X1.9161
X1.9017 Y0.3356
X1.8852 Y0.3407
X1.8682 Y0.351
X1.853 Y0.3664
X1.8386 Y0.391
X1.8305 Y0.4186
X1.8283 Y0.4472
X1.8297 Y0.4658
X1.8315 Y0.4714
X1.8358 Y0.4753
X1.8414 Y0.4768
X1.9384
G2 X1.9496 Y0.4628 I-0.0004 J-0.0118
G1 X1.9476 Y0.4524
X1.9301 Y0.3592
X1.9273 Y0.3445
G2 X1.9161 Y0.3349 I-0.0116 J0.0022
G1 X1.8249
X1.8081 Y0.3357
X1.7915 Y0.3408
X1.774 Y0.3514
X1.7582 Y0.3675
X1.7437 Y0.3922
X1.7352 Y0.4197
X1.7322 Y0.4482
X1.7334 Y0.4657
X1.7345 Y0.47
X1.7371 Y0.4736
X1.7409 Y0.4759
X1.7452 Y0.4768
X1.8414
G2 X1.8527 Y0.4633 I-0.0004 J-0.0118
G1 X1.8512 Y0.4523
X1.8382 Y0.3593
X1.8362 Y0.345
G2 X1.8249 Y0.3349 I-0.0117 J0.0016
G1 X1.7272
X1.7134 Y0.3356
X1.6966 Y0.3407
X1.6788 Y0.3515
X1.6626 Y0.3679
X1.6481 Y0.3927
X1.6394 Y0.4201
X1.6372 Y0.4402
X1.6373 Y0.4436
X1.6383 Y0.4468
X1.6403 Y0.4496
G2 X1.6577 Y0.4487 I0.0083 J-0.0084
G1 X1.6649 Y0.44
X1.7329 Y0.3578
X1.7359 Y0.3542
G2 X1.7272 Y0.3349 I-0.0091 J-0.0075
G1 X1.7207
X1.7142 Y0.335
X1.6946 Y0.3358
X1.6751 Y0.3389
X1.6728 Y0.3394
X1.6717 Y0.3398
X1.6707 Y0.3402
X1.6555 Y0.348
X1.6541 Y0.3488
X1.6527 Y0.3497
X1.6499 Y0.3524
X1.6397 Y0.3626
X1.6383 Y0.364
X1.6373 Y0.3654
X1.636 Y0.3679
X1.6284 Y0.3828
X1.6279 Y0.3839
X1.6276 Y0.385
X1.6265 Y0.3915
X1.6255 Y0.398
X1.6245 Y0.4045
X1.6244 Y0.4062
X1.6245 Y0.4078
X1.6271 Y0.4241
X1.6278 Y0.4273
X1.6295 Y0.431
X1.636 Y0.4437
X1.6378 Y0.4469
X1.6408 Y0.4501
X1.6518 Y0.4611
X1.6532 Y0.4623
X1.6546 Y0.4632
X1.662 Y0.467
X1.6686 Y0.4703
X1.6718 Y0.4719
X1.6734 Y0.4724
X1.6751 Y0.4727
X1.6946 Y0.4758
X1.7142 Y0.4766
X1.7207 Y0.4768
X1.7452
G2 X1.7566 Y0.465 I-0.0004 J-0.0118
G1 Y0.4649
G2 X1.7503 Y0.4545 I-0.0118 J0
G1 X1.748 Y0.4533 Z-0.0547
X1.7458 Y0.4521 Z-0.0538
X1.7438 Y0.4511 Z-0.0524
X1.7422 Y0.4502 Z-0.0506
X1.7409 Y0.4495 Z-0.0483
X1.7402 Y0.4491 Z-0.0458
X1.7399 Y0.449 Z-0.0432
Z0.6
X2.2154 Y0.4276
Z0.2
Z0.102
G2 X2.1121 Y0.384 Z0.0958 I-0.0517 J-0.0218 F3.94
X2.2154 Y0.4276 Z0.0897 I0.0517 J0.0218
X2.1121 Y0.384 Z0.0835 I-0.0517 J-0.0218
X2.2154 Y0.4276 Z0.0774 I0.0517 J0.0218
X2.1121 Y0.384 Z0.0712 I-0.0517 J-0.0218
X2.2154 Y0.4276 Z0.0651 I0.0517 J0.0218
X2.1121 Y0.384 Z0.0589 I-0.0517 J-0.0218
X2.2154 Y0.4276 Z0.0528 I0.0517 J0.0218
X2.1121 Y0.384 Z0.0466 I-0.0517 J-0.0218
X2.2154 Y0.4276 Z0.0405 I0.0517 J0.0218
X2.1121 Y0.384 Z0.0343 I-0.0517 J-0.0218
X2.2154 Y0.4276 Z0.0281 I0.0517 J0.0218
X2.1121 Y0.384 Z0.022 I-0.0517 J-0.0218
X2.2154 Y0.4276 Z0.0158 I0.0517 J0.0218
X2.1121 Y0.384 Z0.0097 I-0.0517 J-0.0218
X2.2154 Y0.4276 Z0.0035 I0.0517 J0.0218
X2.1121 Y0.384 Z-0.0026 I-0.0517 J-0.0218
X2.2154 Y0.4276 Z-0.0088 I0.0517 J0.0218
X2.1121 Y0.384 Z-0.0149 I-0.0517 J-0.0218
X2.2154 Y0.4276 Z-0.0211 I0.0517 J0.0218
X2.1121 Y0.384 Z-0.0273 I-0.0517 J-0.0218
X2.2154 Y0.4276 Z-0.0334 I0.0517 J0.0218
X2.1121 Y0.384 Z-0.0396 I-0.0517 J-0.0218
X2.2154 Y0.4276 Z-0.0457 I0.0517 J0.0218
X2.1121 Y0.384 Z-0.0519 I-0.0517 J-0.0218
X2.2154 Y0.4276 Z-0.058 I0.0517 J0.0218
X2.1121 Y0.384 Z-0.0642 I-0.0517 J-0.0218
X2.2154 Y0.4276 Z-0.0703 I0.0517 J0.0218
X2.1121 Y0.384 Z-0.0765 I-0.0517 J-0.0218
X2.2154 Y0.4276 Z-0.0826 I0.0517 J0.0218
X2.1121 Y0.384 Z-0.0888 I-0.0517 J-0.0218
X2.2154 Y0.4276 Z-0.095 I0.0517 J0.0218
X2.1121 Y0.384 Z-0.1011 I-0.0517 J-0.0218
X2.2154 Y0.4276 Z-0.1073 I0.0517 J0.0218
X2.1121 Y0.384 Z-0.1134 I-0.0517 J-0.0218
X2.2154 Y0.4276 Z-0.1196 I0.0517 J0.0218
X2.1121 Y0.384 Z-0.1257 I-0.0517 J-0.0218
X2.2154 Y0.4276 Z-0.1319 I0.0517 J0.0218
X2.1121 Y0.384 Z-0.138 I-0.0517 J-0.0218
X2.2154 Y0.4276 Z-0.1442 I0.0517 J0.0218
X2.1121 Y0.384 Z-0.1503 I-0.0517 J-0.0218
X2.2154 Y0.4276 Z-0.1565 I0.0517 J0.0218
X2.1121 Y0.384 Z-0.1627 I-0.0517 J-0.0218
X2.2154 Y0.4276 Z-0.1688 I0.0517 J0.0218
X2.1121 Y0.384 Z-0.175 I-0.0517 J-0.0218
X2.2154 Y0.4276 Z-0.1811 I0.0517 J0.0218
X2.1121 Y0.384 Z-0.1873 I-0.0517 J-0.0218
X2.2154 Y0.4276 Z-0.1934 I0.0517 J0.0218
X2.1121 Y0.384 Z-0.1996 I-0.0517 J-0.0218
X2.2154 Y0.4276 Z-0.2057 I0.0517 J0.0218
X2.1121 Y0.384 Z-0.2119 I-0.0517 J-0.0218
X2.2154 Y0.4276 Z-0.2181 I0.0517 J0.0218
X2.1121 Y0.384 Z-0.2242 I-0.0517 J-0.0218
X2.2154 Y0.4276 Z-0.2304 I0.0517 J0.0218
X2.1121 Y0.384 Z-0.2365 I-0.0517 J-0.0218
X2.2154 Y0.4276 Z-0.2427 I0.0517 J0.0218
X2.1121 Y0.384 Z-0.2488 I-0.0517 J-0.0218
X2.2154 Y0.4276 Z-0.255 I0.0517 J0.0218
X2.1121 Y0.384 Z-0.2611 I-0.0517 J-0.0218
X2.2154 Y0.4276 Z-0.2673 I0.0517 J0.0218
X2.1121 Y0.384 Z-0.2734 I-0.0517 J-0.0218
X2.2154 Y0.4276 Z-0.2796 I0.0517 J0.0218
X2.1121 Y0.384 Z-0.2858 I-0.0517 J-0.0218
X2.2154 Y0.4276 Z-0.2919 I0.0517 J0.0218
X2.1121 Y0.384 Z-0.2981 I-0.0517 J-0.0218
X2.2154 Y0.4276 Z-0.3042 I0.0517 J0.0218
X2.2198 Y0.4058 Z-0.305 I-0.0517 J-0.0218
X2.1076 Y0.4058 I-0.0561 J0
X2.2198 Y0.4058 I0.0561 J0
G1 X2.2199 Y0.404 F4.72
X2.2205 Y0.4023
X2.2381 Y0.3796
X2.2454 Y0.3725
X2.2456 Y0.3723
X2.2472 Y0.3673
X2.2466 Y0.3621
X2.2438 Y0.3577
X2.2385 Y0.3524
X2.2354 Y0.3495
X2.2338 Y0.3484
X2.2224 Y0.3426
X2.2159 Y0.3395
X2.2155 Y0.3394
X2.2093 Y0.3382
X2.1963 Y0.3362
X2.1898 Y0.3357
X2.1768 Y0.3351
X2.1703 Y0.3349
X2.0921
X2.08 Y0.3355
X2.0653 Y0.34
X2.0505 Y0.3489
X2.0369 Y0.3627
X2.0258 Y0.3816
X2.0189 Y0.4054
X2.018 Y0.4332
X2.024 Y0.4613
X2.0281 Y0.47
X2.0307 Y0.4735
X2.0345 Y0.4759
X2.0388 Y0.4768
X2.1703
X2.1768 Y0.4765
X2.1898 Y0.4759
X2.1963 Y0.4754
X2.2093 Y0.4734
X2.2159 Y0.4722
X2.221 Y0.4697
X2.2338 Y0.4632
X2.2354 Y0.4621
X2.2411 Y0.4567
X2.2484 Y0.4493
X2.2498 Y0.4479
X2.2509 Y0.4465
X2.2525 Y0.4436
X2.2591 Y0.4306
X2.2606 Y0.4273
X2.2613 Y0.4241
X2.2638 Y0.4078
X2.264 Y0.4062
X2.2639 Y0.4045
X2.2629 Y0.398
X2.2615 Y0.3889
X2.2608 Y0.385
X2.2603 Y0.3834
X2.2595 Y0.3817
X2.2545 Y0.372
X2.2511 Y0.3654
X2.2499 Y0.3639
X2.2484 Y0.3623
X2.2438 Y0.3577
X2.2419 Y0.3563
X2.2397 Y0.3552
X2.2374 Y0.3547
X2.2139 Y0.3515
X2.1227 Y0.339
X2.0933 Y0.335
X2.0921 Y0.3349
X2.0074
X1.9926 Y0.3356
X1.9768 Y0.3405
X1.9617 Y0.3496
X1.9466 Y0.3649
X1.9331 Y0.3881
X1.925 Y0.4156
X1.924 Y0.4443
X1.9266 Y0.4664
X1.9286 Y0.4716
X1.9329 Y0.4754
X1.9384 Y0.4768
X2.0388
G2 X2.0502 Y0.465 I-0.0004 J-0.0118
G1 Y0.4649
X2.0501 Y0.4634
X2.0498 Y0.4619
X2.0473 Y0.4525
X2.0224 Y0.3589
X2.0184 Y0.3436
G2 X2.0074 Y0.3349 I-0.0114 J0.003
G1 X1.9161
X1.9017 Y0.3356
X1.8852 Y0.3407
X1.8682 Y0.351
X1.853 Y0.3664
X1.8386 Y0.391
X1.8305 Y0.4186
X1.8283 Y0.4472
X1.8297 Y0.4658
X1.8315 Y0.4714
X1.8358 Y0.4753
X1.8414 Y0.4768
X1.9384
G2 X1.9496 Y0.4628 I-0.0004 J-0.0118
G1 X1.9476 Y0.4524
X1.9301 Y0.3592
X1.9273 Y0.3445
G2 X1.9161 Y0.3349 I-0.0116 J0.0022
G1 X1.8249
X1.8081 Y0.3357
X1.7915 Y0.3408
X1.774 Y0.3514
X1.7582 Y0.3675
X1.7437 Y0.3922
X1.7352 Y0.4197
X1.7322 Y0.4482
X1.7334 Y0.4657
X1.7345 Y0.47
X1.7371 Y0.4736
X1.7409 Y0.4759
X1.7452 Y0.4768
X1.8414
G2 X1.8527 Y0.4633 I-0.0004 J-0.0118
G1 X1.8512 Y0.4523
X1.8382 Y0.3593
X1.8362 Y0.345
G2 X1.8249 Y0.3349 I-0.0117 J0.0016
G1 X1.7272
X1.7134 Y0.3356
X1.6966 Y0.3407
X1.6788 Y0.3515
X1.6626 Y0.3679
X1.6481 Y0.3927
X1.6394 Y0.4201
X1.6372 Y0.4402
X1.6373 Y0.4436
X1.6383 Y0.4468
X1.6403 Y0.4496
G2 X1.6577 Y0.4487 I0.0083 J-0.0084
G1 X1.6649 Y0.44
X1.7329 Y0.3578
X1.7359 Y0.3542
G2 X1.7272 Y0.3349 I-0.0091 J-0.0075
G1 X1.7207
X1.7142 Y0.335
X1.6946 Y0.3358
X1.6751 Y0.3389
X1.6728 Y0.3394
X1.6717 Y0.3398
X1.6707 Y0.3402
X1.6555 Y0.348
X1.6541 Y0.3488
X1.6527 Y0.3497
X1.6499 Y0.3524
X1.6397 Y0.3626
X1.6383 Y0.364
X1.6373 Y0.3654
X1.636 Y0.3679
X1.6284 Y0.3828
X1.6279 Y0.3839
X1.6276 Y0.385
X1.6265 Y0.3915
X1.6255 Y0.398
X1.6245 Y0.4045
X1.6244 Y0.4062
X1.6245 Y0.4078
X1.6271 Y0.4241
X1.6278 Y0.4273
X1.6295 Y0.431
X1.636 Y0.4437
X1.6378 Y0.4469
X1.6408 Y0.4501
X1.6518 Y0.4611
X1.6532 Y0.4623
X1.6546 Y0.4632
X1.662 Y0.467
X1.6686 Y0.4703
X1.6718 Y0.4719
X1.6734 Y0.4724
X1.6751 Y0.4727
X1.6946 Y0.4758
X1.7142 Y0.4766
X1.7207 Y0.4768
X1.7452
G2 X1.7566 Y0.465 I-0.0004 J-0.0118
G1 Y0.4649
G2 X1.7503 Y0.4545 I-0.0118 J0
G1 X1.748 Y0.4533 Z-0.3047
X1.7458 Y0.4521 Z-0.3038
X1.7438 Y0.4511 Z-0.3024
X1.7422 Y0.4502 Z-0.3006
X1.7409 Y0.4495 Z-0.2983
X1.7402 Y0.4491 Z-0.2958
X1.7399 Y0.449 Z-0.2932
Z0.6
G28 G91 Z0
G90
G28 G91 X0 Y0
G90
M5
M30
