(1001)
(Round 001 - Adaptive Clear 3mm)
(Machine)
(  vendor: SainSmart)
(  model: Genmitsu 3018)
(  description: SainSmart 3018 Original)
(T2  D=0.1181 CR=0 - ZMIN=-0.425 - flat end mill)
G90 G94
G17
G20
(When using Fusion 360 for Personal Use, the feedrate of)
(rapid moves is reduced to match the feedrate of cutting)
(moves, which can increase machining time. Unrestricted rapid)
(moves are available with a Fusion 360 Subscription.)
G28 G91 Z0
G90

(3mm Adaptive Clear)
T2
S10000 M3
G54
G0 X1.7277 Y0.3508
Z0.175
G1 Z0.125 F4.72
Z0.077
G2 X1.7059 Y0.4608 Z0.0708 I-0.0109 J0.055 F3.94
X1.7277 Y0.3508 Z0.0647 I0.0109 J-0.055
X1.7059 Y0.4608 Z0.0585 I-0.0109 J0.055
X1.7277 Y0.3508 Z0.0524 I0.0109 J-0.055
X1.7059 Y0.4608 Z0.0462 I-0.0109 J0.055
X1.7277 Y0.3508 Z0.0401 I0.0109 J-0.055
X1.7059 Y0.4608 Z0.0339 I-0.0109 J0.055
X1.7277 Y0.3508 Z0.0278 I0.0109 J-0.055
X1.7059 Y0.4608 Z0.0216 I-0.0109 J0.055
X1.7277 Y0.3508 Z0.0155 I0.0109 J-0.055
X1.7059 Y0.4608 Z0.0093 I-0.0109 J0.055
X1.7277 Y0.3508 Z0.0031 I0.0109 J-0.055
X1.7059 Y0.4608 Z-0.003 I-0.0109 J0.055
X1.7277 Y0.3508 Z-0.0092 I0.0109 J-0.055
X1.7059 Y0.4608 Z-0.0153 I-0.0109 J0.055
X1.7277 Y0.3508 Z-0.0215 I0.0109 J-0.055
X1.7059 Y0.4608 Z-0.0276 I-0.0109 J0.055
X1.7277 Y0.3508 Z-0.0338 I0.0109 J-0.055
X1.7059 Y0.4608 Z-0.0399 I-0.0109 J0.055
X1.7277 Y0.3508 Z-0.0461 I0.0109 J-0.055
X1.7059 Y0.4608 Z-0.0523 I-0.0109 J0.055
X1.7277 Y0.3508 Z-0.0584 I0.0109 J-0.055
X1.7059 Y0.4608 Z-0.0646 I-0.0109 J0.055
X1.7277 Y0.3508 Z-0.0707 I0.0109 J-0.055
X1.7059 Y0.4608 Z-0.0769 I-0.0109 J0.055
X1.7277 Y0.3508 Z-0.083 I0.0109 J-0.055
X1.7059 Y0.4608 Z-0.0892 I-0.0109 J0.055
X1.7277 Y0.3508 Z-0.0953 I0.0109 J-0.055
X1.7059 Y0.4608 Z-0.1015 I-0.0109 J0.055
X1.7277 Y0.3508 Z-0.1076 I0.0109 J-0.055
X1.7059 Y0.4608 Z-0.1138 I-0.0109 J0.055
X1.7277 Y0.3508 Z-0.12 I0.0109 J-0.055
X1.7059 Y0.4608 Z-0.1261 I-0.0109 J0.055
X1.7277 Y0.3508 Z-0.1323 I0.0109 J-0.055
X1.7059 Y0.4608 Z-0.1384 I-0.0109 J0.055
X1.7277 Y0.3508 Z-0.1446 I0.0109 J-0.055
X1.7059 Y0.4608 Z-0.1507 I-0.0109 J0.055
X1.7277 Y0.3508 Z-0.1569 I0.0109 J-0.055
X1.7059 Y0.4608 Z-0.163 I-0.0109 J0.055
X1.7277 Y0.3508 Z-0.1692 I0.0109 J-0.055
X1.7059 Y0.4608 Z-0.1753 I-0.0109 J0.055
X1.7277 Y0.3508 Z-0.1815 I0.0109 J-0.055
X1.7059 Y0.4608 Z-0.1877 I-0.0109 J0.055
X1.7277 Y0.3508 Z-0.1938 I0.0109 J-0.055
X1.7059 Y0.4608 Z-0.2 I-0.0109 J0.055
X1.7277 Y0.3508 Z-0.2061 I0.0109 J-0.055
X1.7059 Y0.4608 Z-0.2123 I-0.0109 J0.055
X1.7277 Y0.3508 Z-0.2184 I0.0109 J-0.055
X1.7059 Y0.4608 Z-0.2246 I-0.0109 J0.055
X1.7277 Y0.3508 Z-0.2307 I0.0109 J-0.055
X1.7059 Y0.4608 Z-0.2369 I-0.0109 J0.055
X1.7277 Y0.3508 Z-0.2431 I0.0109 J-0.055
X1.7059 Y0.4608 Z-0.2492 I-0.0109 J0.055
X1.7277 Y0.3508 Z-0.2554 I0.0109 J-0.055
X1.7059 Y0.4608 Z-0.2615 I-0.0109 J0.055
X1.7277 Y0.3508 Z-0.2677 I0.0109 J-0.055
X1.7059 Y0.4608 Z-0.2738 I-0.0109 J0.055
X1.7277 Y0.3508 Z-0.28 I0.0109 J-0.055
X1.7059 Y0.4608 Z-0.2861 I-0.0109 J0.055
X1.7277 Y0.3508 Z-0.2923 I0.0109 J-0.055
X1.7059 Y0.4608 Z-0.2984 I-0.0109 J0.055
X1.7277 Y0.3508 Z-0.3046 I0.0109 J-0.055
X1.7059 Y0.4608 Z-0.3108 I-0.0109 J0.055
X1.7277 Y0.3508 Z-0.3169 I0.0109 J-0.055
X1.7059 Y0.4608 Z-0.3231 I-0.0109 J0.055
X1.7277 Y0.3508 Z-0.3292 I0.0109 J-0.055
X1.7059 Y0.4608 Z-0.3354 I-0.0109 J0.055
X1.7277 Y0.3508 Z-0.3415 I0.0109 J-0.055
X1.7059 Y0.4608 Z-0.3477 I-0.0109 J0.055
X1.7277 Y0.3508 Z-0.3538 I0.0109 J-0.055
X1.7059 Y0.4608 Z-0.36 I-0.0109 J0.055
X1.7277 Y0.3508 Z-0.3661 I0.0109 J-0.055
X1.7059 Y0.4608 Z-0.3723 I-0.0109 J0.055
X1.7277 Y0.3508 Z-0.3785 I0.0109 J-0.055
X1.7059 Y0.4608 Z-0.3846 I-0.0109 J0.055
X1.7277 Y0.3508 Z-0.3908 I0.0109 J-0.055
X1.7059 Y0.4608 Z-0.3969 I-0.0109 J0.055
X1.7277 Y0.3508 Z-0.4031 I0.0109 J-0.055
X1.7059 Y0.4608 Z-0.4092 I-0.0109 J0.055
X1.7277 Y0.3508 Z-0.4154 I0.0109 J-0.055
X1.7059 Y0.4608 Z-0.4215 I-0.0109 J0.055
X1.7729 Y0.4058 Z-0.425 I0.0109 J-0.055
X1.6607 Y0.4058 I-0.0561 J0
X1.7729 Y0.4058 I0.0561 J0
G1 X1.773 Y0.4043 F4.72
X1.7735 Y0.4028
X1.7743 Y0.4015
X1.7927 Y0.3849
X1.8005 Y0.3784
X1.8073 Y0.3689
X1.8122 Y0.3565
X1.8142 Y0.3416
X1.8122 Y0.3249
X1.8112 Y0.3224
X1.8087 Y0.3185
X1.8048 Y0.3158
X1.8002 Y0.3149
X1.7112
X1.7056
X1.6887 Y0.3166
X1.6831 Y0.3174
X1.6676 Y0.3198
X1.6662 Y0.3202
X1.6643 Y0.321
X1.6437 Y0.3315
X1.6423 Y0.3323
X1.6413 Y0.3329
X1.6402 Y0.3338
X1.6249 Y0.3491
X1.6212 Y0.3531
X1.6202 Y0.3548
X1.61 Y0.3748
X1.6088 Y0.3772
X1.6083 Y0.3786
X1.6081 Y0.3801
X1.6044 Y0.4033
X1.6042 Y0.4054
X1.6044 Y0.4083
X1.6075 Y0.4278
X1.6085 Y0.4335
X1.6091 Y0.4351
X1.6198 Y0.456
X1.6212 Y0.4586
X1.624 Y0.4616
X1.6381 Y0.4757
X1.641 Y0.4784
X1.6424 Y0.4794
X1.6437 Y0.4801
X1.6626 Y0.4897
X1.6662 Y0.4914
X1.6676 Y0.4918
X1.6831 Y0.4943
X1.6887 Y0.495
X1.7056 Y0.4967
X1.7112 Y0.4968
X1.7787
X1.7954 Y0.4959
X1.8122 Y0.4908
X1.8333 Y0.4779
X1.8528 Y0.4627
X1.8703 Y0.4451
X1.885 Y0.4252
X1.8967 Y0.4034
X1.9046 Y0.3799
X1.9087 Y0.3555
X1.9093 Y0.3308
X1.9083 Y0.3249
X1.9062 Y0.3197
X1.902 Y0.3162
X1.8967 Y0.3149
X1.8002
G2 X1.7889 Y0.3251 I0.0004 J0.0118
G1 X1.787 Y0.3393
X1.7689 Y0.4723
X1.7674 Y0.4834
G2 X1.7787 Y0.4968 I0.0117 J0.0016
G1 X1.8968
X1.9117 Y0.496
X1.9314 Y0.49
X1.952 Y0.4774
X1.9694 Y0.4598
X1.983 Y0.4391
X1.993 Y0.4165
X2.0002 Y0.3928
X2.0044 Y0.3684
X2.0062 Y0.3437
X2.005 Y0.3259
X2.0032 Y0.3203
X1.9989 Y0.3163
X1.9932 Y0.3149
X1.8967
G2 X1.8853 Y0.3267 I0.0004 J0.0118
G1 Y0.3394
X1.8854 Y0.4722
Y0.485
G2 X1.8968 Y0.4968 I0.0118 J0
G1 X1.998
X2.0153 Y0.4959
X2.0332 Y0.4904
X2.0517 Y0.4792
X2.0691 Y0.4615
X2.0822 Y0.4406
X2.0915 Y0.4176
X2.0978 Y0.3937
X2.1018 Y0.3693
X2.1031 Y0.3445
X2.1017 Y0.3258
X2.0999 Y0.3203
X2.0956 Y0.3163
X2.09 Y0.3149
X1.9932
G2 X1.9818 Y0.327 I0.0004 J0.0118
G1 X1.9822 Y0.3394
X1.9862 Y0.4722
X1.9866 Y0.4853
G2 X1.998 Y0.4968 I0.0118 J-0.0004
G1 X2.0992
X2.1144 Y0.496
X2.132 Y0.4906
X2.1499 Y0.4798
X2.1672 Y0.4621
X2.1802 Y0.4411
X2.1893 Y0.418
X2.1954 Y0.394
X2.199 Y0.3695
X2.2001 Y0.3448
X2.1987 Y0.3262
X2.1969 Y0.3208
X2.1928 Y0.3169
X2.1873 Y0.3153
X2.1779 Y0.315
X2.1723 Y0.3149
X2.09
G2 X2.0786 Y0.3274 I0.0004 J0.0118
G1 X2.0793 Y0.3394
X2.087 Y0.4722
X2.0878 Y0.4856
G2 X2.0992 Y0.4968 I0.0118 J-0.0007
G1 X2.1723
X2.1779 Y0.4966
X2.1892 Y0.4962
X2.1948 Y0.4959
X2.2061 Y0.4941
X2.2201 Y0.4919
X2.2215 Y0.4916
X2.2229 Y0.4911
X2.2258 Y0.4897
X2.2454 Y0.4797
X2.2474 Y0.4784
X2.251 Y0.475
X2.2644 Y0.4616
X2.2664 Y0.4595
X2.2673 Y0.4584
X2.2679 Y0.4574
X2.2792 Y0.4353
X2.2799 Y0.4335
X2.2809 Y0.4278
X2.2836 Y0.411
X2.2842 Y0.4054
X2.2834 Y0.3997
X2.2803 Y0.3801
X2.28 Y0.3786
X2.2796 Y0.3772
X2.2792 Y0.3763
X2.2679 Y0.3543
X2.2671 Y0.353
X2.2661 Y0.3517
X2.2485 Y0.3342
X2.2473 Y0.3331
X2.2461 Y0.3323
X2.2454 Y0.3319
X2.224 Y0.321
X2.2229 Y0.3205
X2.2215 Y0.32
X2.2201 Y0.3197
X2.1948 Y0.3157
X2.1902 Y0.3154
X2.1873 Y0.3153
G2 X2.1755 Y0.3271 I0 J0.0118
X2.1814 Y0.3374 I0.0118 J0
G1 X2.1837 Y0.3387 Z-0.4247
X2.1859 Y0.3399 Z-0.4238
X2.1878 Y0.341 Z-0.4224
X2.1894 Y0.342 Z-0.4206
X2.1907 Y0.3427 Z-0.4183
X2.1914 Y0.3431 Z-0.4158
X2.1917 Y0.3432 Z-0.4132
Z0.175
G28 G91 Z0
G90
G28 G91 X0 Y0
G90
M5
M30
