%
(1001)
(Round 001 - Pocket Finish 0.8mm)
(Machine)
(  vendor: SainSmart)
(  model: Genmitsu 3018)
(  description: SainSmart 3018 Original)
(T7  D=0.0315 CR=0 - ZMIN=-0.075 - flat end mill)
G90 G94
G17
G20
(When using Fusion 360 for Personal Use, the feedrate of)
(rapid moves is reduced to match the feedrate of cutting)
(moves, which can increase machining time. Unrestricted rapid)
(moves are available with a Fusion 360 Subscription.)
G0 Z0.5

(0.8mm Pocket Finish)
M9
T7
S10000 M3
G54
M9
G0 X0.1711 Y0.1966
Z0.175
G1 Z0.025 F4.33
Z0.0179
G3 X0.1714 Y0.1958 Z0.0159 I0.0142 J0.0048 F3.94
X0.1723 Y0.194 Z0.015 I0.0139 J0.0056
X0.1983 Y0.2088 Z0.0134 I0.013 J0.0074
X0.1723 Y0.194 Z0.0117 I-0.013 J-0.0074
X0.1983 Y0.2088 Z0.0101 I0.013 J0.0074
X0.1723 Y0.194 Z0.0084 I-0.013 J-0.0074
X0.1983 Y0.2088 Z0.0068 I0.013 J0.0074
X0.1723 Y0.194 Z0.0052 I-0.013 J-0.0074
X0.1983 Y0.2088 Z0.0035 I0.013 J0.0074
X0.1723 Y0.194 Z0.0019 I-0.013 J-0.0074
X0.1983 Y0.2088 Z0.0002 I0.013 J0.0074
X0.1723 Y0.194 Z-0.0014 I-0.013 J-0.0074
X0.1983 Y0.2088 Z-0.0031 I0.013 J0.0074
X0.1723 Y0.194 Z-0.0047 I-0.013 J-0.0074
X0.1983 Y0.2088 Z-0.0063 I0.013 J0.0074
X0.1723 Y0.194 Z-0.008 I-0.013 J-0.0074
X0.1983 Y0.2088 Z-0.0096 I0.013 J0.0074
X0.1723 Y0.194 Z-0.0113 I-0.013 J-0.0074
X0.1983 Y0.2088 Z-0.0129 I0.013 J0.0074
X0.1723 Y0.194 Z-0.0145 I-0.013 J-0.0074
X0.1983 Y0.2088 Z-0.0162 I0.013 J0.0074
X0.1723 Y0.194 Z-0.0178 I-0.013 J-0.0074
X0.1983 Y0.2088 Z-0.0195 I0.013 J0.0074
X0.1723 Y0.194 Z-0.0211 I-0.013 J-0.0074
X0.1983 Y0.2088 Z-0.0227 I0.013 J0.0074
X0.1723 Y0.194 Z-0.0244 I-0.013 J-0.0074
X0.1983 Y0.2088 Z-0.026 I0.013 J0.0074
X0.1723 Y0.194 Z-0.0277 I-0.013 J-0.0074
X0.1983 Y0.2088 Z-0.0293 I0.013 J0.0074
X0.1723 Y0.194 Z-0.031 I-0.013 J-0.0074
X0.1983 Y0.2088 Z-0.0326 I0.013 J0.0074
X0.1723 Y0.194 Z-0.0342 I-0.013 J-0.0074
X0.1983 Y0.2088 Z-0.0359 I0.013 J0.0074
X0.1723 Y0.194 Z-0.0375 I-0.013 J-0.0074
X0.1983 Y0.2088 Z-0.0392 I0.013 J0.0074
X0.1723 Y0.194 Z-0.0408 I-0.013 J-0.0074
X0.1983 Y0.2088 Z-0.0424 I0.013 J0.0074
X0.1723 Y0.194 Z-0.0441 I-0.013 J-0.0074
X0.1983 Y0.2088 Z-0.0457 I0.013 J0.0074
X0.1723 Y0.194 Z-0.0474 I-0.013 J-0.0074
X0.1983 Y0.2088 Z-0.049 I0.013 J0.0074
X0.1723 Y0.194 Z-0.0507 I-0.013 J-0.0074
X0.1983 Y0.2088 Z-0.0523 I0.013 J0.0074
X0.1723 Y0.194 Z-0.0539 I-0.013 J-0.0074
X0.1983 Y0.2088 Z-0.0556 I0.013 J0.0074
X0.1723 Y0.194 Z-0.0572 I-0.013 J-0.0074
X0.1983 Y0.2088 Z-0.0589 I0.013 J0.0074
X0.1723 Y0.194 Z-0.0605 I-0.013 J-0.0074
X0.1983 Y0.2088 Z-0.0621 I0.013 J0.0074
X0.1723 Y0.194 Z-0.0638 I-0.013 J-0.0074
X0.1983 Y0.2088 Z-0.0654 I0.013 J0.0074
X0.1723 Y0.194 Z-0.0671 I-0.013 J-0.0074
X0.1983 Y0.2088 Z-0.0687 I0.013 J0.0074
X0.1723 Y0.194 Z-0.0703 I-0.013 J-0.0074
X0.1983 Y0.2088 Z-0.072 I0.013 J0.0074
X0.1723 Y0.194 Z-0.0736 I-0.013 J-0.0074
X0.2002 Y0.2014 Z-0.075 I0.013 J0.0074
X0.1979 I-0.0012 F4.33
X0.2302 I0.0161
X0.168 I-0.0311
X0.2333 I0.0327
X0.1648 I-0.0343
X0.2333 I0.0343
X0.1648 I-0.0343
X0.2333 I0.0343
X0.2327 Y0.2033 Z-0.0741 I-0.0031
X0.232 Y0.2039 Z-0.0721 I-0.0025 J-0.0019
G1 Z0.175
M9
G0 Z0.5
M30
%
